/* XPM */
static char *NORMAO_xpm[]={
"32 32 589 2",
"      c #C4C4FF",
" 0    c #C1C1FF",
" 1    c #C2C1FF",
" 2    c #C4C0FF",
" 3    c #C5C0FF",
" 4    c #C3C0FF",
" 5    c #C3C1FF",
" 6    c #C1BEC7",
" 7    c #C1BEC5",
" 8    c #C1BFC5",
" 9    c #C3C0C7",
" a    c #C4C2C7",
" b    c #C4C2CB",
" c    c #C5C5FF",
" d    c #C2C0FF",
" e    c #C3C3FF",
" f    c #B3C6FF",
" g    c #A6CDFF",
" h    c #B6D1FF",
" i    c #B4D2FF",
" j    c #DFDFE3",
" k    c #DBDBDB",
" l    c #D4D4D4",
" m    c #CACACA",
" n    c #C2C1C2",
" o    c #C1BFC1",
" p    c #C3C1C3",
" q    c #C4C2C4",
" r    c #C4C2C6",
" s    c #C8C0FF",
" t    c #BEC3FF",
" u    c #AECDFF",
" v    c #67D5FF",
" w    c #34D9FF",
" x    c #76E0FF",
" y    c #BCDDFF",
" z    c #AFDEFF",
" A    c #F6FDFF",
" B    c #FFFFFF",
" C    c #FAFBFA",
" D    c #EBEDEB",
" E    c #D7D7D7",
" F    c #C6C4C6",
" G    c #C6C2FF",
" H    c #8FCBFF",
" I    c #83D8FF",
" J    c #88E0FF",
" K    c #5CCDFF",
" L    c #61DEFF",
" M    c #80E1FF",
" N    c #93DCFF",
" O    c #F9FCFF",
" P    c #F1F1F1",
" Q    c #D3D2D3",
" R    c #C2BFC2",
" S    c #C5C2FF",
" T    c #67CBFF",
" U    c #2AC2FF",
" V    c #66D8FF",
" W    c #73CCFF",
" X    c #4DB4FF",
" Y    c #3ED1FF",
" Z    c #8BDBFF",
" &    c #D3CFFF",
"0     c #C1C5FF",
"00    c #F5FCFF",
"01    c #FDFDFD",
"02    c #E0DFE0",
"03    c #7FC4FF",
"04    c #27C8FF",
"05    c #3CC7FF",
"06    c #9DD0FF",
"07    c #9BD2FF",
"08    c #28DBFF",
"09    c #3DDAFF",
"0a    c #96D2FF",
"0b    c #CDDAFF",
"0c    c #B8E5FF",
"0d    c #F7FDFF",
"0e    c #E3E4E3",
"0f    c #C6C1FF",
"0g    c #7AD2FF",
"0h    c #3CCCFF",
"0i    c #03E3FF",
"0j    c #4BE6FF",
"0k    c #A0CBFF",
"0l    c #7EE2FF",
"0m    c #64FBFF",
"0n    c #76E6FF",
"0o    c #8CCEFF",
"0p    c #94DDFF",
"0q    c #93F5FF",
"0r    c #F9FDFF",
"0s    c #CAC0FF",
"0t    c #86CCFF",
"0u    c #51DCFF",
"0v    c #56BAFF",
"0w    c #26D8FF",
"0x    c #5ED5FF",
"0y    c #65BCFF",
"0z    c #6ABEFF",
"0A    c #70D1FF",
"0B    c #6FCEFF",
"0C    c #8AC5FF",
"0D    c #A2BFFF",
"0E    c #A0BDFF",
"0F    c #F8FBFF",
"0G    c #C4C1FF",
"0H    c #B8C1FF",
"0I    c #26B5FF",
"0J    c #51B7FF",
"0K    c #4C8EFF",
"0L    c #41AFFF",
"0M    c #55C2FF",
"0N    c #8A9FFF",
"0O    c #7883FF",
"0P    c #329FFF",
"0Q    c #4AC1FF",
"0R    c #DB9AFF",
"0S    c #C385FF",
"0T    c #F6F9FF",
"0U    c #F2F2F2",
"0V    c #C4C1C4",
"0W    c #C9C3FF",
"0X    c #7AAFFF",
"0Y    c #119BFF",
"0Z    c #4DAFFF",
"0&    c #328FFF",
"1     c #0CAFFF",
"10    c #6FC0FF",
"11    c #C7AEFF",
"12    c #7FA1FF",
"13    c #18B1FF",
"14    c #3FC0FF",
"15    c #A5BFFF",
"16    c #E2B4FF",
"17    c #C7ADFF",
"18    c #F6FBFF",
"19    c #D8D8D8",
"1a    c #C0C1FF",
"1b    c #17B8FF",
"1c    c #86C3FF",
"1d    c #27E6FF",
"1e    c #09C5FF",
"1f    c #75B6FF",
"1g    c #ACE0FF",
"1h    c #77FEFF",
"1i    c #47E1FF",
"1j    c #67BAFF",
"1k    c #94BFFF",
"1l    c #B4E3FF",
"1m    c #A7FFFF",
"1n    c #CCD1D2",
"1o    c #6C6C6C",
"1p    c #F9F9F9",
"1q    c #EDECED",
"1r    c #C5C1FF",
"1s    c #AEC1FF",
"1t    c #0FDEFF",
"1u    c #20C0FF",
"1v    c #73C8FF",
"1w    c #35EFFF",
"1x    c #38C4FF",
"1y    c #67B2FF",
"1z    c #70DAFF",
"1A    c #6DF2FF",
"1B    c #78D2FF",
"1C    c #7BB9FF",
"1D    c #8CB6FF",
"1E    c #92CFFF",
"1F    c #94F3FF",
"1G    c #CED0D2",
"1H    c #000000",
"1I    c #333333",
"1J    c #DEDEDE",
"1K    c #FFFDFF",
"1L    c #F3F4F3",
"1M    c #C8C8C8",
"1N    c #C3C0C3",
"1O    c #C8C3FF",
"1P    c #8EB7FF",
"1Q    c #16B2FF",
"1R    c #28A6FF",
"1S    c #3E96FF",
"1T    c #46AEFF",
"1U    c #49ADFF",
"1V    c #5DA0FF",
"1W    c #415E99",
"1X    c #436199",
"1Y    c #3D6599",
"1Z    c #426699",
"1&    c #555F99",
"2     c #625C99",
"20    c #5F5E99",
"21    c #7B7C7E",
"22    c #0F0F0F",
"23    c #B1B1B1",
"24    c #FFFCFF",
"25    c #F8F7F8",
"26    c #F3F3F3",
"27    c #CFCECF",
"28    c #C2C0C2",
"29    c #CCC7FF",
"2a    c #6998FF",
"2b    c #096FFF",
"2c    c #3092FF",
"2d    c #6259FF",
"2e    c #2973FF",
"2f    c #25A0FF",
"2g    c #708BFF",
"2h    c #727272",
"2i    c #FFFEFF",
"2j    c #FCF9FC",
"2k    c #F4F4F4",
"2l    c #F0F0F0",
"2m    c #CAC7FF",
"2n    c #6B97FF",
"2o    c #026BFF",
"2p    c #2F93FF",
"2q    c #8D5DFF",
"2r    c #1471FF",
"2s    c #0A9FFF",
"2t    c #8A90FF",
"2u    c #393939",
"2v    c #E1E1E1",
"2w    c #FEFBFE",
"2x    c #F7F7F7",
"2y    c #F0EFF0",
"2z    c #E8E8E8",
"2A    c #D2D1D2",
"2B    c #CBC3FF",
"2C    c #65B3FF",
"2D    c #08AFFF",
"2E    c #2E93FF",
"2F    c #65C1FF",
"2G    c #26B8FF",
"2H    c #2893FF",
"2I    c #76A0FF",
"2J    c #818181",
"2K    c #FAF8FA",
"2L    c #F1F2F1",
"2M    c #EAEAEA",
"2N    c #E0E0E0",
"2O    c #CDCCCD",
"2P    c #CCC3FF",
"2Q    c #6AB5FF",
"2R    c #11BCFF",
"2S    c #2C93FF",
"2T    c #3DD3FF",
"2U    c #47CDFF",
"2V    c #4A94FF",
"2W    c #62A3FF",
"2X    c #F2F2F3",
"2Y    c #E1E0E1",
"2Z    c #D3D4D3",
"2&    c #C6C6C6",
"3     c #C8C5FF",
"30    c #8CA5FF",
"31    c #0A76FF",
"32    c #2681FF",
"33    c #668BFF",
"34    c #3996FF",
"35    c #448CFF",
"36    c #678AFF",
"37    c #162033",
"38    c #162133",
"39    c #181E33",
"3a    c #181C33",
"3b    c #1C1C33",
"3c    c #1E1F33",
"3d    c #1F2433",
"3e    c #29292A",
"3f    c #EAEAEB",
"3g    c #E3DFE0",
"3h    c #C3C2C3",
"3i    c #C4C4C4",
"3j    c #C3C4C7",
"3k    c #ACB3FF",
"3l    c #1234FF",
"3m    c #2361FF",
"3n    c #883EFF",
"3o    c #213DFF",
"3p    c #1476FF",
"3q    c #7D6FFF",
"3r    c #AC4AFF",
"3s    c #733FFF",
"3t    c #4267FF",
"3u    c #687BFF",
"3v    c #996EFF",
"3w    c #BC53FF",
"3x    c #AE41FF",
"3y    c #CCCBD2",
"3z    c #F9F8F9",
"3A    c #FDFBFD",
"3B    c #EBE9EB",
"3C    c #DDDFDD",
"3D    c #D4D1D4",
"3E    c #C3C3C3",
"3F    c #B8B8B8",
"3G    c #C7C5C5",
"3H    c #C8C9C8",
"3I    c #C7C8CC",
"3J    c #C2C2FF",
"3K    c #C5C3FF",
"3L    c #4667FF",
"3M    c #165DFF",
"3N    c #574DFF",
"3O    c #2928FF",
"3P    c #0864FF",
"3Q    c #7870FF",
"3R    c #CB32FF",
"3S    c #7918FF",
"3T    c #1747FF",
"3U    c #4278FF",
"3V    c #AB66FF",
"3W    c #E92EFF",
"3X    c #C914FF",
"3Y    c #CAC7D1",
"3Z    c #ABAAAB",
"3&    c #FDFAFD",
"4     c #F2F3F2",
"40    c #EEECEE",
"41    c #E5E5E5",
"42    c #DCDADC",
"43    c #CCCDCC",
"44    c #BEBEBE",
"45    c #AFAFAF",
"46    c #B5B4B5",
"47    c #CECECF",
"48    c #D1D1D1",
"49    c #CFCFD3",
"4a    c #CBC4FF",
"4b    c #7AADFF",
"4c    c #0A88FF",
"4d    c #4573FF",
"4e    c #419AFF",
"4f    c #3B7EFF",
"4g    c #586AFF",
"4h    c #9278FF",
"4i    c #777FFF",
"4j    c #3377FF",
"4k    c #4D6DFF",
"4l    c #9A70FF",
"4m    c #D66FFF",
"4n    c #C170FF",
"4o    c #D6D6DF",
"4p    c #D6D4D6",
"4q    c #F1F0F1",
"4r    c #DCDDDC",
"4s    c #C5C5C5",
"4t    c #B6B7B6",
"4u    c #A9A8A9",
"4v    c #9C9C9C",
"4w    c #C0C0C0",
"4x    c #D7D6D7",
"4y    c #D5D5D5",
"4z    c #D4D5D7",
"4A    c #C4C2FF",
"4B    c #BBBEFF",
"4C    c #2A83FF",
"4D    c #6566FF",
"4E    c #4E9DFF",
"4F    c #3AA0FF",
"4G    c #5F65FF",
"4H    c #648AFF",
"4I    c #6CC7FF",
"4J    c #6EACFF",
"4K    c #6B70FF",
"4L    c #876DFF",
"4M    c #A2A4FF",
"4N    c #9FCCFF",
"4O    c #E4E3EA",
"4P    c #E8E6E8",
"4Q    c #E3E3E3",
"4R    c #CECFCE",
"4S    c #C3C4C3",
"4T    c #B8B7B8",
"4U    c #A8A9A8",
"4V    c #9A9B9A",
"4W    c #8B8A8B",
"4X    c #9E9E9E",
"4Y    c #D9D9D9",
"4Z    c #DDDEDD",
"4&    c #DCDCDC",
"5     c #DBDBDE",
"50    c #C9C8FF",
"51    c #8490FF",
"52    c #3F2AFF",
"53    c #403CFF",
"54    c #044BFF",
"55    c #625EFF",
"56    c #9655FF",
"57    c #756FFF",
"58    c #6B75FF",
"59    c #7768FF",
"5a    c #8C5DFF",
"5b    c #9370FF",
"5c    c #9289FF",
"5d    c #CACAD0",
"5e    c #CECCCD",
"5f    c #C9C8C7",
"5g    c #C1C0C0",
"5h    c #B0B0B0",
"5i    c #A3A3A3",
"5j    c #989698",
"5k    c #898A89",
"5l    c #7C7B7C",
"5m    c #7C7C7C",
"5n    c #C6C7C6",
"5o    c #E7E7E7",
"5p    c #E4E4E4",
"5q    c #E2E2E5",
"5r    c #C5C7FF",
"5s    c #7B67FF",
"5t    c #4426FF",
"5u    c #1D03FF",
"5v    c #4726FF",
"5w    c #B641FF",
"5x    c #940CFF",
"5y    c #2C0AFF",
"5z    c #5239FF",
"5A    c #9C49FF",
"5B    c #C825FF",
"5C    c #B30CFF",
"5D    c #A5A0AF",
"5E    c #A4A3A2",
"5F    c #9B9C9C",
"5G    c #949493",
"5H    c #8B8A8A",
"5I    c #808080",
"5J    c #767576",
"5K    c #696969",
"5L    c #656365",
"5M    c #AAABAB",
"5N    c #E7E8E6",
"5O    c #EAEAE8",
"5P    c #EBEAEC",
"5Q    c #ECEBEC",
"5R    c #EAEAED",
"5S    c #827FFF",
"5T    c #233DFF",
"5U    c #4356FF",
"5V    c #734CFF",
"5W    c #7E32FF",
"5X    c #3429FF",
"5Y    c #3435FF",
"5Z    c #9246FF",
"5&    c #E029FF",
"6     c #C816FF",
"60    c #807E8A",
"61    c #7D7C7C",
"62    c #767676",
"63    c #6F6F6E",
"64    c #676767",
"65    c #5F605F",
"66    c #555555",
"67    c #535353",
"68    c #919091",
"69    c #D6D5D6",
"6a    c #E4E3E4",
"6b    c #EBE9EA",
"6c    c #EFEFEF",
"6d    c #F0F0F4",
"6e    c #C3C4FF",
"6f    c #617BFF",
"6g    c #2551FF",
"6h    c #7B51FF",
"6i    c #754CFF",
"6j    c #6B86FF",
"6k    c #6C73FF",
"6l    c #7E3FFF",
"6m    c #9A62FF",
"6n    c #9E8DFF",
"6o    c #5F5E66",
"6p    c #5C5C5C",
"6q    c #5C5A5C",
"6r    c #565656",
"6s    c #505050",
"6t    c #494949",
"6u    c #424242",
"6v    c #B2B1B2",
"6w    c #D4D5D5",
"6x    c #E6E6E7",
"6y    c #F5F6F5",
"6z    c #F6F5F9",
"6A    c #C8C6FF",
"6B    c #8F86FF",
"6C    c #8227FF",
"6D    c #9111FF",
"6E    c #4417FF",
"6F    c #4921FF",
"6G    c #8B28FF",
"6H    c #AC30FF",
"6I    c #9C2FFF",
"6J    c #413B47",
"6K    c #3B3B3C",
"6L    c #3A393B",
"6M    c #373637",
"6N    c #313231",
"6O    c #343334",
"6P    c #4C494C",
"6Q    c #727072",
"6R    c #8B8B8B",
"6S    c #999999",
"6T    c #AEAEAE",
"6U    c #C8C8C9",
"6V    c #E0E1E1",
"6W    c #F0F2F0",
"6X    c #FCFAFC",
"6Y    c #FCFBFF",
"6Z    c #C8CAFF",
"6&    c #BEB8FF",
"7     c #A57AFF",
"70    c #6C3EFF",
"71    c #3810FF",
"72    c #7016FF",
"73    c #BD09FF",
"74    c #B203FF",
"75    c #1C1526",
"76    c #1A181A",
"77    c #19191B",
"78    c #1E1F1D",
"79    c #2E302E",
"7a    c #4D4D4D",
"7b    c #696869",
"7c    c #757475",
"7d    c #7D7D7D",
"7e    c #8E8E8E",
"7f    c #A4A5A4",
"7g    c #C4C3C4",
"7h    c #DFDFDF",
"7i    c #F1F3F1",
"7j    c #FCFCFF",
"7k    c #C2C4FF",
"7l    c #C5C9FF",
"7m    c #B4ADFF",
"7n    c #A58DFF",
"7o    c #AC69FF",
"7p    c #AC6BFF",
"7q    c #312C37",
"7r    c #3E3E3E",
"7s    c #575857",
"7t    c #656565",
"7u    c #717071",
"7v    c #7B7C7B",
"7w    c #898889",
"7x    c #9A9A9A",
"7y    c #AEAFAE",
"7z    c #CBCBCB",
"7A    c #C2C3FF",
"7B    c #C4C5FF",
"7C    c #C5C8FF",
"7D    c #C4CCFF",
"7E    c #C4CAFF",
"7F    c #6B6B6E",
"7G    c #646564",
"7H    c #686868",
"7I    c #6E6E6E",
"7J    c #8D8D8D",
"7K    c #979897",
"7L    c #A7A6A7",
"7M    c #B8B6B8",
"7N    c #C7C7C7",
"7O    c #ECEDEC",
"7P    c #FAF9FA",
"7Q    c #919494",
"7R    c #929392",
"7S    c #9C9B9C",
"7T    c #A3A1A3",
"7U    c #B4B4B4",
"7V    c #BDBEBD",
"7W    c #C9C9C9",
"7X    c #D7D5D7",
"7Y    c #F8F6F8",
"7Z    c #FEFDFE",
"7&    c #C8C8FF",
"8     c #C0C3C7",
"80    c #C2C4C5",
"81    c #C7C6CA",
"82    c #C9C9CC",
"83    c #CBCCCF",
"84    c #D1D1D4",
"85    c #D7D7DA",
"86    c #DDDEE1",
"87    c #E4E4E7",
"88    c #EAEBED",
"89    c #F7F5FA",
"8a    c #FCFAFF",
"8b    c #F9F9FF",
"   0 0 0 0 0 0 0 0 0 0 1 2 3 4 5 6 7 8 9 a a a a a a a a a a a b",
" c 0 0 0 0 0 0 0 0 d 2 e f g h i j k l m n o p q q q q q q q q r",
" c 0 0 0 0 0 0 1 s t u v w x y z A B B C D E F o q q q q q q q a",
" c 0 0 0 0 0 5 G H I J K L M N N O B B B B B P Q R p q q q q q a",
" c 0 0 0 0 5 S T U V W X Y Z &0 00 B B B B B B0102 n p q q q q a",
" c 0 0 0 5 2030405060708090a0b0c0d B B B B B B B B0e n p q q q a",
" c 0 0 10f0g0h0i0j0k0l0m0n0o0p0q0r B B B B B B B B B02 o q q q a",
" c 0 00s0t0u0v0w0x0y0z0A0B0C0D0E0F B B B B B B B B B01 Q o q q a",
" c 00G0H0I0J0K0L0M0N0O0P0Q0E0R0S0T B B B B B B B B B B0U F0V q a",
" c 00W0X0Y0Z0&1 101112131415161718 B B B B B B B B B B B19 o q a",
" c 51a141b1c1d1e1f1g1h1i1j1k1l1m1n1o1p B B B B B B B B B1q n q a",
" c1r1s1t1u1v1w1x1y1z1A1B1C1D1E1F1G1H1I1J B B B B B B B1K1L1M1N a",
" c1O1P1Q1R1S1T1U1V1W1X1Y1Z1&2 20211H1H2223 B B B B B2425262728 a",
" c292a2b2c2d2e2f2g1H1H1H1H1H1H1H1H1H1H1H1H2h1p B B2i2j2k2l Q28 a",
" c2m2n2o2p2q2r2s2t1H1H1H1H1H1H1H1H1H1H1H1H1H2u2v B2w2x2y2z2A28 a",
" c2B2C2D2E2F2G2H2I1H1H1H1H1H1H1H1H1H1H1H1H1H1H2J2i2K2L2M2N2O28 a",
" c2P2Q2R2S2T2U2V2W1H1H1H1H1H1H1H1H1H1H1H1H22232i2j2X2M2Y2Z2&0V a",
" c3 303132333435363738393a3b3c3d3e1H1H1H1I1J2i2j2X3f3g l2&3h3i3j",
" c c3k3l3m3n3o3p3q3r3s3t3u3v3w3x3y1H1H1o3z3A250U3B3C3D3E3F3G3H3I",
" c3J3K3L3M3N3O3P3Q3R3S3T3U3V3W3X3Y223Z3&254 40414243444546474849",
" c 04a4b4c4d4e4f4g4h4i4j4k4l4m4n4o4p264q1q414r Q4s4t4u4v4w4x4y4z",
" c 04A4B4C4D4E4F4G4H4I4J4K4L4M4N4O4P4Q1J E4R4S4T4U4V4W4X4Y4Z4&5 ",
" c 0 0505152535455565758595a5b5c5d5e5f5g3F5h5i5j5k5l5m5n5o5p5p5q",
" c 0 03J5r5s5t5u5v5w5x5y5z5A5B5C5D4u5E5F5G5H5I5J5K5L5M5N5O5P5Q5R",
" c 0 0 0 e c5S5T5U5V5W5X5Y5Z5&6 605I6162636465666768696a6b6c0U6d",
" c 0 0 0 0 e6e6f6g6h6i6j6k6l6m6n6o6p6q6r6s6t6u6t5m6v3E6w6x P6y6z",
" c 0 0 0 0 0 e6A6B6C6D6E6F6G6H6I6J6K6L6M6N6O6P6Q6R6S6T6U6V6W6X6Y",
" c 0 0 0 0 0 03J6Z6&7 707172737475767778797a7b7c7d7e7f7g7h7i1K7j",
" c 0 0 0 0 0 0 0 07k7l 27m7n7o7p7q6N7r6t7s7t7u7v7w7x7y7z6a261K7j",
" c 0 0 0 0 0 0 0 0 0 07A7B7C7D7E7F7G7H7I622J7J7K7L7M7N4&7O7P2i7j",
"   0 0 0 0 0 0 0 0 0 0 0 0 0 0 07Q7R5j7S7T3Z7U7V7W7X2v7O7Y7Z B7j",
"7& c c c c c c c c c c c c c c c8 8081828384858687886d898a7j7j8b"};
