/* XPM */
static char *NinjaMesh_CapEdges[] = {
/* columns rows colors chars-per-pixel */
"115 24 174 2",
"   c black",
".  c #020202",
"X  c gray2",
"o  c #070707",
"O  c gray3",
"+  c #090909",
"@  c gray4",
"#  c #0B0B0B",
"$  c #0C0C0C",
"%  c gray5",
"&  c #0E0E0E",
"*  c gray6",
"=  c #101010",
"-  c #111111",
";  c gray7",
":  c #131313",
">  c gray8",
",  c #2A2A2A",
"<  c gray17",
"1  c #2C2C2C",
"2  c #2D2D2D",
"3  c gray18",
"4  c #2F2F2F",
"5  c gray19",
"6  c #313131",
"7  c #323232",
"8  c gray20",
"9  c #343434",
"0  c #353535",
"q  c gray21",
"w  c #373737",
"e  c gray22",
"r  c #393939",
"t  c #3A3A3A",
"y  c gray23",
"u  c #3C3C3C",
"i  c gray24",
"p  c #3E3E3E",
"a  c #3F3F3F",
"s  c #055D72",
"d  c #0A6177",
"f  c #0F677C",
"g  c gray25",
"h  c #414141",
"j  c gray26",
"k  c #434343",
"l  c #444444",
"z  c gray27",
"x  c #464646",
"c  c #484848",
"v  c #494949",
"b  c gray29",
"n  c #4B4B4B",
"m  c #4C4C4C",
"M  c gray30",
"N  c #4E4E4E",
"B  c gray31",
"V  c #505050",
"C  c #515151",
"Z  c gray32",
"A  c #535353",
"S  c gray33",
"D  c #555555",
"F  c #565656",
"G  c gray34",
"H  c #585858",
"J  c gray35",
"K  c #5A5A5A",
"L  c #5B5B5B",
"P  c gray36",
"I  c #5D5D5D",
"U  c gray37",
"Y  c #5F5F5F",
"T  c #606060",
"R  c gray38",
"E  c #626262",
"W  c gray39",
"Q  c #676767",
"!  c #686868",
"~  c DimGray",
"^  c #6A6A6A",
"/  c gray42",
"(  c #6C6C6C",
")  c #6D6D6D",
"_  c gray43",
"`  c #6F6F6F",
"'  c gray44",
"]  c #717171",
"[  c #727272",
"{  c gray45",
"}  c #747474",
"|  c gray46",
" . c #767676",
".. c #777777",
"X. c gray47",
"o. c #797979",
"O. c gray48",
"+. c #7B7B7B",
"@. c #7C7C7C",
"#. c gray49",
"$. c #7E7E7E",
"%. c #7F7F7F",
"&. c red",
"*. c green",
"=. c #156D82",
"-. c #1C7389",
";. c #237A90",
":. c #2A8297",
">. c #32899F",
",. c #3A91A7",
"<. c #4299AF",
"1. c #49A1B6",
"2. c #51A9BE",
"3. c #03B3DE",
"4. c #59B0C6",
"5. c #60B8CD",
"6. c #67BFD4",
"7. c #6EC6DB",
"8. c #74C9DE",
"9. c #74CCE1",
"0. c #79D1E7",
"q. c #7ED6EB",
"w. c #808080",
"e. c #818181",
"r. c gray51",
"t. c #838383",
"y. c #848484",
"u. c gray52",
"i. c #868686",
"p. c gray53",
"a. c #888888",
"s. c #898989",
"d. c gray54",
"f. c #8B8B8B",
"g. c gray55",
"h. c #8D8D8D",
"j. c #8E8E8E",
"k. c gray56",
"l. c #909090",
"z. c gray57",
"x. c #929292",
"c. c #939393",
"v. c gray58",
"b. c #959595",
"n. c gray59",
"m. c #979797",
"M. c #989898",
"N. c gray60",
"B. c #9A9A9A",
"V. c #9B9B9B",
"C. c gray61",
"Z. c #9D9D9D",
"A. c gray62",
"S. c #9F9F9F",
"D. c #A0A0A0",
"F. c gray63",
"G. c #A2A2A2",
"H. c gray64",
"J. c #A4A4A4",
"K. c #A5A5A5",
"L. c gray65",
"P. c #A7A7A7",
"I. c gray66",
"U. c #A9A9A9",
"Y. c #AAAAAA",
"T. c gray67",
"R. c #ACACAC",
"E. c gray68",
"W. c #B4B4B4",
"Q. c gray73",
"!. c #81D9EF",
"~. c #C0C0C0",
"^. c #C6C6C6",
"/. c #CACACA",
/* pixels */
"$ | | X.X.X.X.X.@.@.@.@.@.w.w.w.w.i.w.i.i.i.i.s.s.s.s.j.j.j.j.j.z.z.z.z.b.b.b.b.M.M.M.M.M.A.A.A.A.D.D.D.D.L.D.L.D.L.L.L.L.L.I.I.I.I.I.E.I.E.E.E.E.E.E.E.E.E.E.E.E.E.E.E.E.E.E.E.E.E.E.E.E.E.E.E.E.E.E.E.E.E.E.E.E.E.E.E.E.E.E.E.I.E.E.",
"O | F F F J J I I I !.!.!.I I I I I I I I J I I I I J I I I J I I I I I I I I I I I I I I I I I I J I I I I I I I I I I I I I I I I I I I I I I I J I I I I I I I J I I J I I I I I I I I J I I J I I I I I I I I J I I J J J F F F E.",
"O ] A F F J J I I q.q./.q.q.I T T T I T I T T T T T T I T T T T I T T T T T I T T T T T I T T T T T I T I I T T I T T T T T I T T T T T I T T T T T I T T T T T T T T T T T I T T T I T T T T T T T I T T T T T T T T I I J J F F A E.",
"$ ` A F J J I I 0.0.^.^.^.0.0.T T T T T T T T T T T T T T T T T T T T T T T T T T T T T T T T T T T T T Q T T T T T T T T T T T T T T T T T T T T T T T T T T T T T T T T T T T T T T T T T T T T T T T T T T T T T T T I I J F A A E.",
"$ ` N A F J I 9.9.~.~.~.~.~.8.9.T T T T T T T T T Q T T T T T T Q T T T T T T T T T T T T T T T T T T T T T T T T T T T T T T T T T T T Q T T T T T T T T T T T T T Q T T T T T T T T T T T T T T T T Q T T T T T T T T I I J F A N E.",
"O ` A A J J 7.7.Q.Q.Q.Q.Q.Q.Q.7.7.I T Q T T Q T T T Q T T Q T T T T T Q Q T T Q T Q Q T T Q T Q T Q Q T Q T T T T T Q T Q T T Q T Q Q T T T T Q T Q Q T Q T T T Q T T T Q T T Q Q T T Q T Q T T T Q T T Q T T T Q T Q T T I J J A A E.",
"$ ` N A F 6.6.W.W.W.W.W.W.W.W.W.7.6.T Q Q T T Q Q Q T T T T Q Q Q T Q T Q T Q T T T Q T Q T T T Q Q T T T T Q Q Q T T Q Q T T Q Q T Q T Q T Q T Q Q T T T Q T Q T Q Q T Q T T Q Q T Q T Q T T Q Q Q T Q T T Q Q T Q Q T I I J J F A E.",
"$ ` N A *.*.E.E.E.E.E.E.E.E.E.E.E.5.5.T T Q T Q T T T Q Q T T 3.3.3.T T T Q T T Q T T T Q T Q T T T T Q T Q T T 3.3.3.3.T Q T T T T T Q T T 3.T T T T Q 3.3.3.3.3.3.T T T Q T T 3.T T T Q T Q T T T T T T Q T T T T T T T I J F A N E.",
"O / N > *.*.*.L.L.L.L.L.L.J.L.J.4.4.4.T T T T T T T T T T T 3.    T 3.T T T T T T T T T T T T T T T T T T T T 3.      T 3.T T T T T T T T   3.T T T T   3.        T T T T T T   3.T T T T T T T T T T T T T T T T T T I I J F F A N E.",
"$ ` v > *.&.*.*.A.A.A.A.A.A.A.2.2.A.2.I I I I I I I I I I 3.I I I   I 3.I I I 3.3.3.I I I 3.I 3.3.I I I I I   3.I I I   3.I I I 3.3.3.I I   3.I I I I   3.I I I I I I I I 3.3.  3.I I I 3.3.I 3.I I I 3.3.3.I I I I 3.3.3.J F A N N E.",
"$ / v = *.&.&.*.*.b.b.b.b.b.1.1.b.b.1.J J J J J J I J J   3.J J J J   J J J 3.    J 3.J   3.3.  J 3.J I J J   3.I J J   J J J 3.    J 3.J   3.J I J J   3.J J J J J J J 3.  J 3.3.J J 3.  J 3.3.J I 3.    J 3.J J 3.    F 3.A N N v E.",
"O / z = *.&.&.&.*.*.j.j.j.<.<.j.j.j.<.F F F F F F F F F   3.F F J F F F F   F F J   3.F   3.F F   3.F F F F   F 3.3.3.3.F J   3.F F   3.F   3.F F F F   3.3.3.3.3.3.F   3.F     3.F   3.F     3.F   3.F F   3.F   3.J F   A N v v z E.",
"$ / h = *.&.&.&.&.*.*.i.,.,.i.i.i.i.,.A A A A A A A A A   3.A A A A A A A A F 3.3.3.3.A   3.A A   3.F A A A A         A 3.A   3.3.3.3.3.A   3.A F A A   3.        F A   3.A A   3.F   3.A A   3.A   3.3.3.3.3.A   A 3.3.3.N v v z z E.",
"$ / h = *.&.&.&.&.&.*.*.>.@.@.@.w.@.>.A A N N A A N N A   3.A N N A A 3.A N 3.      3.A   3.N A   3.A N N A N 3.A N A   3.A   3.      A A   3.N N A A   3.A A N N A A   3.A A   3.A   3.N A   3.A   3.      A N A       N 3.v z z h E.",
"O / u = *.*.&.&.&.&.&.*.| | X.| | :.:.N v N v N v N v N   N 3.N N v 3.v v   3.v N 3.3.v   3.3.v   3.v N v N   3.v N N   3.v   3.N v N 3.v   3.N N N v   3.v N N N v N   3.N v   3.N   3.v N 3.3.N   3.N N v 3.v v 3.N v   3.z z h u E.",
"O / u $ = *.*.&.&.&.&.*.] ` ] ] ;.;.z v v z v v v v z v v   z 3.3.3.v v v   v 3.3.  3.v   3.v 3.3.v v z v v   z 3.3.3.3.v v   v 3.3.3.z v   3.v z z v   3.3.3.3.3.3.z   z 3.3.3.3.z   v 3.3.  3.z   z 3.3.3.v v   v 3.3.3.z h h u u I.",
"$ / e e = = *.*.&.&.&.*./ Q / -.-.h l l l z l l z l l z l l       z z z z z     z   z z   3.    z z h z z h z         z z z z       z z z   z z z z z             z z z         z z z     z   3.z z       z z z z       h h u u u e I.",
"O Q 5 9 e $ = *.*.&.&.*.T T =.=.u h h h u h h u h h u h h u h h u h u h h u h h u h u h   3.h h u h h u h h u h u h u h h u h u u h h u u h u h u h h u h h h u u h u h h u h h u h u 3.3.3.3.h h u h h u h h u u h h u u u e e 9 9 I.",
"$ ` 4 5 9 9 $ = *.*.&.*.L f f e e e y e e e e e e e e e e e e e e e e e e e e e e e e e   e e e u e e e e e e e e e u e u e e e e u e e e e e u e e e e e e e e e u e e e e e e e e         e e e e e e e e e e e u e e e e 9 9 9 5 L.",
"O ` 4 4 5 5 5 $ $ *.*.*.d d 9 9 9 9 9 9 9 9 9 9 9 9 9 9 9 9 9 9 9 9 9 9 9 9 9 5 9 9 9 9 9 9 9 9 9 9 9 9 9 9 9 9 9 9 9 9 9 9 9 9 9 9 9 5 9 9 9 9 9 9 9 9 9 9 9 9 9 9 9 9 9 9 9 9 9 9 9 9 9 9 9 9 9 9 9 9 9 9 9 9 9 9 9 5 9 5 5 5 4 4 D.",
"O ` 4 , 4 4 4 4 $ $ *.*.s 5 5 5 5 5 5 5 5 5 5 5 5 5 5 5 5 5 5 5 5 5 5 5 4 4 5 4 5 5 5 5 4 4 5 5 5 5 5 5 5 5 4 4 5 5 5 5 5 4 5 5 5 5 5 4 5 5 5 5 5 5 5 5 5 5 5 5 5 4 5 5 4 4 5 5 5 5 5 5 4 4 5 5 5 5 4 4 5 5 5 5 4 5 5 4 4 4 4 , , 4 D.",
"$ ( , , , , , , < O $ $ < < , , < < , , 4 < < < , , < < < < , , 4 , , 4 , , , 4 4 , , 4 , , , , , 4 , , , , , , 4 , , , 4 , , , , 4 , 4 4 , , 4 , 4 , 4 4 , , 4 4 , , , 4 , , , 4 , 4 , 4 , , , 4 , , 4 4 , 4 , , 4 , 4 , , , 4 , , D.",
"o ` ` ( ( ` ( ` ` ( ( ` ` ` ` ( ` ` ` ( ( ` ` ` ` ( ( ` ` ` ` ( ` ` ` / ` ` / ` ` ` ` / ` ` / ` ` ` / ` ` ` ` ` ` ` ` ` ` ] ] ] ] ] | | ] | | | X.X.X.X.X.X.@.@.@.@.w.w.w.i.w.i.w.i.i.i.s.s.s.s.s.j.j.j.j.z.z.z.b.z.b.b.b.M.M.M.M.A.A.",
"  X O O o o o o O O o o o o O O o o O O o o o o O O o o o o O o o O O o O o o o o O o o O O o o o o o O O O o o o o O O O O O O O O O O O O $ O O O                                                                                   "
};
