/* XPM */
static char *NinjaUV_SnapBotL[] = {
/* columns rows colors chars-per-pixel */
"84 24 84 1",
"  c gray6",
". c #141413",
"X c gray8",
"o c #161615",
"O c #161616",
"+ c gray9",
"@ c #191917",
"# c #191918",
"$ c #1B1B1B",
"% c #1C1C1A",
"& c #1C1C1B",
"* c #1E1E1E",
"= c #20201F",
"- c #212120",
"; c #232320",
": c gray16",
"> c gray18",
", c #2F2F2F",
"< c #31312C",
"1 c #33332E",
"2 c #34342E",
"3 c #34342F",
"4 c #353535",
"5 c gray21",
"6 c #373737",
"7 c #383833",
"8 c #3B3B37",
"9 c #3C3C36",
"0 c #3F3F37",
"q c #393938",
"w c #3F3F38",
"e c #3F3F3A",
"r c gray24",
"t c #404039",
"y c #40403E",
"u c #47473E",
"i c #464642",
"p c #444444",
"a c gray27",
"s c #484843",
"d c #4A4A43",
"f c #484847",
"g c #4E4E44",
"h c #494948",
"j c #4D4D4B",
"k c #4E4E4A",
"l c #505047",
"z c #535347",
"x c #525248",
"c c #525249",
"v c #53534A",
"b c #55554C",
"n c #58584F",
"m c #545450",
"M c #565651",
"N c #585853",
"B c #5F5F52",
"V c #5B5B55",
"C c #5D5D57",
"Z c #5E5E56",
"A c #606055",
"S c #626255",
"D c #63635A",
"F c #63635B",
"G c #656559",
"H c #67675A",
"J c #64645C",
"K c #66665D",
"L c #68685F",
"P c gray39",
"I c gray40",
"U c #6A6A60",
"Y c #6C6C61",
"T c #717161",
"R c #737363",
"E c #717165",
"W c #727266",
"Q c #7D7D6F",
"! c #44FF00",
"~ c #818181",
"^ c gray51",
"/ c #929292",
"( c #A4A4A4",
") c gray100",
/* pixels */
"XP~~~~~~~~~~~~~~~~~~~~~~~~~~~~~~~~~~~~~~~~~~~~~~~~~~~~~~~~~~~~~~~~~~~~~~~~~~~~~~~~/(",
"$>IIIIIIIIIIIIIIIIIIIIIIIIIIIIIIIIIIIIIIIIIIIIIIIIIIIIIIIIIIIIIIIIIIIIIIIIIIIIIIII~/",
"*6ppppppppppppppppppppppppppppppppppppppppppppppppppppppppppppppppppppppppppppppppI~",
"*6ppppppppppppppppppppppppppppppppppppppppppppppppppppppppppppppppppppppppppppppppI~",
"*6ppppppppppppppppppppppppppppppppppppppppppppppppppppppppppppppppppppppppppppppppI~",
"*6ppppppppppppppppppppppppppppppppppppppppppppppppppppppppppppppppppppppppppppppppI~",
"*qfhfppppppppphpfpppppppppppppppppppppppppppppppppppppppppppppppppppppppppppppppppI~",
"=yMCVNMmmmmMVCCNjpppppppppppppppppppppppppppppppppppppppppppppppppppppppppppppppppI~",
"-dK!RLJJJJFFLE!LMfppppppppppppppppppppppppppppppppppppppppppppppppppppppppppppppppI~",
"*d!!!))))))))!!!ChppppppppppppppppppppppppppppppppppppppppppppppppppppppppppppppppI~",
"%eS!RJbNbnbcBT!EVfppppppppppppppppppppppppppppppppppppppppppppppppppppppppppppppppI~",
"X2z)Bzeeyt87uB)UNpppppppppppppppppppppppppppppppppppppppppppppppppppppppppppppppppI~",
"X<g)bi6644>:7c)FmpppppppppppppppppppppppppppppppppppppppppppppppppppppppppppppppppI~",
"X7c)Cjrrrr6>8b)FmpppppppppppppppppppppppppppppppppppppppppppppppppppppppppppppppppI~",
"X7n)Jmppppr4en)JmpppppppppppppppppppppppppppppppppppppppppppppppppppppppppppppppppI~",
"$7n)Jmppppe6en)JMpppppppppppppppppppppppppppppppppppppppppppppppppppppppppppppppppI~",
"X7n)JMppppr4eb)KbpppppppppppppppppppppppppppppppppppppppppppppppppppppppppppppppppI~",
"@7n)Jbppppr6en)KmpppppppppppppppppppppppppppppppppppppppppppppppppppppppppppppppppI~",
"$9A)EFmmbMjilJ)YNpppppppppppppppppppppppppppppppppppppppppppppppppppppppppppppppppI~",
"$tJ!QEJJJJCnBT!EVfppppppppppppppppppppppppppppppppppppppppppppppppppppppppppppppppI~",
"%0!!!))))))))!!!ChppppppppppppppppppppppppppppppppppppppppppppppppppppppppppppppppI~",
"$1z!JSNbnncgzS!KMfppppppppppppppppppppppppppppppppppppppppppppppppppppppppppppppppI~",
".=19t97787212wddyq6666666666666666666666666666666666666666666666666666666666666666>P",
" .@%%$X@X$XXX%==******************************************************************$X"
};
