/* XPM */
static char *Ninja_button[] = {
/* columns rows colors chars-per-pixel */
"32 32 133 2",
"   c gray2",
".  c #070707",
"X  c gray3",
"o  c #090909",
"O  c gray4",
"+  c #0B0B0B",
"@  c #0C0C0C",
"#  c gray5",
"$  c #0E0E0E",
"%  c gray6",
"&  c #101010",
"*  c #111111",
"=  c gray7",
"-  c #131313",
";  c gray8",
":  c #151515",
">  c #161616",
",  c gray9",
"<  c #181818",
"1  c #191919",
"2  c gray10",
"3  c #1B1B1B",
"4  c gray11",
"5  c #1D1D1D",
"6  c #1E1E1E",
"7  c gray12",
"8  c #202020",
"9  c gray13",
"0  c gray14",
"q  c gray15",
"w  c #282828",
"e  c gray16",
"r  c #2A2A2A",
"t  c #2C2C2C",
"y  c #2D2D2D",
"u  c #2F2F2F",
"i  c #323232",
"p  c #343434",
"a  c #353535",
"s  c gray21",
"d  c gray22",
"f  c #3A3A3A",
"g  c gray23",
"h  c #3C3C3C",
"j  c #3E3E3E",
"k  c #3F3F3F",
"l  c gray26",
"z  c #444444",
"x  c gray27",
"c  c gray28",
"v  c #484848",
"b  c gray29",
"n  c #4C4C4C",
"m  c gray30",
"M  c gray31",
"N  c gray32",
"B  c #535353",
"V  c gray34",
"C  c #5A5A5A",
"Z  c gray37",
"A  c gray38",
"S  c #626262",
"D  c gray40",
"F  c DimGray",
"G  c #6D6D6D",
"H  c #717171",
"J  c #747474",
"K  c gray47",
"L  c #7B7B7B",
"P  c #7F7F7F",
"I  c #838383",
"U  c gray53",
"Y  c gray54",
"T  c #8E8E8E",
"R  c #909090",
"E  c #929292",
"W  c #939393",
"Q  c #959595",
"!  c #979797",
"~  c gray60",
"^  c gray61",
"/  c #9F9F9F",
"(  c gray63",
")  c gray64",
"_  c #A5A5A5",
"`  c gray65",
"'  c gray66",
"]  c #A9A9A9",
"[  c #AAAAAA",
"{  c #ACACAC",
"}  c gray68",
"|  c #AEAEAE",
" . c #AFAFAF",
".. c gray69",
"X. c #B2B2B2",
"o. c gray71",
"O. c #B7B7B7",
"+. c gray72",
"@. c #B9B9B9",
"#. c gray73",
"$. c #BBBBBB",
"%. c gray74",
"&. c gray",
"*. c gray75",
"=. c #C0C0C0",
"-. c #C1C1C1",
";. c gray76",
":. c #C3C3C3",
">. c gray77",
",. c #C5C5C5",
"<. c #C6C6C6",
"1. c gray78",
"2. c #C8C8C8",
"3. c gray79",
"4. c #CACACA",
"5. c #CBCBCB",
"6. c #CDCDCD",
"7. c gray81",
"8. c gray82",
"9. c #D2D2D2",
"0. c LightGray",
"q. c gray83",
"w. c gray84",
"e. c #D7D7D7",
"r. c gray85",
"t. c gray86",
"y. c gainsboro",
"u. c #DDDDDD",
"i. c gray87",
"p. c #DFDFDF",
"a. c gray88",
"s. c #E6E6E6",
"d. c gray93",
/* pixels */
"A ! | ..X.o.O.@.$.&.*.;.>.,.2.4.5.6.7.8.0.q.w.e.r.t.y.u.p.a.s.d.",
"p G R W Q ~ ^ / ( _ ' [ } ..X.o.+.#.%.*.-.>.<.3.4.6.7.8.9.q.i.s.",
"8 N H J K L P I U Y T E Q ~ ^ / ) ` ] {  .X.o.+.$.%.=.:.,.1.q.a.",
"7 M G H J K L P I U Y T E Q ~ ^ / ) ` ] {  .X.o.+.$.%.=.:.,.9.p.",
"6 m F G H J K L P I U Y T E Q ~ ^ / ) ` ] {  .X.o.+.$.%.=.:.8.u.",
"4 b D F G H J K L P I U Y T E Q ~ ^ / ) ` ] {  .X.o.+.$.%.=.7.y.",
"3 c S D F G H J K L P I U Y T E Q ~ ^ / ) ` ] {  .X.o.+.$.%.6.t.",
"2 z Z S D F G H J K L P I U Y T E Q ~ ^ / ) ` ] {  .X.o.+.$.4.r.",
"1 l C Z S D F G H J K L P I U Y T E Q ~ ^ / ) ` ] {  .X.o.+.3.e.",
"< k V C Z S D F G H J K L P I U Y T E Q ~ ^ / ) ` ] {  .X.o.<.w.",
", h B V C Z S D F G H J K L P I U Y T E Q ~ ^ / ) ` ] {  .X.>.q.",
"> f M B V C Z S D F G H J K L P I U Y T E Q ~ ^ / ) ` ] {  .-.0.",
": s n M B V C Z S D F G H J K L P I U Y T E Q ~ ^ / ) ` ] { *.8.",
"; p v n M B V C Z S D F G H J K L P I U Y T E Q ~ ^ / ) ` ] %.7.",
"- i x v n M B V C Z S D F G H J K L P I U Y T E Q ~ ^ / ) ` #.6.",
"= u l x v n M B V C Z S D F G H J K L P I U Y T E Q ~ ^ / ) +.5.",
"* y j l x v n M B V C Z S D F G H J K L P I U Y T E Q ~ ^ / o.4.",
"& r g j l x v n M B V C Z S D F G H J K L P I U Y T E Q ~ ^ X.2.",
"% w d g j l x v n M B V C Z S D F G H J K L P I U Y T E Q ~ ..,.",
"$ q a d g j l x v n M B V C Z S D F G H J K L P I U Y T E Q } >.",
"# 0 i a d g j l x v n M B V C Z S D F G H J K L P I U Y T E [ ;.",
"@ 9 u i a d g j l x v n M B V C Z S D F G H J K L P I U Y T ' *.",
"+ 7 t u i a d g j l x v n M B V C Z S D F G H J K L P I U Y _ &.",
"+ 5 e t u i a d g j l x v n M B V C Z S D F G H J K L P I U ( $.",
"O 3 q e t u i a d g j l x v n M B V C Z S D F G H J K L P I / @.",
"o 1 0 q e t u i a d g j l x v n M B V C Z S D F G H J K L P ^ O.",
"X , 9 0 q e t u i a d g j l x v n M B V C Z S D F G H J K L ~ o.",
"X : 7 9 0 q e t u i a d g j l x v n M B V C Z S D F G H J K Q X.",
". ; 4 7 9 0 q e t u i a d g j l x v n M B V C Z S D F G H J W ..",
". = 2 4 7 9 0 q e t u i a d g j l x v n M B V C Z S D F G H R | ",
"  @ = ; : , 1 3 5 7 9 0 q w r y u i p s f h k l z c b m M N G ! ",
"    . . X X o O + + @ # $ % & * = - ; : > , < 1 2 3 4 6 7 8 p A "
};
