/* XPM */
static char *NinjaUV_SnapTopL[] = {
/* columns rows colors chars-per-pixel */
"84 24 121 2",
"   c gray8",
".  c #161615",
"X  c #161616",
"o  c gray9",
"O  c #191917",
"+  c #191918",
"@  c gray10",
"#  c #1B1B1B",
"$  c #1C1C1A",
"%  c #1C1C1B",
"&  c #1D1D1D",
"*  c #1E1E1D",
"=  c #1E1E1E",
"-  c #20201F",
";  c #272724",
":  c #262625",
">  c gray16",
",  c gray18",
"<  c #2F2F2E",
"1  c #2F2F2F",
"2  c #31312C",
"3  c #33332E",
"4  c #34342E",
"5  c #34342F",
"6  c #323231",
"7  c #323232",
"8  c #353535",
"9  c gray21",
"0  c #373736",
"q  c #373737",
"w  c #383833",
"e  c #3A3A34",
"r  c #383836",
"t  c #3B3B37",
"y  c #3C3C36",
"u  c #3F3F37",
"i  c gray22",
"p  c #393938",
"a  c #393939",
"s  c gray23",
"d  c #3F3F38",
"f  c #3F3F3A",
"g  c #3C3C3C",
"h  c gray24",
"j  c #404039",
"k  c #40403B",
"l  c #43433E",
"z  c #46463E",
"x  c #47473E",
"c  c gray25",
"v  c #414140",
"b  c gray26",
"n  c #434343",
"m  c #474741",
"M  c #464642",
"N  c #444444",
"B  c gray27",
"V  c #464645",
"C  c #4A4A43",
"Z  c #484847",
"A  c #4E4E44",
"S  c #494948",
"D  c #4D4D4B",
"F  c #4E4E4A",
"G  c #505047",
"H  c #535347",
"J  c #525248",
"K  c #525249",
"L  c #53534A",
"P  c #53534C",
"I  c #55554C",
"U  c #54544F",
"Y  c #58584F",
"T  c #545450",
"R  c #565651",
"E  c #585853",
"W  c #5F5F52",
"Q  c #5B5B55",
"!  c #5D5D57",
"~  c #5E5E56",
"^  c #606055",
"/  c #626255",
"(  c #63635A",
")  c #63635B",
"_  c #656559",
"`  c #67675A",
"'  c #64645C",
"]  c #66665D",
"[  c gray39",
"{  c gray40",
"}  c #6A6A60",
"|  c #6C6C61",
" . c #696968",
".. c #6A6A68",
"X. c #717161",
"o. c #737363",
"O. c #717165",
"+. c #727266",
"@. c #7D7D6F",
"#. c #747471",
"$. c #7F7F78",
"%. c #44FF00",
"&. c #808079",
"*. c #80807A",
"=. c #82827A",
"-. c #83837B",
";. c #83837C",
":. c #86867E",
">. c #818181",
",. c gray51",
"<. c #878785",
"1. c #8A8A80",
"2. c #8C8C82",
"3. c #8C8C89",
"4. c #8D8D8A",
"5. c #8E8E8B",
"6. c #91918D",
"7. c #92928E",
"8. c #929292",
"9. c #A4A4A4",
"0. c gray100",
/* pixels */
". ..4.7.7.4.4.3.3.3.4.3.4.7.7.4.<.>.>.>.>.>.>.>.>.>.>.>.>.>.>.>.>.>.>.>.>.>.>.>.>.>.>.>.>.>.>.>.>.>.>.>.>.>.>.>.>.>.>.>.>.>.>.>.>.>.>.>.>.>.>.>.>.>.>.>.>.>.>.>.>.>.8.9.",
"* k =.%.2.:.$.=.$.$.$.$.=.1.%.=.#...{ { { { { { { { { { { { { { { { { { { { { { { { { { { { { { { { { { { { { { { { { { { { { { { { { { { { { { { { { { { { { { { { ,.8.",
"- C %.%.%.0.0.0.0.0.0.0.0.%.%.%.! S N N N N N N N N N N N N N N N N N N N N N N N N N N N N N N N N N N N N N N N N N N N N N N N N N N N N N N N N N N N N N N N N { >.",
"$ d / %.o._ Y T E Y I L W o.%.O.! S N N N N N N N N N N N N N N N N N N N N N N N N N N N N N N N N N N N N N N N N N N N N N N N N N N N N N N N N N N N N N N N N { >.",
". 4 H 0.W H d d d d t 0 z W 0.] E N N N N N N N N N N N N N N N N N N N N N N N N N N N N N N N N N N N N N N N N N N N N N N N N N N N N N N N N N N N N N N N N N { >.",
". 2 A 0.I N 0 0 8 0 , > w L 0._ T N N N N N N N N N N N N N N N N N N N N N N N N N N N N N N N N N N N N N N N N N N N N N N N N N N N N N N N N N N N N N N N N N { >.",
". 4 L 0.~ F h h h h 9 1 d I 0.) T N N N N N N N N N N N N N N N N N N N N N N N N N N N N N N N N N N N N N N N N N N N N N N N N N N N N N N N N N N N N N N N N N { >.",
". 0 Y 0.] T N N N N h 8 d I 0.] T N N N N N N N N N N N N N N N N N N N N N N N N N N N N N N N N N N N N N N N N N N N N N N N N N N N N N N N N N N N N N N N N N { >.",
". w Y 0.] T N N N N h 8 d E 0.] T N N N N N N N N N N N N N N N N N N N N N N N N N N N N N N N N N N N N N N N N N N N N N N N N N N N N N N N N N N N N N N N N N { >.",
"+ w Y 0.) T N N N N g 0 d T 0.) T N N N N N N N N N N N N N N N N N N N N N N N N N N N N N N N N N N N N N N N N N N N N N N N N N N N N N N N N N N N N N N N N N { >.",
"o w I 0.) T N N N N h 0 d Y 0.] T N N N N N N N N N N N N N N N N N N N N N N N N N N N N N N N N N N N N N N N N N N N N N N N N N N N N N N N N N N N N N N N N N { >.",
"+ t / 0.O.) T T T T D N L _ 0.} E N N N N N N N N N N N N N N N N N N N N N N N N N N N N N N N N N N N N N N N N N N N N N N N N N N N N N N N N N N N N N N N N N { >.",
"$ k _ %.@.O.] ) ] _ ~ Y W o.%.O.! Z N N N N N N N N N N N N N N N N N N N N N N N N N N N N N N N N N N N N N N N N N N N N N N N N N N N N N N N N N N N N N N N N { >.",
"$ d %.%.%.0.0.0.0.0.0.0.0.%.%.%.! S N N N N N N N N N N N N N N N N N N N N N N N N N N N N N N N N N N N N N N N N N N N N N N N N N N N N N N N N N N N N N N N N { >.",
"O 4 L %.` / Y E I E L A H / %.] T S N N N N N N N N N N N N N N N N N N N N N N N N N N N N N N N N N N N N N N N N N N N N N N N N N N N N N N N N N N N N N N N N { >.",
". ; w z N l d d d d y w w N U U D N N N N N N N N N N N N N N N N N N N N N N N N N N N N N N N N N N N N N N N N N N N N N N N N N N N N N N N N N N N N N N N N N { >.",
"o : 7 w s 0 8 8 8 8 7 1 1 0 c N N N N N N N N N N N N N N N N N N N N N N N N N N N N N N N N N N N N N N N N N N N N N N N N N N N N N N N N N N N N N N N N N N N { >.",
"+ , i s g h h h h h g 9 9 h c b N N N N N N N N N N N N N N N N N N N N N N N N N N N N N N N N N N N N N N N N N N N N N N N N N N N N N N N N N N N N N N N N N N { >.",
"* 0 b N N N N N N N N N N b N N N N N N N N N N N N N N N N N N N N N N N N N N N N N N N N N N N N N N N N N N N N N N N N N N N N N N N N N N N N N N N N N N N N { >.",
"* i N N N N N N N N N N N N N N N N N N N N N N N N N N N N N N N N N N N N N N N N N N N N N N N N N N N N N N N N N N N N N N N N N N N N N N N N N N N N N N N N { >.",
"= i N N N N N N N N N N N N N N N N N N N N N N N N N N N N N N N N N N N N N N N N N N N N N N N N N N N N N N N N N N N N N N N N N N N N N N N N N N N N N N N N { >.",
"= 9 N N N N N N N N N N N N N N N N N N N N N N N N N N N N N N N N N N N N N N N N N N N N N N N N N N N N N N N N N N N N N N N N N N N N N N N N N N N N N N N N { >.",
"# 1 9 i i 9 9 9 i 9 9 i i 9 9 9 9 i 9 i i 9 i i 9 i i 9 9 i 9 i 9 i i 9 i 9 9 i 9 i i 9 i 9 9 i 9 9 i 9 i 9 i 9 i 9 i 9 9 i i 9 9 i i 9 9 i 9 i 9 i 9 i 9 i 9 i i 9 1 [ ",
"  # = = = = = = = = = = = = = * = = = = = = * * = = = = = = = = = = = = = = = = = = = = = = = = = = = = = = = = = = = = = = = = = = = = = = = = = = = = = = = = = = #   "
};
