/* XPM */
static char *NinjaMesh_FreezeRotate[] = {
/* columns rows colors chars-per-pixel */
"75 24 97 2",
"   c gray2",
".  c #0A0A0A",
"X  c #0C1213",
"o  c #131313",
"O  c #171D1D",
"+  c #1D1D1D",
"@  c #0D2A2C",
"#  c #232323",
"$  c #2E2E2E",
"%  c #243D3F",
"&  c #333333",
"*  c #373A3B",
"=  c #3B3B3B",
"-  c #0B3E42",
";  c #16474A",
":  c #114E54",
">  c #3A5658",
",  c #285D61",
"<  c #0A6066",
"1  c #11646A",
"2  c #0C6D76",
"3  c #0B727A",
"4  c #157077",
"5  c #3D797E",
"6  c #434343",
"7  c #4A4A4A",
"8  c #4F5555",
"9  c #495B5D",
"0  c #535353",
"q  c #5C5C5C",
"w  c #446366",
"e  c #496365",
"r  c #5D6364",
"t  c #5A696B",
"y  c #4D7275",
"u  c #537072",
"i  c #616161",
"p  c #6D6D6D",
"a  c #717171",
"s  c gray47",
"d  c #077D86",
"f  c #0B7A84",
"g  c #0C7F89",
"h  c #197C85",
"j  c #247D84",
"k  c #0B828D",
"l  c #11868F",
"z  c #1C848B",
"x  c #088790",
"c  c #078E9B",
"v  c #07959F",
"b  c #08909A",
"n  c #228088",
"m  c #2A8389",
"M  c #3F888D",
"N  c #2E8F97",
"B  c #31949D",
"V  c #0591A1",
"C  c #0293AA",
"Z  c #029AAD",
"A  c #0F9DAB",
"S  c #029DB2",
"D  c #2B98A1",
"F  c #229EA8",
"G  c #05A0AC",
"H  c #04A2B4",
"J  c #06A8B4",
"K  c #0CA9B5",
"L  c #02A6BA",
"P  c #02AABD",
"I  c #18B1BD",
"U  c #24A5AF",
"Y  c #23A7B0",
"T  c #25AAB3",
"R  c #42868B",
"E  c #02ACC1",
"W  c #02B3C5",
"Q  c #09B6C4",
"!  c #02B7C9",
"~  c #03BBCC",
"^  c #0ABCCA",
"/  c #12BAC7",
"(  c #10BBC9",
")  c #02BED1",
"_  c #03B3DE",
"`  c #02C2D3",
"'  c #08C2D0",
"]  c #02C6D8",
"[  c #02CEDE",
"{  c #02D5E4",
"}  c #838383",
"|  c #8B8B8B",
" . c #959595",
".. c #9C9C9C",
"X. c #A4A4A4",
"o. c gray68",
"O. c #B2B2B2",
/* pixels */
"o } .. . . . . . ...............X.X...X.X.X.X.X.X.X.X.X.X.X.o.o.X.o.o.X.o.o.o.o.o.o.o.o.o.o.o.o.o.o.o.o.o.o.o.o.o.O.o.o.o.O.o.o.o.o.O.o.o.o.o.o.o.o.O.",
". s i i p i p p p p p p p p p p p p p p p p p p a a a a a p a a p a a a a a a a a a a a a a a a a a a a a a a a a a a a a a a a a a a a a p p p p s o.",
"o a q 0 0 q q q q q i q q q i q i q q q q q q q i q q q q i i i q q q q q q q q q i i i i q q q q q i i q q i i q q i q q q i q q q q q q q 0 q q i X.",
"o a q 0 0 0 q q q q i y B I ^ ' ) ( T M r i i i i u i i q i i i i i i i i i i i q i i i i i i i i i q i i i i i i i i q i i i i i i i i q q q 0 0 i X.",
"o p q 0 0 0 q q q t U ~ W P L L P E ! ) / R i i D T i i i i i i i i i i i i i i i i i i i i i i i i i i i i i i i i i i i i i i i i i i q q q q 0 i X.",
"o p 0 0 0 q q i y Q W L Z Z Z Z S L P E W ~ B j { T i i i i i i i i i i i i i i i i i i i i i i i i i i i i i i i i i i i i i i i i i i i q 0 0 q i X.",
". p 7 7 0 q q e ~ W H Z Z Z G H L S L S S S E ! [ Y i i i i i i i i i i i i i i i i i i i i i i i i i i i i i i i i i i i i i i i i i i q q q 0 0 q X.",
"o p 0 0 0 0 8 P ! L Z Z H H c f g Z L S C C Z P ) Y i i i i i i i q 0 _ _ _ _ _ i i i i i i i i i i i i i i i i i i i i i i i i i i i i q q q 0 0 q X.",
"X i 0 0 0 0 4 ` P H H P k % & & # O : V Z C C L ~ U q q i i q i i 7 & _ & $ = 0 i q i q q i q i i i i i i i q q i i i i i q i i i i i q q q q 0 7 q X.",
"o i 7 7 0 = W ! L L E h 0 q q q q 6 # 2 L S S P ~ U q q q q q q q 7 # _ 6 6 7 0 q 0 _ 0 _ q 7 _ _ _ q q 0 7 _ _ _ q 7 _ _ _ _ _ 0 7 _ _ _ 0 0 0 7 q X.",
". i 7 7 7 ; ] E L P A q q q q q q q z [ ~ W W ~ [ Y q q q q q q q 6 & _ q q q q 7 & _ _ 7 6 _ $ & 6 _ 0 6 _ $ & 6 _ = $ # # _ 7 6 _ $ & 6 _ 0 0 0 0 X.",
". i 7 6 = 3 ) E P W 5 0 0 0 0 0 0 , J G J G H G K N q 0 0 0 0 0 0 6 # _ _ _ _ 0 = + _ 6 = & _ 6 = $ _ 6 & _ 6 = & _ 6 = & # _ = & _ = & $ _ 7 7 7 0 X.",
". q 7 6 $ b ) E E W e 0 0 0 0 0 6 # # # # # # # & 0 0 0 0 0 0 0 0 = + _ $ & 7 0 6 # _ 7 = # _ _ _ _ _ = # _ _ _ _ _ 0 7 = _ 6 = # _ _ _ _ _ 7 7 7 0 X.",
"X q 6 6 # V ~ P P Q 9 7 8 7 7 0 0 0 0 7 0 7 0 0 0 0 0 7 0 0 7 0 0 = # _ = 6 7 0 = # _ 0 = + _ # # # 6 = + _ # # $ 6 7 = _ = 7 = + _ $ # # = 7 6 6 0 ..",
". q 6 = + x ! P P W w 7 7 7 7 7 7 7 7 7 7 7 7 7 7 7 7 7 7 7 7 7 7 = # _ 7 7 7 7 * # _ 7 = + _ = = & _ = # _ = & & _ = $ _ 7 7 = + _ = & & _ 6 6 6 7 ..",
"o q = = # < ) E P W m 7 7 7 7 7 6 7 7 7 6 7 7 7 7 6 7 7 7 7 7 6 7 & # _ 7 7 7 6 = # _ 7 = $ $ _ _ _ = = # $ _ _ _ = $ _ _ _ _ _ $ $ _ _ _ = 6 6 = 7 ..",
". q = = # @ ) W P ~ ' > 6 6 6 6 6 6 6 6 6 6 6 6 6 6 6 6 6 6 6 6 6 & $ & 6 6 6 6 & $ = 6 = & # + # & = 6 & # # # & & # + + # $ & $ # # # & = = = = 7  .",
". q = & & o Z ) ~ ` [ j = = 6 = = = 6 = = = = 6 = = 6 = 6 = 6 = = = & = = = = = = & = = 6 = & $ & = = = = & $ & = = & $ $ $ & = = & $ & = = = = & 6  .",
". q = & & o ; [ [ [ l = = = = * = = = = = = = = = = = * = = = = = = = = = = = = = & & = = = = = = = = = = & = = = = = & = = & = = = & = & & & & & 6  .",
". q & $ $ # . d [ k & & & & & & & & $ & & & & $ & & & $ $ & $ & & & & & & & & & & & & & & & & & & & & & & & & & & & & & & & & & & & & & & & & $ $ =  .",
". q & $ $ $ o X 1 $ $ $ $ $ $ $ $ $ $ $ $ $ $ $ $ $ $ $ $ $ $ $ $ $ & $ & $ $ & $ & $ $ $ & $ & $ $ $ & $ $ $ $ $ $ $ & $ $ $ & $ $ & & $ $ $ $ $ & | ",
". p 6 = 6 6 6 $ = 6 6 6 6 6 6 6 6 6 6 6 6 6 6 6 6 6 6 6 6 6 6 6 6 6 6 6 6 6 6 6 6 6 6 6 6 6 6 6 6 6 6 6 6 7 7 7 7 7 6 7 6 7 6 7 7 7 7 6 7 7 7 7 7 0  .",
"  7 0 0 0 0 0 0 0 0 0 0 0 0 0 0 0 0 0 0 0 0 0 0 0 0 0 0 0 0 0 0 0 0 0 0 0 0 0 0 0 0 q 0 0 q q q q q q q q q q q q i i i i i i i i i i i i i p i p p p ",
"    .     .     .     .     .       .     .   .   .   .   .   . . .   . . . . . . . . . . .   . . . . . . . . . . . . . . . . o o . o o . o . . . . o "
};
