/* XPM */
static char *NinjaMesh_AlignObjScale[] = {
/* columns rows colors chars-per-pixel */
"75 24 190 2",
"   c #000000",
".  c #0B0B0B",
"X  c #141414",
"o  c #191919",
"O  c #2F2F2F",
"+  c #333333",
"@  c #3B3B3B",
"#  c #0E4549",
"$  c #0E484D",
"%  c #2C5659",
"&  c #345E61",
"*  c #434343",
"=  c #4A4A4A",
"-  c #535353",
";  c #5C5C5C",
":  c #436E71",
">  c #616161",
",  c #6D6D6D",
"<  c #717171",
"1  c gray47",
"2  c red",
"3  c #397E83",
"4  c #4F7C80",
"5  c #149DBC",
"6  c #1A9EBE",
"7  c #2C9FBA",
"8  c #399FB9",
"9  c #2FA2BB",
"0  c #36A2BB",
"q  c #3AA4BE",
"w  c #408186",
"e  c #57868A",
"r  c #58878B",
"t  c #568A8E",
"y  c #528D91",
"u  c #6A8D8F",
"i  c #5C9AA7",
"p  c #679DA8",
"a  c #4EA2B3",
"s  c #54A5B1",
"d  c #5EA8B3",
"f  c #7EA2A5",
"g  c #7EA8AC",
"h  c #7EABB0",
"j  c #7EB5BA",
"k  c #10A6C2",
"l  c #1CA2C1",
"z  c #1DA8C6",
"x  c #0EB5CD",
"c  c #1AB1CC",
"v  c #0ABED3",
"b  c #03B3DE",
"n  c #1DB8D1",
"m  c #21A4C5",
"M  c #2CAEC7",
"N  c #25A9C9",
"B  c #29ADCD",
"V  c #2EB3D3",
"C  c #32BCD9",
"Z  c #40ADC5",
"A  c #53AFC2",
"S  c #4FB2C1",
"D  c #59B5C0",
"F  c #43BED4",
"G  c #64B6C0",
"H  c #67B8C0",
"J  c #70BAC2",
"K  c #0AC2D6",
"L  c #0BCBDC",
"P  c #13C6DB",
"I  c #19C7DC",
"U  c #12CEDE",
"Y  c #1BCBDC",
"T  c #1ED0DF",
"R  c #34C3D4",
"E  c #37CEDC",
"W  c #3BCFDC",
"Q  c #22D0DE",
"!  c #3CD0DD",
"~  c #0ECFE1",
"^  c #10CEE1",
"/  c #07D2E1",
"(  c #09D3E4",
")  c #08D8E7",
"_  c #0ADBEB",
"`  c #14D4E5",
"'  c #1DD1E4",
"]  c #14D8E6",
"[  c #10DAEA",
"{  c #19DAEA",
"}  c #22CEE2",
"|  c #28CFE4",
" . c #34C6E0",
".. c #36CBE4",
"X. c #2DD3E6",
"o. c #28D6E9",
"O. c #22DDED",
"+. c #2ADEEE",
"@. c #3BD5E2",
"#. c #35DBE7",
"$. c #32D7EA",
"%. c #34DEEE",
"&. c #3ADBEE",
"*. c #1AE1EF",
"=. c #18E1F0",
"-. c #25E1EF",
";. c #2FE0EF",
":. c #3FE3EF",
">. c #2DE3F1",
",. c #35E2F1",
"<. c #3BE4F3",
"1. c #3BEAF6",
"2. c #5AC2D2",
"3. c #52CBD8",
"4. c #43D0DC",
"5. c #67C0C8",
"6. c #74C3CB",
"7. c #7CCED7",
"8. c #53D4E3",
"9. c #56DAE6",
"0. c #5DDAE5",
"q. c #58DFEA",
"w. c #65DAE6",
"e. c #4AE1ED",
"r. c #44E3F1",
"t. c #4AE9F3",
"y. c #838383",
"u. c #858A8B",
"i. c #8B8C8C",
"p. c #839394",
"a. c #8C9393",
"s. c #809698",
"d. c #849B9C",
"f. c #8C9A9C",
"g. c #949494",
"h. c #9F9591",
"j. c #949798",
"k. c #949A9A",
"l. c #9C9C9C",
"z. c #A19896",
"x. c #9EA09F",
"c. c #839FA2",
"v. c #8A9EA0",
"b. c #979FA0",
"n. c #8DA1A3",
"m. c #89A7A9",
"M. c #87A9AC",
"N. c #8CABAD",
"B. c #97A2A2",
"V. c #9CA3A3",
"C. c #94A7A9",
"Z. c #9BABAC",
"A. c #82AEB2",
"S. c #9EAFB1",
"D. c #87B0B3",
"F. c #8DB3B7",
"G. c #8AB5B9",
"H. c #93B1B4",
"J. c #9CB2B4",
"K. c #91B5B8",
"L. c #9CB6B9",
"P. c #97B9BC",
"I. c #A3A4A4",
"U. c #A7A8A7",
"Y. c #A4A7A8",
"T. c #A4ABAC",
"R. c gray68",
"E. c #A4B3B4",
"W. c #A8B5B7",
"Q. c #A3B7B8",
"!. c #A8B7B9",
"~. c #A1BCBE",
"^. c #A8B9BA",
"/. c #B2B2B2",
"(. c #AEBFC0",
"). c #8AC5CB",
"_. c #9FC2C5",
"`. c #9CC6CA",
"'. c #91CBD1",
"]. c #97D0D7",
"[. c #96D1D8",
"{. c #9BDADF",
"}. c #A4C2C5",
"|. c #AAC3C5",
" X c #A6C6C8",
".X c #ADC7C8",
"XX c #A9C8CB",
"oX c #B3C1C1",
"OX c #AAD6DA",
"+X c #99DBE2",
/* pixels */
"X y.j.g.j.j.l.g.j.h.l.l.l.l.l.z.V.x.I.I.I.I.I.I.U.I.U.U.U.U.U.U.R.U.R.R.R.R.R.R.R.R.R.R.R./.R./.R.R.R.R.R.R./.R.R.R.R.R.R.R./.R.R.R./.R.R.R.R.R.R.R./.",
". 1 , > > > , , 1.1.1., , , , , , , 2 , , , , < < , < , , < < < < < < < , < , < < < < < < < < < < < < < < < < < < < < < < < < < < < < < < , , , , 1 R.",
"X < ; - - ; ; ,.,.OX<.1.; ; > > ; ; 2 > ; ; ; ; ; ; ; ; ; > > ; ; ; ; ; ; ; ; ; ; > > ; ; b ; ; ; ; b > ; b ; > ; ; > ; ; ; ; ; ; > > ; ; ; - - ; > I.",
"X < - - - ; >.$. X}.XX&.1.> > > > > 2 > ; > > > > > > ; ; > > > ; > > > > > > > > ; > > b > b > >   b >   > > > > > > > > > > > ; > > ; ; ; ; ; - > I.",
"X , ; - - +.X.~.!.W.^.|.&.<.> > > > 2 > > > > > y t.t.e > > > > > ; > > > > > > > > >   b   b > >   b > > b > > > b b b > > b b b > > > ; ; ; - - > I.",
". , - - O.| L.S.Y.T.T.W.(.&.<.> > > 2 > > > > w &.+X+X:.u > > > > , > > > > > > > > > b >   > b >   b >   b > > b     b >   b   > b > > ; ; ; ; ; > U.",
"X , - { } J.Z.V.V.I.Y.T.!.(.&.1.> > 2 > > > 4 ,.'.|.oX].r.r > > > > > > > > > > > >   b b b b b >   b >   b >   b >   b >   b >   b > > ; ; ; - - ; I.",
". , { ' K.C.k.b.z.b.V.Y.T.!.XX<.1.> 2 > > w X.).^.Q.Q.|.].e.t > > > > > > > > > > >   b       b >   b >   b >   b >   b >   b >   b > > ; ; ; - - ; I.",
"X o { I n j.g.l.l.b.V.I.Y.T...&.1.> 2 > * =.3.J.Z.V.Z.Q.oXw.1.; > > > > > > > > > > b ; ; >   > b   b ;   b >   > b b b >   b >   b > ; ; ; ; - - ; I.",
". o ` F.c z g.g.l.j.z.b.V.C  ..X,.; 2 ; o @.R S l.l.x.T.2.8.q.; ; ; ; ; ; ; ; ; ;   ; ; ; ; ;   ;   ; ;   ; ; ; b     b ;   ; ;   ; ; ; ; ; - - = ; I.",
". o ^ D.v.l l i.g.g.j.l.B C W. X,.; 2 ; o 4.F.N a h.z.d F |.0.; ; ; ; ; ; ; ; ; ; ; ; ; ; ; ; ; ; ; ; ; ; ; ;   ; b b ; ; ; ; ; ; ; ; ; - - - = = ; I.",
". o ^ A.c.a.6 l g.g.h.B B V.S.(.,.- 2 - X ! H.n.0 0 q Z S.|.9.- - - - - - - - - b b b b b - - - - - ; - - - - -     - - - b b - - - - - - - = = = - I.",
". o ~ A.s.i.u.6 l m m N b.V.S.(.;.- 2 - o ! G.n.p.7 0 x.J. X9.- - - - - - - - b b       b b - - - - - - - - - - - - - -   b b - - - - - - = = = = - I.",
"X o ~ h f u.u.i.6 l m g.j.b.S._.;.- 2 - X { 5.N.f.i p B.L.7.#.- - - = - = -   b b = -     - - - b b b b = - - b b b b -   b b - = b b b b = = * * = z.",
". X ) j f u.u.u.i.6 a.g.j.C.H.`.>.= 2 = X $ L d N.s d Z.6.Q : = = = = = = =   b b b b = = = = b b     b b = b       b b   b b = b b     b b * * * - z.",
". o _ L M.p.u.u.y.6 i.a.j.C.P.o.-.= 2 = @ X # ` J D d 6.T & = = = = = = = =     b b b b b =   b b =     =   = * b b b b   b b   b b =   b b * * @ = b.",
". o . ) v f f y.u.5 a.a.v.H.} -.* * 2 % @ @ X # Y E W Y & * * * * * * * * * *       b b b b   b b * * * * * * b b   b b   b b   b b b b b b @ @ @ = j.",
". ; X . ( v f p.u.5 p.v.m.' { @ * @ 2 * @ @ O X # / L % @ @ @ @ @ @ @ @ * @ @ @ @       b b   b b @ @ @ @ * b b @   b b   b b   b b       @ @ + + * j.",
". > @ . . ( v f s.k c.M.n { @ @ @ + 2 @ @ + @ O . X O @ @ @ @ @ @ @ @ @ @ + @ b b @ @   b b   b b @ @ b b   b b @   b b   b b   b b + @ b b + + O * g.",
". ; + O . . ( v g x A.P { + + + + + 2 + + + + + + + + O + + O + + + + + + +     b b b b b +     b b b b +     b b b b b   b b     b b b b + + O O * g.",
". ; O O O . . ) / L ~ [ O O O O O O 2 O O O O O O O O O O O O O O O O O O O O           O O O         + O O           +     + O         O O O O O + i.",
". > * * * * X . ) _ _ * * * * * * * 2 * * * @ * * * * * * * * * * * * * * * * * * * * * * * * * * * * * * * * = * = * = = * = * = = = = = * = * = - j.",
". = - - - - - X X X - = = - = - - - = - - = - - - - - - - - - - - - - - - - - - - - ; - - ; ; ; ; ; ; ; ; ; > ; > ; > > > > > > > > > , > , > , , < < ",
".   .   . .   . . . . . . . . . .   . . . . . . . .   . .   .   . . . . . . . . . . . . . . . . . . . . . . . . . . . . . . X . X . . . . . . . .   . "
};
