/* XPM */
static char *NinjaUV_SnapLeft[] = {
/* columns rows colors chars-per-pixel */
"84 24 104 2",
"   c gray8",
".  c #161615",
"X  c #161616",
"o  c gray9",
"O  c #191917",
"+  c #191918",
"@  c gray10",
"#  c #1B1B1B",
"$  c #1C1C1A",
"%  c #1C1C1B",
"&  c #1E1E1E",
"*  c #20201F",
"=  c #212120",
"-  c #272724",
";  c #262625",
":  c gray16",
">  c #2C2C2C",
",  c gray18",
"<  c #2F2F2E",
"1  c #2F2F2F",
"2  c #31312C",
"3  c #33332E",
"4  c #34342E",
"5  c #34342F",
"6  c #323231",
"7  c #323232",
"8  c #353535",
"9  c gray21",
"0  c #373736",
"q  c #373737",
"w  c #383833",
"e  c #3A3A34",
"r  c #383836",
"t  c #3B3B37",
"y  c #3C3C36",
"u  c #3F3F37",
"i  c gray22",
"p  c #393938",
"a  c #393939",
"s  c gray23",
"d  c #3F3F38",
"f  c #3F3F3A",
"g  c #3C3C3C",
"h  c gray24",
"j  c #404039",
"k  c #40403E",
"l  c #43433E",
"z  c #46463E",
"x  c #47473E",
"c  c gray25",
"v  c #414140",
"b  c #434343",
"n  c #474741",
"m  c #464642",
"M  c #444444",
"N  c gray27",
"B  c #464645",
"V  c #484843",
"C  c #4A4A43",
"Z  c #484847",
"A  c #4E4E44",
"S  c #494948",
"D  c #4D4D4B",
"F  c #4E4E4A",
"G  c #505047",
"H  c #535347",
"J  c #525248",
"K  c #525249",
"L  c #53534A",
"P  c #53534C",
"I  c #55554C",
"U  c #54544F",
"Y  c #58584F",
"T  c #545450",
"R  c #565651",
"E  c #585853",
"W  c #5F5F52",
"Q  c #5B5B55",
"!  c #5D5D57",
"~  c #5E5E56",
"^  c #606055",
"/  c #626255",
"(  c #63635A",
")  c #63635B",
"_  c #656559",
"`  c #67675A",
"'  c #64645C",
"]  c #66665D",
"[  c #68685F",
"{  c gray39",
"}  c gray40",
"|  c #6A6A60",
" . c #6C6C61",
".. c #717161",
"X. c #737363",
"o. c #717165",
"O. c #727266",
"+. c #7D7D6F",
"@. c #44FF00",
"#. c #818181",
"$. c gray51",
"%. c #929292",
"&. c #A4A4A4",
"*. c gray100",
/* pixels */
"  { #.#.#.#.#.#.#.#.#.#.#.#.#.#.$.#.#.#.#.#.#.#.#.#.#.#.#.#.#.#.#.#.#.#.#.#.#.#.#.#.#.#.#.#.#.#.#.#.#.#.#.#.#.#.#.#.#.#.#.#.#.#.#.#.#.#.#.#.#.#.#.#.#.#.#.#.#.#.#.#.%.&.",
"# , } } } } } } } } } } } } } } } } } } } } } } } } } } } } } } } } } } } } } } } } } } } } } } } } } } } } } } } } } } } } } } } } } } } } } } } } } } } } } } } } $.%.",
"& q M M M M M M M M M M M M M M M M M M M M M M M M M M M M M M M M M M M M M M M M M M M M M M M M M M M M M M M M M M M M M M M M M M M M M M M M M M M M M M M M } #.",
"& p Z S S M M M M M M M M Z S Z M M M M M M M M M M M M M M M M M M M M M M M M M M M M M M M M M M M M M M M M M M M M M M M M M M M M M M M M M M M M M M M M M M } #.",
"* k R ! Q E T T T T T U E E ! R D M M M M M M M M M M M M M M M M M M M M M M M M M M M M M M M M M M M M M M M M M M M M M M M M M M M M M M M M M M M M M M M M M } #.",
"= V ] @.O. .) ] ' ' ) ) | O.@.| E S M M M M M M M M M M M M M M M M M M M M M M M M M M M M M M M M M M M M M M M M M M M M M M M M M M M M M M M M M M M M M M M M } #.",
"* V @.@.@.*.*.*.*.*.*.*.*.@.@.@.! S M M M M M M M M M M M M M M M M M M M M M M M M M M M M M M M M M M M M M M M M M M M M M M M M M M M M M M M M M M M M M M M M } #.",
"$ d / @.X._ Y Y Y Y I K W ..@.O.E S M M M M M M M M M M M M M M M M M M M M M M M M M M M M M M M M M M M M M M M M M M M M M M M M M M M M M M M M M M M M M M M M } #.",
"  4 H *.! A d d d d p w x W *.| Y M M M M M M M M M M M M M M M M M M M M M M M M M M M M M M M M M M M M M M M M M M M M M M M M M M M M M M M M M M M M M M M M M } #.",
"  2 A *.Y M 8 q 8 q , : w K *.) T M M M M M M M M M M M M M M M M M M M M M M M M M M M M M M M M M M M M M M M M M M M M M M M M M M M M M M M M M M M M M M M M M } #.",
"  w K *.! D h h g h 9 , d I *.) T M M M M M M M M M M M M M M M M M M M M M M M M M M M M M M M M M M M M M M M M M M M M M M M M M M M M M M M M M M M M M M M M M } #.",
"  w Y *.] I M M M M h q d I *.] T M M M M M M M M M M M M M M M M M M M M M M M M M M M M M M M M M M M M M M M M M M M M M M M M M M M M M M M M M M M M M M M M M } #.",
"# w E *.) R M M M b h q h Y *.] T M M M M M M M M M M M M M M M M M M M M M M M M M M M M M M M M M M M M M M M M M M M M M M M M M M M M M M M M M M M M M M M M M } #.",
"  w Y *.) T M M M b h 7 d R *.) T M M M M M M M M M M M M M M M M M M M M M M M M M M M M M M M M M M M M M M M M M M M M M M M M M M M M M M M M M M M M M M M M M } #.",
"  w Y *.) T M M M M h q d Y *.] R M M M M M M M M M M M M M M M M M M M M M M M M M M M M M M M M M M M M M M M M M M M M M M M M M M M M M M M M M M M M M M M M M } #.",
"# y ^ *.O.) T T U R D m K _ *.| E M M M M M M M M M M M M M M M M M M M M M M M M M M M M M M M M M M M M M M M M M M M M M M M M M M M M M M M M M M M M M M M M M } #.",
"$ j ` @.+.O.' ' ' ' ! Y W ..@.O.E S M M M M M M M M M M M M M M M M M M M M M M M M M M M M M M M M M M M M M M M M M M M M M M M M M M M M M M M M M M M M M M M M } #.",
"$ j @.@.@.*.*.*.*.*.*.*.*.@.@.@.! S M M M M M M M M M M M M M M M M M M M M M M M M M M M M M M M M M M M M M M M M M M M M M M M M M M M M M M M M M M M M M M M M } #.",
"O 2 H @._ ^ Y Y Y Y K A H / @.] R S M M M M M M M M M M M M M M M M M M M M M M M M M M M M M M M M M M M M M M M M M M M M M M M M M M M M M M M M M M M M M M M M } #.",
". - w x V b d d d d y q w V U I D M M M M M M M M M M M M M M M M M M M M M M M M M M M M M M M M M M M M M M M M M M M M M M M M M M M M M M M M M M M M M M M M M } #.",
"o ; 7 i w w 9 q q q 7 , , q b M M M M M M M M M M M M M M M M M M M M M M M M M M M M M M M M M M M M M M M M M M M M M M M M M M M M M M M M M M M M M M M M M M M } #.",
"# , p g h h h g h p p p p g h b M M M M M M M M M M M M M M M M M M M M M M M M M M M M M M M M M M M M M M M M M M M M M M M M M M M M M M M M M M M M M M M M M M } #.",
"# > 9 9 9 i 9 9 q q 8 q q q q q i q q q q q i q q q q q q q q q 9 i i 9 i 9 9 i 9 i i 9 i 9 9 i i 9 i 9 i 9 i 9 i 9 i 9 9 i i 9 i 9 9 i i 9 i 9 i 9 i 9 i 9 i 9 9 i , { ",
"  # & & & & & & & & & & & & & & & & & & & & & & & & & & & & & & & & & & & & & & & & & & & & & & & & & & & & & & & & & & & & & & & & & & & & & & & & & & & & & & & & #   "
};
