/* XPM */
static char *NinjaMesh_AlignSelMid[] = {
/* columns rows colors chars-per-pixel */
"84 24 256 2",
"   c #0E0E0E",
".  c #141414",
"X  c #1B1616",
"o  c #1D1817",
"O  c #161A1B",
"+  c #1B1C1C",
"@  c #211E1E",
"#  c #172020",
"$  c #1C2424",
"%  c #1D2728",
"&  c #14292A",
"*  c #1C2A2D",
"=  c #1D2F35",
"-  c #1D3234",
";  c #1E363A",
":  c #1C3A3D",
">  c #252525",
",  c #242A2A",
"<  c #2C2C2C",
"1  c #292725",
"2  c #2E302F",
"3  c #212F32",
"4  c #233336",
"5  c #2C3333",
"6  c #273638",
"7  c #2B3D3E",
"8  c #28383A",
"9  c #343434",
"0  c #333A3A",
"q  c #3C3C3C",
"w  c #383332",
"e  c #45413F",
"r  c #143E42",
"t  c #1A3D40",
"y  c #233D42",
"u  c #2B3D40",
"i  c #353F40",
"p  c #1D464A",
"a  c #1A464A",
"s  c #1E4E51",
"d  c #1C5156",
"f  c #1C595E",
"g  c #1A5459",
"h  c #234245",
"j  c #2B4144",
"k  c #26464C",
"l  c #2E4649",
"z  c #234C4E",
"x  c #2C494B",
"c  c #354345",
"v  c #3D4344",
"b  c #344B4E",
"n  c #3B4A4C",
"m  c #2E4D54",
"M  c #254B54",
"N  c #324E51",
"B  c #3E4F51",
"V  c #2C5255",
"C  c #2C555B",
"Z  c #20585F",
"A  c #27565A",
"S  c #335457",
"D  c #3C5052",
"F  c #34555A",
"G  c #3B5759",
"H  c #345A5E",
"J  c #38595C",
"K  c #185D64",
"L  c #235D63",
"P  c #2C5E62",
"I  c #365D66",
"U  c #335E6A",
"Y  c #1E666D",
"T  c #1A6167",
"R  c #1A6971",
"E  c #1D727A",
"W  c #2E6165",
"Q  c #25646B",
"!  c #2A656A",
"~  c #2A696E",
"^  c #3B696D",
"/  c #38646A",
"(  c #2D6C72",
")  c #246E74",
"_  c #3A6E77",
"`  c #23727A",
"'  c #29797F",
"]  c #2D737A",
"[  c #32737B",
"{  c #3C737C",
"}  c #3F787E",
"|  c #33797F",
" . c #444444",
".. c #484544",
"X. c #4F4846",
"o. c #454A4A",
"O. c #4B4B4B",
"+. c #404F51",
"@. c #445355",
"#. c #4C5354",
"$. c #445759",
"%. c #4C5759",
"&. c #465C5E",
"*. c #4B5A5C",
"=. c #535454",
"-. c #525B5C",
";. c #5B5B5B",
":. c #445E63",
">. c #4D5F62",
",. c #436163",
"<. c #4C6467",
"1. c #4B686B",
"2. c #526364",
"3. c #536669",
"4. c #526A6C",
"5. c #5B6C6D",
"6. c #5B6161",
"7. c #426B72",
"8. c #4A6871",
"9. c #586F71",
"0. c #427075",
"q. c #4B7376",
"w. c #44797D",
"e. c #467579",
"r. c #547275",
"t. c #517B7F",
"y. c #597A7D",
"u. c #656565",
"i. c #686868",
"p. c #607071",
"a. c #68797A",
"s. c #747474",
"d. c #7C7C7C",
"f. c red",
"g. c #1A7B83",
"h. c #227981",
"j. c #2A7A83",
"k. c #3D7D84",
"l. c #327E86",
"z. c #427D82",
"x. c #4C7D82",
"c. c #467481",
"v. c #547D81",
"b. c #507581",
"n. c #617F82",
"m. c #1E838D",
"M. c #1E8790",
"N. c #1F8B95",
"B. c #25828A",
"V. c #2A838C",
"C. c #35838A",
"Z. c #3D838D",
"A. c #39848B",
"S. c #288691",
"D. c #288C95",
"F. c #348B94",
"G. c #3D8A91",
"H. c #24929D",
"J. c #2C939C",
"K. c #32919A",
"L. c #1F9CA7",
"P. c #2399A3",
"I. c #289BA6",
"U. c #359FA9",
"Y. c #389FA8",
"T. c #379AA4",
"R. c #2DA0AB",
"E. c #23A1AC",
"W. c #3AA1AB",
"Q. c #35A3AD",
"!. c #23ADB9",
"~. c #2FA8B3",
"^. c #30A6B1",
"/. c #34ACB7",
"(. c #3BA9B5",
"). c #36B0BB",
"_. c #42858A",
"`. c #4A8489",
"'. c #528084",
"]. c #5E8387",
"[. c #538589",
"{. c #5D878B",
"}. c #5B898C",
"|. c #548A8E",
" X c #428D93",
".X c #488992",
"XX c #568C93",
"oX c #5C8D91",
"OX c #518291",
"+X c #49969D",
"@X c #52959B",
"#X c #539096",
"$X c #61868A",
"%X c #61898C",
"&X c #66868A",
"*X c #758283",
"=X c #768B8D",
"-X c #678D91",
";X c #708F92",
":X c #679599",
">X c #439CA5",
",X c #4C9BA4",
"<X c #539BA2",
"1X c #689CA1",
"2X c #719DA1",
"3X c #44A5AE",
"4X c #4DA2A9",
"5X c #57A0A6",
"6X c #51A5AD",
"7X c #5DA1A7",
"8X c #4BABB3",
"9X c #43ABB3",
"0X c #54ADB5",
"qX c #58AFB7",
"wX c #40B4BE",
"eX c #52B3BD",
"rX c #5CB3BA",
"tX c #7AA9AD",
"yX c #77A3A7",
"uX c #70AFB4",
"iX c #7CAEB3",
"pX c #7CB3B8",
"aX c #33B9C6",
"sX c #36BBC7",
"dX c #47B7C0",
"fX c #4BB9C3",
"gX c #46BCC5",
"hX c #7ABDC3",
"jX c #33C3D0",
"kX c #48C2CD",
"lX c #55C3CD",
"zX c #79C3C9",
"xX c #77C2C9",
"cX c #7FCFD5",
"vX c #47D6E1",
"bX c #848484",
"nX c #829394",
"mX c #939393",
"MX c #82ADB1",
"NX c #80B0B6",
"BX c #A7A7A7",
"VX c #87BBC1",
"CX c #83C6CB",
"ZX c #86C9CF",
"AX c #82CCD3",
"SX c #8BCCD1",
"DX c #84D0D6",
"FX c #88D0D6",
"GX c #83D4DB",
"HX c #8BD3DA",
"JX c #80D8DF",
"KX c #92D5DB",
"LX c #96D8DF",
"PX c #85D9E1",
"IX c #8CDAE2",
"UX c #93DDE4",
/* pixels */
"+ i.bXbXbXbXbXbXbXbXbXbXbXbXbXbXbXbXbXbXbXbXbXbXbXbXbXbXbXbXbXbXbXbXbXbXbXbXbXbXbXbXbXbXbXbXbXbXbXbXbXbXbXbXbXbXbXbXbXbXbXbXbXbXbXbXbXbXbXbXbXbXbXbXbXbXbXbXbXbXbXbXmXBX",
"+ 9 i.i.i.i.i.i.i.i.i.i.i.i.i.i.i.i.i.i.i.i.i.i.i.i.i.i.i.i.i.i.i.i.i.i.i.i.i.i.i.i.i.i.i.i.i.i.i.i.i.i.i.i.i.i.i.i.i.i.i.i.i.i.i.i.i.i.i.i.i.i.i.i.i.i.i.i.i.i.i.i.bXmX",
"+ 9  . . . . . .....o. Xx. .O. ...o. . .O. . ... . .O. ... .O.@X[.......o...o... .o... .....o. . ...O. .o. . ...O... . .o...O. . . ... .O... . .o...O. . .O. ... .O.i.bX",
"> q  . . . . .v o.0.W.aXaX,X%. . . . . . . . . . . . . .O.r.0XkXkX5X%. . . . . . . . . . . . . . . . . . . . . . . . . . . . . . . . . . . . . . . . . . . . . . . .u.bX",
"+ 9  .e q  .e @.Z.^.D.F.F.W.3Xt. . . ... . . . . .v v $.#XfX4X+X+X8XqX'. . . . . . . . . . . . . . . . . . . . . . . . . . . . . . . . . . . . . . . . . . . . .....i.bX",
"+ q  .e q v _.W.K.[ ( W / { G.3X<X%. . . . .e  .q  .|.eX4X|.'.t.v.[.@X0X7X*. . . . .o. . ... . . . . . . . ..... . . . . . . . . . . . . . . . . . . . . ... .o.e e u.d.",
"+ 9 e q ,.>XQ.l.^ H N l b J ^ _.T.8Xv.#.i  .q q <.6X8X#X'.r.1.2.3.r.t.|.6XqX{.#. . . . . . . . . . .O.6.n.bXu.X.=.s.bXs.;.;.i.;. . . . .;.s.s. . . . . . . . . ... .i.bX",
"+ 9 q I wXW.Z.^ G b i 0 0 c N ,.w.G.gX8X%.q q ,.wX3X.Xr.<.*.-.#.*.-.3.r.[.<XlXrX-. . . . . . . . . .2.PXUXVXd.e 1XPXPXnX9.UX2X;. . . ...LXLXbX.. . . . . . . . . . .i.n.",
"+ < 9 ,XsX>X7.@.n v q 0 9 9 0 b G } W.jXx.0 5 ,XaX>Xq.&.#.#.O.=.=.=.-.2.9.XXeXvX%X . . . .e i e e  .<.PXPXSXd.e hXcXPX=XX.O.i.u.=.6.u. .KXLXd... . . . . . . . . . .u.bX",
"X < < <XP.l..X>...e v q 0 9 2 0 U [ ` I.w.9 < +XS.j.k.:.o.O.O.O.O.=.=.;.XX,Xl.).-X . . . .e e i q q *.PXAXHXn.@.cXhXIXn.2.IXMXi.5.FXUXNXKXKXd... . . . . . . . . . .u.bX",
". > > <XD.C l { 8.O.e e q w c N ; : g H.0.< > G.g.d y U :.o...O.O.X.2.OXI l W (.%X . . .e i q q q 9 %.IXpXZX=X9.AX2XAXa.>.IXtX=.VXDX .n.UXLXn.e o. ... . . . . . . .u.bX",
". + @ <XD.P j 1 S c.*.e o.:.m $ # : g N.^ > + C.g.d 4 @ u / @...#.b.7.8 < x W (.%X . . . .q 9 9 9 9 @.UX%XNX;X;XpXv.CX9.%.GX2X3.IXtXq e FXHXd.X. . . . . . . . . . .u.d.",
"  X f.f.f.f.f.f.f.f.f.f.f.f.f.f.f.f.f.f.f.f.f.f.f.f.f.f.f.f.f.f.f.f.f.f.f.f.f.f.f.f.f. .q q 9 9 < 2 B UX$X2XiXNX-X$XAX5.$.PX:X8.PXtX=.q VXKXn. . . . . . ... .o. . .u.bX",
"  .   } ` z 4 , > > X I 4 o + + # - a E V . . ! K a & O . . . k 3 o @ > * 8 z V.q.q e  .q q 9 < < 1 n UX{.y.SXSXr.{.HX5.@.cX:X:.PXiXi.i DXSXbX . . . . . . . . . . .u.d.",
"      ^ Y p ; > $ + o y - X + # # - a R k     L K r & O . . . = % X + + $ ; a h.1.q  .i q 9 9 < > > n UX%X$.UXIXv }.PX>.G cXoX< hXzX6.b.PXDXs. . . . ... . . . . . .u.bX",
"      z.B.L k 4 , , @ m u > > , ; p K M.H .   ] g.f r & # X . ; * + # % - p T H.q.v  .e q q 9 1 > > n UX{.> SXzX< {.PXB B PX{.< G hXPXuXAXAX;. . . . . . . . . . . .i.bX",
"  . . N R.B.~ m j 4 1 I b , 6 h M ) S.J.7 . . k P.g.Q a - % O y = $ = y M R g.T.$. . . .q w w < 1 , @ > > > 1 < < 1 < < < < < < < 9 9 q q .. . . . . . . . . . ...e i.bX",
"  . . . F 9XJ.] W m 7 { I j V W ' I.3Xb > + . . C Q.H.) A p - M y ; p L h.P.3X:. . . .q q i w < < 1 > , > < < < < < < 1 < < < < < 9 w i v e  . . . . . . ... . ...e i.bX",
"  . X . . $  XR.j.( C Z.[ P ( K.9X`.5 1 > + . . . $ A.I.E Q s Q L d Y g.I.k. . . . . . . .q i w 2 < < 1 < < < < 9 2 9 9 < < 9 9 9 9 i q v  . . ... . . . . . . ... .u.n.",
". + O . . . . S 3XJ.' T.F.V./._.B 9 2 < > @ + . . . . m U.H.E B.g.g.P.j.n i q q  . . . . .q w w w 9 2 2 9 9 9 w 9 9 9 9 9 9 9 9 w w q q e e  . . . . . . . . . . . .u.bX",
". + + + . . . . $  X~.aXaXW.,.5 2 9 9 9 , > + + . . . . % C.E.!.!.P.I < w i q  . . . . .i e i i q q w q q w q q q q q i i w i w q q q e e  . . . . . . . . . . . . .u.bX",
". > > + + X . . . + S dX_.c < < 9 q 9 9 2 1 > + O X . . . O V /.l.u , 9 w i e e  . . .q  . .e q q q q i q i i q q q q q q q q q i q e q i  . . . . . . . . . . . . .u.d.",
". + @ + + . . . . . . + + > < < 2 2 2 < < > > + O X . . . . X + @ > 1 < 9 9 i w w w w i 9 9 9 w 9 9 9 9 w 9 9 w w 9 9 9 9 9 w 9 9 9 9 9 w q 9 q 9 w 9 9 9 w i w w 9 < u.",
"+ + + + O . .   . . . + + + + > > > $ > > + + X X . .   . . . X + + + > @ > > > , > > > < > 1 > > > > > > > > > > > > 1 > > > > > , 1 > > > 1 > 1 , < , > > > > , > > o "
};
