/* XPM */
static char *Ninja_Tool[] = {
/* columns rows colors chars-per-pixel */
"32 32 154 2",
"   c black",
".  c #020202",
"X  c #040404",
"o  c #0E0E0E",
"O  c #101010",
"+  c #111111",
"@  c gray7",
"#  c gray8",
"$  c #161616",
"%  c #181818",
"&  c #1B1B1B",
"*  c #1E1E1E",
"=  c gray12",
"-  c #202020",
";  c gray13",
":  c #222222",
">  c #232323",
",  c gray14",
"<  c #252525",
"1  c gray15",
"2  c #272727",
"3  c #282828",
"4  c gray16",
"5  c #2A2A2A",
"6  c gray17",
"7  c #2C2C2C",
"8  c #2D2D2D",
"9  c gray18",
"0  c #2F2F2F",
"q  c gray19",
"w  c #313131",
"e  c #323232",
"r  c gray20",
"t  c #343434",
"y  c #353535",
"u  c gray21",
"i  c #373737",
"p  c gray22",
"a  c #393939",
"s  c #3A3A3A",
"d  c gray23",
"f  c #3C3C3C",
"g  c gray24",
"h  c #3E3E3E",
"j  c #3F3F3F",
"k  c gray25",
"l  c #414141",
"z  c gray26",
"x  c #434343",
"c  c #444444",
"v  c gray27",
"b  c #464646",
"n  c gray28",
"m  c #494949",
"M  c gray29",
"N  c #4B4B4B",
"B  c #4C4C4C",
"V  c gray30",
"C  c #4E4E4E",
"Z  c gray31",
"A  c #505050",
"S  c #515151",
"D  c gray32",
"F  c #535353",
"G  c gray33",
"H  c #555555",
"J  c #565656",
"K  c gray34",
"L  c #585858",
"P  c #5A5A5A",
"I  c #5B5B5B",
"U  c gray36",
"Y  c #5D5D5D",
"T  c gray37",
"R  c #5F5F5F",
"E  c #606060",
"W  c gray38",
"Q  c #626262",
"!  c gray39",
"~  c #656565",
"^  c gray40",
"/  c #676767",
"(  c #686868",
")  c DimGray",
"_  c #6A6A6A",
"`  c gray42",
"'  c #6C6C6C",
"]  c #6D6D6D",
"[  c gray43",
"{  c #6F6F6F",
"}  c gray44",
"|  c #717171",
" . c #727272",
".. c gray45",
"X. c gray47",
"o. c #7B7B7B",
"O. c #808080",
"+. c #818181",
"@. c gray51",
"#. c #838383",
"$. c gray52",
"%. c #868686",
"&. c gray53",
"*. c #898989",
"=. c #8B8B8B",
"-. c #8D8D8D",
";. c gray56",
":. c #909090",
">. c gray57",
",. c gray58",
"<. c #959595",
"1. c gray59",
"2. c #989898",
"3. c gray62",
"4. c #9F9F9F",
"5. c #A0A0A0",
"6. c gray63",
"7. c #A2A2A2",
"8. c gray64",
"9. c #A4A4A4",
"0. c #A5A5A5",
"q. c gray65",
"w. c gray66",
"e. c #A9A9A9",
"r. c #AAAAAA",
"t. c gray67",
"y. c #ACACAC",
"u. c gray68",
"i. c #AEAEAE",
"p. c #AFAFAF",
"a. c #B1B1B1",
"s. c #B2B2B2",
"d. c gray70",
"f. c #B4B4B4",
"g. c gray71",
"h. c #B6B6B6",
"j. c #B7B7B7",
"k. c gray72",
"l. c #B9B9B9",
"z. c gray73",
"x. c #BBBBBB",
"c. c #BCBCBC",
"v. c gray",
"b. c gray75",
"n. c gray76",
"m. c #C5C5C5",
"M. c #C6C6C6",
"N. c gray79",
"B. c gray80",
"V. c #CDCDCD",
"C. c LightGray",
"Z. c #D7D7D7",
"A. c #E1E1E1",
"S. c gray90",
/* pixels */
"s.a.q.q.q.q.q.q.q.q.q.q.q.q.q.q.q.q.q.q.q.q.q.q.q.q.q.q.q.q.:.C ",
"=.$.......................W T U U T W ......................A 8 ",
"| Y c c c c c c c c c 8 < < < < < < < < < c c c c c c c c c p = ",
"| Y c c c c c c c < < < < 1 4 7 8 8 5 2 1 < < c c c c c c c p = ",
"| Y c c c c c < < < < 4 d B G K J G Z v y 4 3 2 < c c c c c p = ",
"| Y c c c c < < < 1 y b N V F K H Z M b x h e , 3 < c c c c p = ",
"| Y c c c < < < 7 a v K } =.4.e.t.3.&.[ A f i y < < 1 c c c p = ",
"| Y c c < < , q u M o.f.h.l.x.b.n.M.V.C.Z.;.G e 9 < 1 2 c c p = ",
"| Y c c < < 2 8 N } C U 8.u.e.d.z.j.n.b.| Q 9.+.y 3 < < 8 c p = ",
"| Y c < < < 1 a o.Z / S A 3.p.r.f.k.d.R Z T L B.` 1 < < 1 c p = ",
"| Y 5 < < < , F E [ V.e.G F q.y.i.f.E F 7.M.` X.p.r < < 1 5 p = ",
"| Y < < < 1 < P I 1.M.A.9.Z ! e.y.] A 8.S.m.:._ N.m : , < < p = ",
"| Y < < < 1 , J Q y.j.S ~ ..N @.*.V { / Y v.q.' c.K * < < < p = ",
"| Y < < < < ; D ) M.b . G ( g ( _ k ' K X C b.{ p.L = < > < < = ",
"| v < < < < - v | p.*   O % 3 [ [ 3 * #   - a.o.g.b = < : < ; = ",
"| x < < < < ; t X.6.K @     n O.O.z     o S e.=.,.r < 1 > < = = ",
"| x < < 1 1 < , E 2.9. .l C %.>.>.#.v a ( 9.2.w.Y 0 2 < > < = = ",
"| v < < 1 1 < > t Y ;.0.y.4.-.^ ( <.e.k.h.q.5.` u 7 < < > < ; = ",
"| M < < 1 1 1 1 6 i x M V M M A A C J E R J x r 4 < 1 1 , < 2 = ",
"| Y < < 1 1 1 1 1 5 e a z B H U U H N k u q 5 1 < 1 1 1 < < p = ",
"| Y < < < < 1 1 1 < < 2 5 e d j l s e 6 3 1 < 1 1 1 1 > < < p = ",
"| Y c < < < < < < 1 1 1 , , 1 3 3 1 , , < 1 1 1 1 1 1 , < 5 p = ",
"| Y c < < , < < 1 < 1 1 1 1 1 1 1 1 1 1 1 1 1 1 1 < , < < c p = ",
"| Y c c < < < < < < 1 1 1 1 1 1 1 1 1 1 1 1 1 1 < < < < 6 c p = ",
"| Y c z < < < < < < < < 1 1 1 1 1 1 1 1 1 1 1 < < < < < c c p = ",
"| Y c c c < < < < < < < < < < < < < < < < < < < < < < c c c p = ",
"| Y c c c c < < < < < < < < < < < < < < < < < < < < w c c c p = ",
"| Y c c c c c < < < < < < < < < < < < < < < < < < c c c c c p = ",
"| Y c c c c c c c < < < < < < < < < < < < < < 6 c c c c c c p = ",
"| Y c c c c c c c u 5 < < < < < < < 1 < < 5 c c c c c c c c p = ",
"D s q q q q q q q q q q q , * & * > 1 3 7 q q q q q q q q q 2 % ",
"8 $ + + + + + + + + + + + + + + + + + + + + + + + + + + + + + + "
};
