/* XPM */
static char *NinjaMesh_AlignCornerXZ[] = {
/* columns rows colors chars-per-pixel */
"84 24 256 2",
"   c gray6",
".  c #120F0F",
"X  c #141414",
"o  c #1C1C1C",
"O  c #201111",
"+  c #1B2020",
"@  c #1C2C2D",
"#  c #252525",
"$  c #222F2F",
"%  c #2C2C2C",
"&  c #352323",
"*  c #362D2C",
"=  c #222F30",
"-  c #322E31",
";  c #273536",
":  c #2D3434",
">  c #2F3738",
",  c #2D393B",
"<  c #343434",
"1  c #393331",
"2  c #323738",
"3  c #333A3B",
"4  c #3C3C3C",
"5  c #403E3D",
"6  c #343F43",
"7  c #2D4244",
"8  c #264548",
"9  c #2E4A4B",
"0  c #364343",
"q  c #3D4344",
"w  c #364749",
"e  c #3C4649",
"r  c #374B4F",
"t  c #294F52",
"y  c #344B51",
"u  c #255257",
"i  c #2D5152",
"p  c #225458",
"a  c #2A575B",
"s  c #2E595B",
"d  c #3C5254",
"f  c #32585C",
"g  c #3D5A5C",
"h  c #2E5D60",
"j  c #335E64",
"k  c #256166",
"l  c #296268",
"z  c #296A6F",
"x  c #396166",
"c  c #3B6669",
"v  c #38696C",
"b  c #2B6E72",
"n  c #3F6C70",
"m  c #25757D",
"M  c #2E767C",
"N  c #3A777D",
"B  c #37787D",
"V  c #444444",
"C  c #424748",
"Z  c #434C4D",
"A  c #4B4B4B",
"S  c #445354",
"D  c #4A5353",
"F  c #455558",
"G  c #465D5F",
"H  c #4C5D5E",
"J  c #535353",
"K  c #525A5C",
"L  c #5C5C5C",
"P  c #436365",
"I  c #4E6466",
"U  c #45696C",
"Y  c #4A6B6D",
"T  c #5C6768",
"R  c #556E6F",
"E  c #5C6D6D",
"W  c #476D70",
"Q  c #447377",
"!  c #4C7275",
"~  c #44737B",
"^  c #44787D",
"/  c #497A7E",
"(  c #5A7778",
")  c #5C797A",
"_  c #656565",
"`  c #686868",
"'  c #627C7D",
"]  c #687E7F",
"[  c #617274",
"{  c #737373",
"}  c #7B7B7B",
"|  c red",
" . c #00FF18",
".. c #9E947C",
"X. c #AD9A7A",
"o. c #AC9372",
"O. c #B39C7B",
"+. c #267880",
"@. c #347A82",
"#. c #3A7D83",
"$. c #467B81",
"%. c #4E7B86",
"&. c #567F82",
"*. c #5D7E82",
"=. c #2E838B",
"-. c #25818A",
";. c #35838A",
":. c #3E868D",
">. c #3B8C93",
",. c #29949D",
"<. c #33929B",
"1. c #3E949B",
"2. c #2A96A1",
"3. c #2598A1",
"4. c #289BA5",
"5. c #3298A1",
"6. c #3A9CA5",
"7. c #3F9FA8",
"8. c #37A3AD",
"9. c #3EA4AE",
"0. c #3AACB7",
"q. c #3BACB8",
"w. c #438186",
"e. c #40888E",
"r. c #45848A",
"t. c #548487",
"y. c #5A8184",
"u. c #5C8B8E",
"i. c #4D8791",
"p. c #528D91",
"a. c #5E8F94",
"s. c #44939B",
"d. c #569096",
"f. c #648587",
"g. c #648688",
"h. c #6F8789",
"j. c #60898C",
"k. c #6A898C",
"l. c #738081",
"z. c #7B8485",
"x. c #748789",
"c. c #7A8C8E",
"v. c #618E92",
"b. c #708F90",
"n. c #7E8F91",
"m. c #6A9599",
"M. c #66999E",
"N. c #6D989B",
"B. c #65969A",
"V. c #74969A",
"C. c #7A989A",
"Z. c #7A9396",
"A. c #429CA4",
"S. c #559EA8",
"D. c #5E9DA2",
"F. c #4CA6AF",
"G. c #57A1A7",
"H. c #5CA5AB",
"J. c #5EAFB5",
"K. c #5CB6BC",
"L. c #64A0A5",
"P. c #6BA4A8",
"I. c #63A8AE",
"U. c #6CAAAF",
"Y. c #70A2A6",
"T. c #76A4A8",
"R. c #79ABAE",
"E. c #7CA3A6",
"W. c #66A6B0",
"Q. c #63ADB4",
"!. c #66ADB9",
"~. c #73AFB4",
"^. c #65B0B6",
"/. c #6DB1B6",
"(. c #66B8BF",
"). c #6BB5BB",
"_. c #73B1B7",
"`. c #7BB8B6",
"'. c #73B2B8",
"]. c #75B9BF",
"[. c #7BB1B5",
"{. c #32B5C3",
"}. c #55B6C1",
"|. c #5DBCC5",
" X c #77B7C0",
".X c #71BDC8",
"XX c #7BBEC4",
"oX c #5DC0C9",
"OX c #5DC9D2",
"+X c #69C1C7",
"@X c #6FC2C9",
"#X c #7BC1C7",
"$X c #7BC6CC",
"%X c #7FCED4",
"&X c #6EDEE4",
"*X c #848484",
"=X c #8C8D8D",
"-X c #838A8A",
";X c #928886",
":X c #908D89",
">X c #8F9481",
",X c #858F90",
"<X c #839F94",
"1X c #869595",
"2X c #939393",
"3X c #9B9694",
"4X c #A0948F",
"5X c #A69E99",
"6X c #ABA38A",
"7X c #B2A083",
"8X c #A4AB9B",
"9X c #8AA8AB",
"0X c #82AAAE",
"qX c #9EA3A3",
"wX c #97ABAE",
"eX c #94A6AA",
"rX c #81AEB3",
"tX c #9AAEB0",
"yX c #8AB6BA",
"uX c #80BABF",
"iX c #95B8B9",
"pX c #A4A4A4",
"aX c #A4AAAB",
"sX c #A8AEAE",
"dX c #A5B4B6",
"fX c #A8B1B1",
"gX c #A8B6B8",
"hX c #A0BABD",
"jX c #A9BCBE",
"kX c #9CBDC0",
"lX c #89C1C6",
"zX c #80C4CA",
"xX c #8CC6CB",
"cX c #90C0C5",
"vX c #92C7CC",
"bX c #9BC4CA",
"nX c #96CACF",
"mX c #81CFD6",
"MX c #8ACCD2",
"NX c #80D0D7",
"BX c #83D6DD",
"VX c #81D8DF",
"CX c #A7C1C3",
"ZX c #A8C4C6",
"AX c #A3C5C8",
"SX c #A9C6C8",
"DX c #A3CBCD",
"FX c #A9CBCE",
"GX c #ADCCD0",
"HX c #A5D1D5",
"JX c #ABD1D6",
"KX c #A0D9DF",
"LX c #84D9E0",
"PX c #98DBE2",
"IX c #84ECF2",
"UX c #ACEBEF",
/* pixels */
"o ` *X*X*X*X*X*X-X*X*X*X*X*X*X;X*X*X*X*X*X*X*X*X*X*X*X*X*X*X*X*X*X*X*X*X*X*X*X*X*X*X*X*X*X*X*X*X*X*X=X*X*X*X*X*X-X*X*X*X*X*X*X*X*X*X=X*X*X*X=X*X*X*X*X*X*X*X*X*X*X*X3XpX",
"o < ` ` ` ` ` ` ` ` ` ` ` ` ` ` ` ` ` ` ` ` ` ` ` ` ` ` ` ` ` ` ` ` ` ` ` ` ` ` ` ` ` ` ` ` ` ` ` ` ` ` ` ` ` ` ` ` ` ` ` ` ` ` ` ` ` ` ` ` ` ` ` ` ` ` ` ` ` ` ` ` *X2X",
"o 4 V V V V V V V V D ! V V V V V V V V A V V V A K V A V A V V V A V V V V A V V V A V A V V V V A V V V V V V V V A V V V A V V V V V V V V V V A V V V A V V V A ` *X",
"O 2 V V V V V V V Y |.OXH.F V V V V V V V V V E nXKXyXK V V V V V V V V V V V V V V V V V V V V V V V V V V V V V V V V V V V V V V V V V V V V V V V V V V V V V V ` } ",
"+ 4 V 5 V 5 q D H.(.^.Q.Q.J.&.V V V V V q Z N.HXHXHXHXbXb.V V V V V V V V V V V V V V V V V V V V V V V V V V V V V V V V V V V V V V V V V V V V V V V V V V V V V ` *X",
"+ 2 V V 5 4 t.).~.P.N.m.B.D.Q.L.I V 4 4 g.kXAXAXCXCXZXFXFXyX[ V V V V V V V V V V V V V V V V V V V V V V V V V V V V C V V V V V V V V V V V V V V V V V V V V V V _ } ",
"O 2 V 5 S /.#X[.E.Z.c.x.x.x.a.L._.y.R ~.iXkXkXdXdXgXgXjXSXFXJXC.J V V V V V V V V V V V V V V V V V V A ` } ` D L { { L V V V J ` { { } *X{ J V V V V V V V V V V V _ *X",
"+ < 2 < s.&XMX9X1X,X-X*Xz.*.] v.H.F..X@XvXtXqXaXaXaXsXfXfXFXUXIX' V V V V V A V V V V V V V V V V V V j.VXuX..K _.LXE.L V V A LXLXLXLXLXLX,XL V V V V V V V A V V V _ *X",
"o % < - W 5.oXxXwX=X=X=X*X*XV.d.t 9 G.9 G.lXkX4XpXpXpX5XJXPX}.9.' V V V V V V V V V V V V V V V V V 5 V ].VXC.k.LXXXL A V 5 5 5 V 5 *.LXzX_ A V V V V V V V V V V V ` *X",
"o % % # ! 1.v $.$XhX3X;XeXrXi.% > , p., < e W.kXqX4XsXHX.XU ^ A.) V V V V V V V V V V V V 5 5 q 4 5 4 4 H BX$X$XLX[ J 5 6 5 5 5 5 D mXmXT J V V V V V V V V V V V V ` } ",
"X # # # U 1.^ F 5 !. . . XF * 4 2 , / : 2 < 1 $. . .vX%.V G $.A.) V V V V V V V V A V V V V 5 4 4 2 4 4 2 v.BXBXT.L A 5 4 4 4 4 6  XLX*.A A V V V V V V V V V V V V ` *X",
"X + + o P 1.$.G A -  . .: 5 q e 0 w p.; , , 3 1  . .C 4 Z P w.6.) V V V V V V V V V V V V q 5 4 4 < < < < I BXBXn.{ 6 5 2 < < - M.LXm.A V V V V V V A V V V V V V V ` } ",
"X + + o P 7.r.U F 6 O.o.| | S g g x G.i 8 7 0 | | X.4 e S n >.0.( V V V V V V A V V V V V V 5 4 < < - % - ].BXLXzX*X_ 4 < < - *.&X_.A C V V V V V V V V V V V V V V _ *X",
"X o O X P 0.s.~ P r 7XX.r G | Q N N K.z k u | 7 0 ..w d c N 6.{.I V V V V V V V V V V V V 5 4 4 1 % % % &.LXP.M.LX0X} 5 < < G LXkX_ L 5 V V V V V V V V V V V V V V ` *X",
"X o + o + j 6.:.~ j 6X6Xj Q w.| ;. . . .+.| k a i >Xf v ;.,.8.! V V V V V V V V V V V V V 5 5 4 < % % 0 mXmXq V $XmXz.T < < a.%X*.{ { { { { L V V V V V V V V A V V ` } ",
"X o o X .   $ ;.:.@.8X8X@.>.>.B |  . . .| m -.m b <XM =.,.>.q q V V V V V V V V V V V V V V 4 2 : % % U.LXy.< 4 &.LX'.A - 1 v.&X&XLX%XLXLXm.J V V V V V V V V V V V _ *X",
"X + o o X     X h <. . .<.:.9 X   X | X   X p 3.,.[.4.,.c 4 4 V V V V V V V V V V V V V V 5 4 4 - % % % % < 2 5 4 4 2 4 1 - < 2 4 5 5 V V V V V V V V V V V V V V V _ *X",
"X # # o X X X     $  . .s o o o o X |       X @  . .=.: - 4 5 V V V V V V V V V V V V V V 5 4 4 < % % % - < 2 4 4 4 < 1 < - < 4 4 5 V V V V V V V V V V V V V V V V _ ;X",
"X # % # o X X X o X o + | | o o O o | X X X X |  . .% < < 4 V V V V V V V V V V V V V V V 5 4 3 < 1 < - 1 < 2 4 4 2 4 < < < < 4 5 5 V V V V V V V A V V V V V V V V T *.",
"o % * # + o o o + O o # # # | # # # | o o o | o # % < < 4 5 5 V A V V V V V V V V V V V q V 5 4 2 2 < < < 4 4 4 4 4 4 < < 2 1 2 6 5 5 6 V V V V V V V V V V V V V V L ..",
"o % 2 % % # + + o # # % % % % | % & | & o | # # % < < 4 4 q V V V V V V V V V V V V V V V 5 5 5 4 4 2 4 4 4 4 5 5 4 4 4 4 4 4 4 5 V 5 V V V V V V V V V V V V V V V _ *X",
"o < 4 < - % % # # % % % % - % % |  . . .| # % % < < 4 4 5 V V V V V V V V V V V V V V V V V q 5 5 4 4 4 4 5 5 4 5 5 4 4 4 4 4 4 5 5 V V V V V V V V V V V V V V V V _ } ",
"o % < - % # # # # % # % % # # # #  . . .# # # % % - < < < < < < < 4 < < < < < < < < < 2 < < < 2 < < < < < < < < < < < < < < - < < < < < < < 4 < < < 4 < < 4 < < 1 4 * L ",
"o # # # # # # O o + o + o o o o o o o o o o # + # # # # % # # % # # # # % # # # % # # % # # % # # # # % # % # # # # # # # # # # # % # # # # # # # # # # # # # # # # # o "
};
