/* XPM */
static char *NinjaMesh_PivMaxY[] = {
/* columns rows colors chars-per-pixel */
"84 24 136 2",
"   c #1C0A0A",
".  c gray8",
"X  c #1E1E1E",
"o  c #3E0505",
"O  c #3E0D0D",
"+  c #251E1E",
"@  c #252525",
"#  c #2B2727",
"$  c #2C2C2C",
"%  c #332222",
"&  c #343434",
"*  c #3C3C3C",
"=  c #4A0505",
"-  c #4F1E1E",
";  c #660707",
":  c #7C0909",
">  c #751212",
",  c #522E2E",
"<  c #592E2E",
"1  c #453232",
"2  c #394242",
"3  c #3D4849",
"4  c #444444",
"5  c #4B4B4B",
"6  c #4F5454",
"7  c #465759",
"8  c #4F5758",
"9  c #465C5E",
"0  c #4B5B5C",
"q  c #535354",
"w  c #525D5E",
"e  c #5B5B5B",
"r  c #6B4646",
"t  c #4C6466",
"y  c #4D6769",
"u  c #5D6262",
"i  c #516769",
"p  c #537375",
"a  c #597375",
"s  c #547578",
"d  c #5A777A",
"f  c #5B7A7C",
"g  c #656565",
"h  c #646A6A",
"j  c #696969",
"k  c #617678",
"l  c #647B7D",
"z  c #737373",
"x  c #7C7C7C",
"c  c #830404",
"v  c #8F0101",
"b  c #940000",
"n  c #9C0202",
"m  c #A70000",
"M  c #AB0202",
"N  c #A40909",
"B  c #B60202",
"V  c #BA0000",
"C  c #B10C0C",
"Z  c #9E2E2E",
"A  c #C40000",
"S  c #8D7070",
"D  c #827F7F",
"F  c #A37878",
"G  c #567D80",
"H  c #5B7F81",
"J  c #617E81",
"K  c #5B8285",
"L  c #698487",
"P  c #638B8E",
"I  c #748485",
"U  c #728B8D",
"Y  c #798E8F",
"T  c #628F93",
"R  c #6C8F92",
"E  c #6B9295",
"W  c #629599",
"Q  c #6D979A",
"!  c #6B9A9E",
"~  c #759193",
"^  c #73979B",
"/  c #769B9E",
"(  c #7E9C9E",
")  c #659EA4",
"_  c #689EA2",
"`  c #779FA3",
"'  c #7A9EA1",
"]  c #6DA5AA",
"[  c #76A2A6",
"{  c #7EA6AA",
"}  c #6AABB0",
"|  c #74ADB2",
" . c #78AFB4",
".. c #79B1B5",
"X. c #7CB4B9",
"o. c #74B8BF",
"O. c #7EB9BE",
"+. c #77BEC5",
"@. c #79BDC3",
"#. c #76C1C8",
"$. c #7DC3CB",
"%. c #7ECED6",
"&. c #848484",
"*. c #838D8D",
"=. c #898A8B",
"-. c #949494",
";. c #9E9090",
":. c #9B9B9B",
">. c #80A6A9",
",. c #85AAAD",
"<. c #81AFB3",
"1. c #88B0B4",
"2. c #8BB4B8",
"3. c #A6A6A6",
"4. c #ABABAB",
"5. c #B4B4B4",
"6. c #BEBEBE",
"7. c #87BCC1",
"8. c #85C1C7",
"9. c #83C4CA",
"0. c #8CC3C8",
"q. c #83C8CE",
"w. c #83CED4",
"e. c #8DCCD2",
"r. c #85D0D7",
"t. c #8BD1D7",
"y. c #83D4DB",
"u. c #8BD3D9",
"i. c #80D8DF",
"p. c #92D6DD",
"a. c #85D9E0",
"s. c #8BDAE2",
"d. c #92DDE4",
"f. c #C3C3C3",
"g. c gray79",
"h. c #DADADA",
/* pixels */
"X j &.&.&.=.&.&.&.&.&.&.&.&.&.&.&.&.&.&.&.&.z j &.&.&.&.&.&.&.&.=.&.&.=.&.&.&.&.&.&.&.&.&.&.&.&.&.&.&.&.&.&.&.&.&.&.&.&.&.&.&.&.=.&.&.&.=.&.&.&.=.&.&.&.&.&.&.&.&.&.-.3.",
"X $ j j j j j j j j j j j j j j j j j j u g e z j j j j j j j j j j j j j j j j j j j j j j j j j j j j j j j j j j j j j j j j j j h j j j j j j j j j j j j j j j &.-.",
"@ & 4 4 4 4 4 4 4 4 4 5 5 4 4 4 4 4 4 4 * * j 4.4 4 4 4 4 4 4 5 4 4 4 4 4 5 4 4 4 5 4 4 4 4 4 5 5 4 4 4 5 4 4 4 4 5 4 4 4 4 4 5 4 4 4 4 4 4 4 4 4 4 4 4 4 5 4 4 4 4 j &.",
"X * 4 4 4 4 4 4 4 4 4 4 4 4 4 4 4 4 * * & & -.f.5 4 4 4 4 4 4 4 4 4 4 4 4 4 4 4 4 4 4 4 4 4 4 4 4 4 4 4 4 4 4 4 4 4 4 4 4 4 4 4 4 4 4 4 4 4 4 4 4 4 4 4 4 4 4 4 4 4 j D ",
"X & 4 4 4 4 4 4 4 4 4 4 4 4 4 4 4 4 * & $ & 4.g.e 4 4 4 4 4 4 4 4 4 4 4 4 4 4 4 4 4 4 4 4 4 4 4 4 4 4 4 4 4 4 4 4 4 4 4 4 4 4 4 4 4 4 4 4 4 4 4 4 4 4 4 4 4 4 4 4 4 j D ",
"@ & 4 4 4 4 5 4 4 4 4 4 4 4 4 4 4 4 * & @ 5 f.6.=.4 4 4 4 4 4 4 4 4 4 4 4 4 4 4 4 4 4 4 4 4 4 4 4 4 4 4 4 4 4 4 4 4 4 4 4 4 4 4 4 4 4 4 4 4 4 4 4 4 4 4 4 4 4 4 4 4 g I ",
"X & 4 4 4 4 4 4 4 4 4 4 4 4 4 4 4 4 * $ @ 6 5.6.&.4 4 4 4 4 4 4 4 4 4 4 4 4 4 4 4 e z &.z q q g x x g 4 4 4 4 4 4 4 4 4 4 4 4 4 4 4 4 e z z 5 5 e z z e 4 5 4 4 4 4 g D ",
"X & 4 4 4 4 4 4 4 4 4 4 4 4 4 4 4 4 * $ @ X e -.4 4 4 4 4 4 4 4 4 4 4 4 4 4 4 4 4 r.i.r.&.5 H i.i.1.z 4 4 4 4 4 4 4 4 4 4 4 4 4 4 4 5 q.u.=.j 5 Q i.>.e 4 4 4 4 4 4 j D ",
"@ & 4 4 4 4 4 4 4 5 4 4 4 4 4 4 4 4 1 $ @ @ 5 x 4 4 4 4 4 4 4 4 4 4 4 4 4 4 4 4 * r.a.a.*.4 ] y.%.,.z e u z x x j e j z g g z j 4 4 4 R s.7.x 0 r.$.j q 4 4 4 4 4 4 j D ",
"X * 4 4 4 4 4 4 4 4 4 4 4 4 4 4 4 4 2 & $ @ q &.5 4 4 4 4 4 4 4 4 4 4 4 * * * * * r.%.r.( 4 o.#.%.{ g f $.s.p.2.z R d.,.z e.p.z 5 * * * @.s.I  .i.L q 4 4 4 4 4 4 4 j D ",
"X & 4 4 4 4 4 4 4 4 4 4 4 4 4 4 4 4 4 & $ $ q &.4 4 4 4 4 4 4 4 4 4 4 1 * * * & & r...9.[ q 9.! i.[ 5 $.P 4  .p.Y * e.e.U d./ e 4 * * * 0 s.q.s...q 5 4 4 4 4 4 4 4 j D ",
"@ & 4 4 4 4 4 4 4 4 4 4 4 4 4 4 4 4 * & $ $ 6 *.4 4 4 4 4 4 4 4 4 4 4 2 * & & & & r...[ <.k 8.f q.` 5 * T ] i.i.~ * a s.u.9.e 5 * & & & & ! i.r.j q 4 4 4 4 4 4 4 4 j D ",
"X & 4 4 4 4 4 4 4 4 4 4 4 4 5 4 4 4 * * $ % r S 1 4 4 4 4 4 4 5 4 4 4 * & & $ $ $ u.X.d 0.[ X.i q.^ 6 #.#.K P u.~ * * $.s.>.z * & & & & & 7 a...j 5 4 4 4 4 4 4 4 4 g D ",
"X & 4 4 4 5 4 4 4 4 4 4 4 4 4 4 4 4 2 & % c B C n - 4 4 4 4 4 4 4 4 * & & $ $ $ @ u.o.9 e.e.! y u.Q s y.P & W y.I 4 K a.i.u.=.z & & $ $ & 7 a.X.z 4 4 4 4 4 4 4 4 4 j D ",
"X & 4 4 4 4 4 4 4 4 4 4 4 4 4 4 4 * * $ ; B A A V n 1 4 4 4 4 4 4 4 * * & $ $ @ @ t.O.@ t.p.p y i.K 9 i.] 2 #.i.J 3 %.+.f a.X.z 5 $ $ & & 7 a...j 4 4 4 4 4 4 4 4 4 j I ",
"X * 4 4 4 4 4 4 4 4 4 4 4 4 4 4 4 * & @ : M V V M N , 4 4 4 4 4 4 * 4 * & $ @ @ @ t.2.@ | p.2 y s.f $ ] i.i.] i.G } %.t 2 o.%.l 2 & $ $ $ 7 s.] q 4 4 4 4 5 4 4 4 4 g D ",
"@ & 4 4 4 4 4 4 4 4 4 4 4 4 4 5 4 & & 5 ;.Z M M n F &.5 4 4 4 4 4 4 4 * & $ @ @ @ @ @ @ @ @ $ # $ # # # $ $ $ $ $ $ & & * * 4 * & & & $ & * * 4 4 4 4 4 4 4 4 4 4 4 h D ",
"+ & 4 4 4 4 4 4 4 4 4 * * 4 j 6.z e -.x 5 > b b b < u -.=.e 5.:.5 4 * * * $ $ $ @ @ $ @ $ $ $ $ $ $ $ $ $ $ $ $ $ $ & * * 4 * * * & & & & * * 4 4 4 4 4 4 4 4 4 4 4 g D ",
"X & 5 4 4 4 4 4 4 4 * * * x f.g.h.x * X .   o = O # & $ 4 4.6.f.5.j * * * & $ $ @ $ $ $ $ $ $ $ $ $ $ $ $ $ $ $ $ & & * * 4 4 * * * & & * * 4 4 4 4 4 4 4 4 4 4 4 4 j D ",
"X & 4 4 4 4 4 4 4 4 * & -.g.4.3.3.& @ @ . X X + @ $ $ @ @ e :.3.g.f.j * * & & & & $ & $ & & & & & & $ & & & & & & & * * * * 4 4 * * * * * * 4 4 4 4 4 4 4 4 4 4 4 4 g &.",
"X & 4 5 4 4 4 4 2 * & j x g 5 4 & & & $ $ @ $ $ & & $ @ X @ & 4 e j &.e * * * * & * & * & * * & & & & & * & * & * * 2 * 4 4 * 4 4 * * * * 4 4 3 4 4 4 4 4 4 4 4 4 4 h D ",
"X & 4 4 4 4 4 4 * & $ @ X X @ $ & & * * & & & * * & $ $ X X X @ & & * 4 4 * * * * * * * * * * * * * * * * 2 * * * * * 4 4 4 4 4 4 2 * 4 * 4 * 4 4 4 4 4 4 4 4 4 4 4 g D ",
"X $ & & & & & & $ $ @ X X X @ $ & & & & & & & & & & $ @ @ @ X @ @ $ & & & & & & & & & & & & & & & & & & & & $ & & & & & & & & & & & & & & & & & & & * & & * & & & & $ e ",
"X @ @ $ @ @ @ @ @ @ X X X X X @ @ @ @ @ @ @ @ # $ @ @ @ X X X X X @ @ @ @ @ @ @ @ @ @ @ @ @ @ @ @ @ @ @ @ @ # @ @ @ @ # @ @ @ @ # @ # @ @ $ $ @ @ # @ @ @ @ @ @ # @ @ X "
};
