/* XPM */
static char *Ninja_City_Button[] = {
/* columns rows colors chars-per-pixel */
"260 24 256 2",
"   c #030000",
".  c #0B0101",
"X  c #0D0D0D",
"o  c #140404",
"O  c #1C0404",
"+  c #1F0807",
"@  c #141413",
"#  c #1B1B1B",
"$  c #171818",
"%  c #10100F",
"&  c #230606",
"*  c #2A0505",
"=  c #240808",
"-  c #2C0909",
";  c #280808",
":  c #330C0C",
">  c #3B0C0C",
",  c #360506",
"<  c #201F1F",
"1  c #3B1010",
"2  c #351010",
"3  c #1F201F",
"4  c #21201F",
"5  c #1E1F20",
"6  c #1F2221",
"7  c #232323",
"8  c #292625",
"9  c #272A2A",
"0  c #2B2C2B",
"q  c #272827",
"w  c #342E2C",
"e  c #2E3131",
"r  c #343434",
"t  c #383736",
"y  c #393837",
"u  c #363A3A",
"i  c #3B3B3B",
"p  c #363838",
"a  c #2E302F",
"s  c #430E0E",
"d  c #4C0C0C",
"f  c #431010",
"g  c #4C1212",
"h  c #4B1B1B",
"j  c #541514",
"k  c #5A1515",
"l  c #551A1B",
"z  c #5B1A1A",
"x  c #520E0E",
"c  c #631515",
"v  c #6B1515",
"b  c #641A1A",
"n  c #6B1C1B",
"m  c #651817",
"M  c #751B1B",
"N  c #68201E",
"B  c #492828",
"V  c #562B2A",
"C  c #413433",
"Z  c #453C3B",
"A  c #523333",
"S  c #543939",
"D  c #552F30",
"F  c #642323",
"G  c #6B2424",
"H  c #6B2A2A",
"J  c #742C2C",
"K  c #7D2B2B",
"L  c #772524",
"P  c #78312F",
"I  c #683837",
"U  c #743434",
"Y  c #7B3D3D",
"T  c #7B3636",
"R  c #3E403F",
"E  c #41403E",
"W  c #57403F",
"Q  c #3E3E41",
"!  c #7B3F40",
"~  c #3E4242",
"^  c #324246",
"/  c #434443",
"(  c #4A4645",
")  c #4A4947",
"_  c #454A4A",
"`  c #4C4C4B",
"'  c #464748",
"]  c #544444",
"[  c #594545",
"{  c #514F4E",
"}  c #5B4B4A",
"|  c #4C514E",
" . c #52514F",
".. c #4B4E51",
"X. c #4E5353",
"o. c #4E5A59",
"O. c #545453",
"+. c #5A5554",
"@. c #595956",
"#. c #565A5A",
"$. c #5C5C5B",
"%. c #565856",
"&. c #694947",
"*. c #734442",
"=. c #7D4444",
"-. c #744947",
";. c #764A4A",
":. c #7B4B4B",
">. c #784747",
",. c #68514E",
"<. c #76524E",
"1. c #625C5C",
"2. c #685756",
"3. c #7D5351",
"4. c #765B59",
"5. c #7A4D51",
"6. c #5E605E",
"7. c #62615E",
"8. c #6A625F",
"9. c #78605E",
"0. c #5E5F60",
"q. c #605F60",
"w. c #5D6363",
"e. c #59686A",
"r. c #636362",
"t. c #696664",
"y. c #6A6966",
"u. c #666768",
"i. c #656A6A",
"p. c #6C6C6B",
"a. c #646865",
"s. c #7C6463",
"d. c #726E6D",
"f. c #796C6B",
"g. c #756766",
"h. c #6D706F",
"j. c #72716E",
"k. c #7C736F",
"l. c #6E6F71",
"z. c #6E7273",
"x. c #6F7778",
"c. c #747473",
"v. c #797674",
"b. c #767876",
"n. c #7A7977",
"m. c #757778",
"M. c #757A7B",
"N. c #7C7C7B",
"B. c #832E2D",
"V. c #852726",
"C. c #823434",
"Z. c #883B3A",
"A. c #973B3B",
"S. c #94403D",
"D. c #8F413E",
"F. c #8F3E40",
"G. c #824443",
"H. c #844C4C",
"J. c #8A4C4C",
"K. c #854747",
"L. c #914444",
"P. c #974E4C",
"I. c #85514F",
"U. c #8B4E51",
"Y. c #845453",
"T. c #8A5453",
"R. c #825C5A",
"E. c #8A5B5B",
"W. c #895659",
"Q. c #925C5C",
"!. c #9C5C5C",
"~. c #965456",
"^. c #994F51",
"/. c #88625E",
"(. c #96615D",
"). c #A2635E",
"_. c #865F62",
"`. c #945E62",
"'. c #856563",
"]. c #8C6564",
"[. c #856E6B",
"{. c #8A6C6B",
"}. c #886967",
"|. c #956565",
" X c #946B6A",
".X c #9A6868",
"XX c #89716E",
"oX c #91726E",
"OX c #847373",
"+X c #8C7474",
"@X c #817E7C",
"#X c #8B7C7C",
"$X c #857977",
"%X c #937574",
"&X c #947C7B",
"*X c #987876",
"=X c #926F72",
"-X c #A36C6A",
";X c #A67A79",
":X c #7F807E",
">X c #82817F",
",X c #8C817D",
"<X c #96817E",
"1X c #A4807E",
"2X c #7E7F80",
"3X c #807F80",
"4X c #A27E80",
"5X c #7E8182",
"6X c #848483",
"7X c #898685",
"8X c #868887",
"9X c #8A8987",
"0X c #868788",
"qX c #888789",
"wX c #86898A",
"eX c #8C8C8B",
"rX c #928483",
"tX c #9A8484",
"yX c #918E8D",
"uX c #9B8A8A",
"iX c #968988",
"pX c #8F918F",
"aX c #92918F",
"sX c #9B908E",
"dX c #8E8F90",
"fX c #948F90",
"gX c #8E9091",
"hX c #949493",
"jX c #9A9695",
"kX c #999996",
"lX c #969798",
"zX c #97999A",
"xX c #9B9C9B",
"cX c #979896",
"vX c #A18B89",
"bX c #A58685",
"nX c #A29393",
"mX c #A29798",
"MX c #A29D9C",
"NX c #AB9C9C",
"BX c #A29996",
"VX c #A2918F",
"CX c #9FA09F",
"ZX c #A2A09E",
"AX c #9F9FA0",
"SX c #9FA0A1",
"DX c #A3A3A3",
"FX c #A9A5A4",
"GX c #A6A7A9",
"HX c #A7A9A9",
"JX c #ABABAB",
"KX c #A8A8A7",
"LX c #B1AEAE",
"PX c #AFAFB0",
"IX c #AFB0B0",
"UX c #B1B1B1",
/* pixels */
"$ 4 0 w p y E / / | O.@.@.@.{ O.@.$.@.$.$.$.%.' ` %.@.@.@.+.| @.O.O...' ' / / ..O.@.O.) ) `  .` ) ` ` O.$.$. .@.$.$.#.' O.@.$.O.@.O._ / / ) @.O.` O. .) | @.@.@.1.@.' @.@.O.O.' / | O.`  .O.' ) O.| O.@.%.%.O.O.%.O.%.%.O.O.O.#.@.%.$.0.O.@.O.@.O.@.#.$.%.@.$.@.O.%.@.@.#.$.q.0.0.0.0.0.0.$.$.q.0.$.0.0.0.w.0.q.r.0.w.r.q.q.r.r.r.r.r.0.r.r.q.r.q.q.r.q.w.q.r.0.r.0.0.q.r.r.q.r.r.r.w.r.r.r.r.0.r.w.r.q.r.r.r.q.r.r.q...O.` ) ` | | ) _ | ` _ | ` ) ) | | ` ` ` ` ` ` ) ` _ ' ) _ O.| ) /  . .) ) ` ` | |  .` ` ) ) / / R y r 0 4 4 @ X ",
"$ 0 / { O.@.$.6.t.t.y.v.N.v.y.c.N.N.N.2XN.N.m.r.p.N.N.m.N.b.j.n.m.m.M.l.u.u.y.c.c.c.p.y.c.c.p.j.c.u.u.y.b.n.d.@XN.6XN.r.c.N.N.v.M.M.p.a.a.c.n.d.j.c.j.j.y.k.N.b.6X:Xu.n.@Xv.c.u.a.v.c.j.c.j.j.y.u.b.c.c.n.n.c.c.m.m.m.m.m.N.M.M.n.M.2X2Xm.N.c.N.n.m.N.@XM.n.N.2Xm.N.N.m.m.3X6X6X2X6X5X5X2X6X3X6X3X6X3X6X6X6X6X6X6X6X6X7X6X6X6X6X6X7X6X6X3X3X6X6X6X6X6X6X6X7X6X5X6X6X6X6X6X6X6X6X6X7X6X6X6X6X6X6X6X6X6X6X6X6X6X6X6X6X6X6X6X2Xp.p.h.h.j.y.p.j.y.h.j.y.y.y.j.d.j.y.p.c.j.d.p.y.y.y.y.k.j.a.a.v.p.y.p.y.y.y.p.d.j.p.d.y.y.7.@. .) R r 0 # % ",
"# 0 / 1.j.v.j.c.c.,XeXyXaX7X>XeXhXhXhXhXhXhXeXm.6XaXfXyX*XY.Y.yXhXdX0X3.G.! H.7XeX7X6X>X9XhXyX6X6X7X9XyXrXE.I.oXyXcXdXc.yXhXfX7XhXhX5Xx.M.eX+XK.Y.eXdX6X,XoX/.T.rXhXn.hXcXeXhXM.n.aX9X6XhXeX7X6Xv.H.].T.}.yXhXgXdXdXfXeX6X3XqXfXgXgXcXcXE.W.T.&XE.Y.].U.E.gXeXlXhXfXcXeXfXlXlXlXxXzXxXzXzXlXzXzXzXlXzXzXxXxXxXxXzXxXxXkXxXxXzXxXkXjX XT.: Z.xXxXxXxXxXxXxXxXzXzXzXxXxXxXjXtXuXiXkXxXxXxXxXxXxXxXAXxXAXxXkXMXxX&XuXuXiXuX*X&X7X6X>X>X,X>X>X9X>X,X6X6X:X'.J.I.T.[.$XT.J.J.{.@XM.:X:X>X,X:X:XeX9X>X:X>X:X6X9XeXeX,X:X:X:Xn.p.t.@.| i r 4 % ",
"w ( O.7.d.>XeXhXxXxXCXZXxXaX9XjXZXDXDXDXDXDXgX5XkXDXxXmXM . . (.DXSXtX,     * vXDXjXyXaXhXhXZXZXhX9XkXZXS..   . A.FXAX5XZXDXMXjXSXDXlX:X0XBXM   . A.MXAX.X*     d nXeXDXDXxXDXwXaXZXxXcXaXZXxXhX.X*     > vXgX8X6XlXSXhXqXeXlXDXAXxXDXMXx     O O o     v MXSXFXGXAXDXAXxXDXKXHXKXKXHXKXKXJXHXHXKXHXJXKXKXJXJXKXKXJXJXJXJXJXKXHX-X.   .   . FXJXJXJXJXJXJXJXJXJXHXKXGXHX~..   . !.JXJXJXJXJXHXJXJXJXJXJXJXLXZ.    .   .   f bXhXeX9XCXcXeXhXpXaXaXaX7XV..   O D.(.,     V.hX9XpX9XpXCXeXeXCXcXjXaXeXpXaXcXcXcXjXaXaXeXeX:Xp.y.@.' y q % ",
"0  .j.n.:Xn.>XhXZXFXFXZXkXaXyXaXhXFXKXKXGXGXhX0XMXFXCXsX1Xc   . j 4XnXU.o . ;XZXFXzXhXkXxXeXfXDXFXxX6X,X*XL   n bXKXSX8XFXKXFXxXZXHXCX:X>XZX1Xs     d .XnX~.. O (.kXcXKXFXZXDXfXhXKXFXCX7X7XCXaX$XP.. o 1XZXxXkXzXSXGXxXAXAXDXGXDXAXDXCX.X: = 1X|.P.  j NXGXDXKXDXJXKXDXFXDXJXPXPXPXPXPXPXPXPXIXPXPXUXUXIXUXUXUXUXUXUXUXPXPXLXbX  ; ;XNX-X- bXUXUXUXUXUXUXUXPXPXPXPXGXGXNXL.  P.LXUXUXIXPXPXPXPXPXUXPXPXJXNX= F bX2 o ;XF.  ^.MXaXaXCXkXhXhXaXpXaX9X:XR.V.  ; (..Xv   v bXxXeXcXaXkXCXaXkXZXCXCXaXaXaXxXxXkXkXjXjXaXaXaX9Xc.u.7.) y 9 @ ",
"# R 8.>XaXaXpX,X9XkXZXjXhXhXyXaXhXhXcXDXGXDXdXwXZXxXrX>X,XM   V.;   l A.= O NXFXFXMXhXkXzX6X0XwXhXZXaXp.n.S.  B.hXhXzXhXFXKXDXkXHXDXpXb.b.,X<XN   M O . z ).+ > vXhXzXFXFXDXKXAXcXKXZXZX8X:X>Xv.o.|.O - vXZXkXxXSXSXDXzXxXSXDXDXSXgXxX5XE.: : -X^.A.. m FXGXFXHXxXHXJXDXDXHXJXJXJXJXJXJXJXPXJXJXJXJXJXJXUXJXIXUXIXUXUXJXJXJXNX- . bXZXHXLXLXUXPXUXUXUXUXPXPXPXJXJXGXAXlXxX.X  ;XPXPXPXPXPXPXPXPXPXPXPXHXSXnX!.tXNXz O FXJXbX;XMXaXyXaXCXhXaXhXeX7X>Xa.X.s.B.  g c   B.vXkXkXeXhXaXcXCXjXaXjXjXhXaXhXhXcXaXcXxXkXhXaXeXaXeXc.u.$.' r q @ ",
"$ 0 ) j.,XcXcXcXpX9XjXMXjXaXdXeX9XpXhXaXlXxXeX9XxXZX,Xy.4.M   oXtXK O .   & BXZXDXMXhXAXcX0X0X5X6X@XN.c.$XD.  Z.aXeXaXcXZXZXMXkXKXHXCXx.j.k./.m . L.>.n O .   > vXkXaXkXZXAXHXAXhXFXZXCXwX5X7Xy.O. X+ - *XpXxXhXxXSXSXlXxXxXAXAXCXgXpXx.L.=     . .   j mXAXFXDXCXCXHXDXSXHXKXJXJXJXJXKXKXJXJXKXJXJXJXJXJXJXJXJXJXJXJXJXKXAX.X  K iX0XeXzXAXJXJXJXLXJXJXJXJXJXJXGXGXAX5XwX~.  .XPXJXHXPXJXHXPXHXJXJXJXDXxXgXgX5XvXk o NXJXJXzXjXcXaX9XCXaXaXaX7X>X:X8.E _ <.L     K <XhXhXkXeXaXaXaXCXcXaXhXcXaXaXaXcXhXaXcXxXjXhXyX9XaXeXv.y.$.) r 8 @ ",
"$ 0 E  .h.>XaXcXkXcXkXxXxXkXjXhXeX9X7XeXyXeXhXhXxXkX,X8.&.v   (.M.d.E.L   ; BXZXMXxXyXxXAXhXwX0X6Xc.y.y.8.K   B.jXhXeXyXaXMXxXkXDXDXZXb.b.j.4.k   F.^ C T L   s nXkXjXZXkXcXFXzXhXFXxXSXwX>XaXf.| |.+ - vXeXpXxXcXxXAXlXzXxXxXAXxXpX8Xa.C.. s ~.G.~.s = tXkXSXDXxXxXDXDXAXFXHXHXKXHXKXGXHXKXKXHXKXJXKXJXKXJXKXKXFXFXDXlX5X[.c   T.dXgXlXAXAXFXJXJXJXJXKXKXJXHXGXGXGXAXwXwX~.  .XJXHXHXHXHXHXGXGXGXGXGXDXSXAXhXwXvXj O NXJXJXxXyXaXaXaXCXaXaXeXeX7X>Xj.| i u Y - + (.6XaXhXkXeXeXpX,XkXcXaXaXpXpXaXaXaXeXeXaXaXcXaXeXeXeXeXv.a.$.) r 7 @ ",
"$ 0 Q X.6.p.n.7XaXcXkXkXjXeXyXyXhXaXeX9X7XeXeXeXhXcX,Xd.2.v   Q.m.0.e.{.+ O BXxXxXkXaXMXzXzXdX0X6Xb.N.y.1.B.  Z.sXaXhXyXhXMXhXaXDXDXxXc.N.b./.k . G.R 9 _ |.O - sXZXhXkXhX7XzXhXhXZXkXMX8X5XcXv.o.D.+ - tXcX9X9XzXkXaXhXzXzXxXxXzXfX0Xy.T   M OXa.7XL o %XAXjXDXSXzXDXZXSXDXFXGXDXDXGXDXFXGXDXGXSXSXAXAXlXAXlXlXxXzXhXdXx.{.: O uXAXAXAXAXDXDXHXKXGXGXGXGXDXDXDXGXAXzX5XdX~.  |.GXGXDXGXGXDXGXGXGXDXDXGXSXSXAXgXmXj o NXHXHXxXeXeXaXaXcXaXeXpXeX9X9X>X6.E R Y ; O |.8XaXaXkXeXeXpXeXhXpXpXeXeXeXeXaXpXeX9XeXpXhXaX9X8XeX8Xb.7.@./ r 7 @ ",
"$ 0 Q O.$.u.p.N.7XaXhXyX7X6X6X7X9XaXaXeX9X6X7X9X9X>X7Xv.4.n   |.6Xl.i._.O & mXkXkXjXaXxXxXlXwX6X:XN.>Xk.1.K   K.kXhX9XhXMXxXeX9XzXxXkXc.6XN.[.k . W._ y 6./.O - +XhXxXjXcXeX7XeXhXMXkXxXpX6XhX@Xo.Y O - <XhXhX7XyXaXaXhXkXkXzXxXlXeX0X7XC.  L @Xw.7XC.  (.xXhXzXxXlXAXcXMXDXDXDXDXDXDXDXDXDXDXDXSXAXlXlXAXlXAXAXAXxXlXdX2X{.o > jXAXAXlXzXzXlXGXGXDXDXSXSXDXDXDXAXAXzXdXwX~.  `.DXDXDXAXDXDXSXDXSXGXSXSXSXSXzXlXxXj o MXGXGXMX7X8XpXeXaXeX9XpXpX9XpX9Xh.%.R =.; O oX7XeXaXhX9X,X8XeXaX9XeX9X9XeXeXeX9X7X8X9XeXaXaX9X,XeX9X:X7.%._ w 3 @ ",
"$ 0 Q O.w.u.l.6XeXyX7X9X7X6X9XhXeX7X9XaXyX9X7X6X9XaX7Xj.2.n   %XwX2Xx.R.O = jXjXjXaXaXxXxXlXwX2XN.6X8Xv.1.B.  K jXkXjX9XaXaX9X6X6XhXcXz.7X@X}.k   W.w._ 8. XO - XX:X9XkXkXyXeX7XeXkXkXxXcX:XaX$Xo.>.o - <XcXaXeX7X6XpXhXhXcXhXgXwXN.c.7XZ.  C.eXO.@XQ.  J.xXcXzXjXzXxXcXlXxXSXDXSXDXSXSXDXAXDXAXGXSXAXAXlXAXAXlXzXlXeXM.i.U.  k sXzXzXzXAXxXfXAXDXAXAXAXAXAXAXAXSXAXzX5XwXU.  `.SXAXAXAXAXSXDXAXSXSXSXSXSXSXzXgXjXg o mXDXDXxX7X7X8XeXeX9XeX9XpXeXpXpXb.@._ :.; + %X8XeXeXhXeX>X9XpXeX9X8X8X8XeXeX9X8X7X6X>X7XeXaX,X,X8X7Xn.a.%./ r 3 @ ",
"# 0 Q  .$.u.m.9XeX9X6X6X6X6X9XhXhXaX9X6X9XeXeXaXaXaX>Xt.2.v   %XgX2X2X3.O = uXhXjXeXaXkXzXzXwX2XM.7X9Xk.1.K   L @X9XhXcXyXyXaX9X6X@X6XN.@Xn.[.k . %Xb.O.j.}.o - +X:X>XaX9X9XeX9X7XaXhXxXhX>XaXv.w.=.o - <XhXhXeXeXaXN.aXjX9XeXhXdX6Xm.f.B.  H.hXu.M.|.  B.jXhXzX9XcXzXhXcXxXxXAXCXxXAXAXAXxXAXAXSXxXhXhXgXdXhXhXlXdX0X2Xl.U.  G lXzXzXAXzXAXlXxXDXxXAXAXAXAXAXAXAXAXzX5X0XU.  `.AXAXAXAXAXxXAXAXSXSXSXSXSXxXhXdXuXj o MXSXSXxX7X7XeXeX8X7X8X,XpX9X9X,X:X6.| I.; O %X6X8XeXaXeX>X,X>X8X9X,X8X8X8XeX9X6X6X6X>X:X8XeX9X:X>X>X>X7.O./ a 3 @ ",
"$ 0 Q X.$.a.c.N.yXyX6X6X6X6X6X7XeXhXaXaX8X:X,XaXaXaXv.%.,.c   I.wXqXM.5.O ; uXhXaX7XhXhX9XhX6XM.M.7X6Xk.2.C.  L N.N.N.yXhXhXaXyX9X6X@Xb.j.v.'.j . &XN.#.j./.O - $XN.qXfX7X8XhX8XaXjX7XhXaX>XyXk.e.Y o - rX5XeXhXyXeXeXN.pX7XdXhXdX5X0Xv.m   /.aXu.x.E.. G jXhXlXeXcXlXhXhXlXxXxXxXxXxXxXxXxXxXxXlXeXhXhXlXhXhXhXlXhXeX2XM._.. F jXhXhXhXhXhXhXhXxXxXxXxXxXxXxXxXzXzXdX5X5XW.  _.AXAXxXxXxXxXxXxXCXxXxXxXAXlXdXwXuXg o jXAXxXxX6X8X7X8X8X>X8X:X8X9X9X9Xb.6.| :.; O %X5X8XeX9XeX:X:X8X7X8X8X7X8X7X>X>X8X>XN.N.:X6XeX7X>X:X>X:X8.X./ w 3 @ ",
"$ 0 Q X.$.t.7X7X7XeX6X6X@X6X9XN.N.6XaXaXeXeX8X>X>X,Xk. .2.c   =.c.i.i.;.o ; yXfXaX6XaXhXhXeX6X2Xm.7X>Xc.1.T   J 3XM.n.N.eX9X@X>X6X9X6Xj.7.y.s.j   &Xm.$.k./.o : OX2XeXyX7X8X7XhX7X9X6X7X9X6XeXk.i.>.O - rXN.n.eXaXfXdX0X8XeXdXgXeXN.6X[.> . %XeXu.c./.o k jXeXcXeXdXeXcXfXlXlXxXxXzXhXdXdXeX9X0XwXgXhXlXhXgXhXlXgXdX6Xl.i.H.  b dXdXhXhXhXhXgXfXlXxXzXlXlXzXzXzXzXlXdX2X2XW.  W.zXzXxXlXzXzXzXzXzXzXzXxXzXhXdX5XiXg o jXxXxXzX5X:X7X8X7X,X>X:X8X9X>X>Xj.7.| >.; O %X>X:X9X9X8X:X5X:X:X8X:X>X7X>X>X>X>X>X:XN.N.6XeX7Xn.n.:X:Xa. ./ 0 5 @ ",
"# q i ..@.u.6X7X7X7X6X@XN.7X8Xm.c.b.:X>XeXeXeXeX>Xn.n.8.8.v   ! d.#.` ;.O & iXdXeX7XaXhXgXhXdXN.b.7X>Xk.1.T   T 3Xm.n.6X9X6X>X8XeX>X>Xn.n.k.4.j   %Xz.$.d./.o 2 OXm.fXfX6X6Xc.6XeXeXeX6X6X6X9Xk.b.3.o - rXM.:X9XhXaXeX6XwXeXdXeX0Xm.5X{.= O #XeXb.h.'.: * yXhXhXeXdXeXdXhXhXlXlXkXcXhXeXdXgXdXeXgXeXdXeXeXdXdXqXdXwX2Xz.i.W.. j fXgXlXgXhXlXhX9XhXlXlXlXlXlXlXlXlXlX5X2X2XW.  W.lXlXlXlXlXlXlXlXzXcXlXlXlXhXqX6X9Xf o hXzXlXlX6Xn.>X7X>X5X8X>X8X8X:X>Xj.$.| *.O O +X>X:X9X8X9X>X>X:X:X>X>X>X7X8X7X8X8X>X:Xb.n.:X7X>Xn.n.>Xn.y.| E a 4 @ ",
"$ q i ` O.p.6X7X7X7X6XN.N.6X6Xc.c.c.h.v.n.>X9XeXeX7Xn.y.g.n   =.d.O.' ;.+ O 9XyX9X>XeXaXdXdXeXm.b.7X$Xd.@.T   T 3Xm.b.7XeX>XN.>X8XpX6Xc.v.t.,.g . {.i.r.d./.o - OXm.eXyX9X6Xc.c.>X9X>X6X6Xv.n.j.b.:.o - 7XM.6X7XyXaXeX6XwX8XeXeX0Xc.5X'.o - OX8X:Xu.s.l . yXgXeXeXeXhX8X9XhXhXcXcXcXhXdXeXeXeX0X6X6XwXgXdXdXeXdXdXdX5XM.l.{.o : yXdXdXdXdXdXdXeXdXlXhXhXhXhXhXhXgXgXdX2X2X!   _.hXhXhXlXcXhXhXcXhXhXlXlXhXgX0X3X3Xf o yXlXlXhX7Xb.:X8X:X:X:X:X>X>X:X:Xy.@.` *.& O XX>X:X7X>X8X>X>X:X:X:X:X>X8X8X6X:X:X>X:Xn.n.b.8X>Xn.v.n.n.y. .R 0 4 % ",
"# 8 p ..X.d.3X3X,X6X6XN.@X9XN.c.m.c.c.z.l.c.m.@X7X6Xd.` } c   3.v.$._ *.O O +XeX7XN.eXeXeXdXwXc.b.7X>Xg.+.T   Y N.c.N.eX9X@XN.7Xc.6XqXN.7.%.4.g   Y.c.7.k./.o 2 3Xn.eXeX7X6Xm.c.6X6XN.9X6X7X>X6.i.:.o - ,XM.6X7XyXyX9X5X0X0X9X8X5Xc.M./.  g $X:XM.p.f.G   &XeXdXwX9XeX7X9XdXhXhXhXhXwX0X0X0X0X3X6XwXeXdXeXdXeXdXeXwX2Xl.i.s.: o #XwXwXqXdXeX9XeXeXdXhXgXfXhXgXhXdXdX3Xx.2XH.  Y.hXfXhXgXhXhXhXhXgXhXhXhXgXdX6XM.4X> . uXhXhXgXqXN.2X@XN.N.v.N.6X6XN.n.j.$./ *.O O XX6Xb.6X>X7XN.N.:X>XN.N.6X>X>X:XN.>X>X:Xn.b.n.6X>Xn.j.v.v.d.| R 0 4 % ",
"$ 0 Q ..O.c.@X@X>X6X7Xn.@X8Xn.c.c.z.c.c.l.c.c.3X3Xn.7.` ,.m   =.j.r.| -.O O ,X9X6XN.9XeXqXeX0Xl.N.>Xn.y.+.T   =.n.z.N.9X9X3XN.N.j.c.c.N.k.t.s.g   =.h.6.y.9.. 1 7Xb.eX7X6X0Xz.c.7X6XN.8X9X>Xb.@.X.:.o ; ,X:X6X6XeXeX7X2X6X0X8X0X2Xl.n.Y.  z >X7Xc.p.c.P   '.7XeXeX8XeX0X0X0XdXdXgXgXeX8X9XqX0XqX0X6XwXwX0X0X8X0X0X6Xm.l.w.f.z   _.eXdXeXeXdXeXqXeXdXfXdXdXdXdXdXdXdX0X2Xm.:.  Y.gXgXgXdXdXgXdXdXgXgXgXgXgXeX5XM.3X1 o qXgXgXgX0XN.N.N.n.N.v.n.N.>X6XN.u.$._ *.& O [.>Xb.:X:X6XN.n.n.n.N.:X>XN.>X:XN.n.:XN.v.c.c.N.>Xn.c.j.c.y. .E 9 4 % ",
"# 0 Q ' O.v.$XN.>X6X6Xc.6X6Xj.c.m.c.c.c.p.c.N.3X@Xp.q.` 2.b   Y.j.O.| <.+ O ,X6Xv.c.@X7XeXwX2Xl.:X>Xv.8.+.Y   U m.l.@X9X6X6X6XN.c.l.p.y.p.6.&.g   I.p. .@.3.o 1 #Xv.9X7X6X8Xc.c.9X>XN.c.N.8X[.9._ ;.O ; 9X6X6X>X9X9X6X2X6X6X6X6XN.p.N.>.  J 6X9Xr.$.c.T   :.7XeXeX8X9X0X7X0XeXdXdXdXdX0X0X6X3X6X5XN.6XwX7X0X0X6X8X0X2Xm.i.c.=.  U qXwXwXwX9X3X7X8XeXdXeXdXdXeXdXdXwX3X2Xc.=.  3.gXdXdXdXdXdXdXdXgXgXpXdXdXwX5XM.$Xs o iXgXdXdXqXN.$XN.N.n.c.n.N.@XN.v.y.$._ -.O O [.:Xc.n.6X@Xv.b.n.b.n.:Xb.b.N.:XN.b.:XN.c.c.c.n.6Xb.d.j.j.t. .i w 4 X ",
"# 0 t ' @.v.n.n.@X@X@Xc.N.6Xb.c.l.c.l.l.p.c.n.3X@Xv.$.( +.c   4.N.t._ *.O + #Xb.b.c.v.m.2X6XN.p.:X>Xv.8.O.=.  Y @Xl.N.qX6XN.6X6XM.z.p.u.y.| ,.g   3.c.y.8.;.o 1 $Xc.7X6XN.6Xl.c.9X>XN.j.y.f.m j 2.<.o ; 7X:X>X>X7X7X6X5X5X6X5X5Xm.u.N.T   Y 6X7Xr.a.a.Y.. U 6X7X2XeX0X6X6X8XeXeXeXwX5XN.2XN.3XN.2XN.0X0X0XqXqXqX0X0X2Xc.q.w.s.= . _.7X6X3XH * +X0X0XeXeXwXeXwXeXwX0X2Xx.m.H.  _.eXdXqXdXeXeXwXdXeXeXeXeXdXwX5Xx.3Xf o 3XdXdXdXqXn.n.m.m.N.c.c.N.N.c.c.y.%.R -.& O OXN.c.c.>Xb.v.v.v.v.N.N.v.c.b.n.b.v.N.N.c.c.z.c.N.b.d.y.p.t.O.i r # % ",
"# 9 r ~ @.d.c.v.v.v.c.d.N.m.c.v.l.u.p.u.u.p.N.v.v.y.O.( U :   z 4.t.,.F     U k.c.d.p.p.j.j.l.d.d.n.j.@.I z   h s.u.n.N.n.v.b.N.x.u.u.t.t.[ H +   F <.6.,.N   . U f.3XN.m.@Xc.l.@Xn.v.r.6.-..   N b   x v.c.n.b.@X@XN.n.n.m.n.b.p.7.3.2   l s.:Xw.7.I G   = 3.2Xn.2X5XN.N.6XN.n.M.m.c.c.l.m.N.M.M.n.N.2XM.M.M.M.2Xm.c.l.0.X.q.:.  . I 5.l   f OXN.5X5X6X2X6X5X6X3X2Xm.l.4.z   l OX6X3X0X6X6X6X6X6X6X6X6X5X2Xm.d.5.o   :.6X6X6X2Xd.c.p.d.c.p.p.c.c.p.p.7.) D N . . L f.p.p.v.c.p.p.p.j.c.j.p.p.d.c.j.j.j.c.j.p.p.p.v.v.8.7.a.7. .E 0 # % ",
"$ 7 0 p O.r.r.t.t.y.r.1.p.y.u.y.r.0.0.$.@.u.d.p.y.1./ S d . . . l / D & o . O 4.p.y.r.r.$.1.q.r.7.y.7.] k o . . j 1.p.d.d.r.p.d.u.$.#.7.@.A > . . . I | V & . . & 2.d.p.p.c.y.r.j.p.i.X.~ &.j :     + &.r.7.p.p.j.j.u.$.$.0.p.u.#.&.d . . . I l.X.O.V o . . s g.p.p.c.l.p.c.u.0.r.r.r.u.u.u.p.p.u.a.i.p.l.d.l.p.d.l.u.u.0...O.q.! o       g g.d.l.c.c.c.z.c.c.c.m.l.u.q.F . . . F m.c.c.c.c.c.c.m.c.m.c.c.l.u.4.> . . O g.c.m.c.7.t.7.7.t.u.6.t.r.$.@.O.u V ; . . O &.r.r.r.7.w.7.r.r.r.7.7.6.6.r.a.7.t.y.r.$.$.6.a.7.$.+.@. .( r 7 $ X ",
"@ # 7 0 / { { +.+.+.` O.@.O.O.O.O.` ) _ ) O.@.@.+.{ r 0 B A A B C q 4 B S [ } +. . .O.O.O.{ ` ` | ) ) w C [ } +.{ ' #.@.@.O.@.$.O.) )  .) w B D D A E E C D A W ] { O.@.@.$.O. .$.+.@./ 0 i y B h h } +.+.{  .@.$.$.O...O.O.%.X.' u [ S [ +.+.@./ R w [ S [ +.@.@.@.@.$.$.$.O.O.O.O.O.O.+.0.O.#.O.O.$.$.$.$.#.$.0.#.+.....' Q Q / S V h W { @.@.#.$.0.$.0.$.0.$.0.#.../ ] [ +.+.$.0.0.0.0.0.q.q.0.0.0.0.0.0.X.) ] } 2.@.0.0.0.0. . .{ ` { O.` O. .{ ` i 9 8 B D A [ O. . .O. . . .| |  .| ` ` ( | O. . .O.O.) ) ) |  .` E ( E t q # @ X ",
"X % $ 3 w t t t i i r u Z r r t u p r r r i Q i i t 0 7 9 e r r q 4 # # 9 p i r r t t r t i t r p y r 4 4 r R R i r Z i Z y i Q p r r y w 8 q 9 9 0 q 7 4 3 0 r y t Z y i Q y i Q i i 0 4 8 8 3 3 9 t y y i y i Q Z i i i u i p 0 0 p 0 r / i i a 0 7 r e i Q / Q i Q i Q / u p p p u i i Q Q i i u Q Q i Q Z u t Q Q Q p r 9 q 7 q e t u Q Q Q i / / ~ / Q / / Q Q i p e t Q / / / / / / / / / / / / / / Q u r r u Q / / Q ~ / y p t r r y r u y r r 0 < # # 0 a p y y y u y r r p y r r r r r r y y r r y r r r p y r a 0 0 4 # @ X X "
};
