/* XPM */
static char *Ninja_buttonC[] = {
/* columns rows colors chars-per-pixel */
"32 32 256 2",
"   c #010101",
".  c #090202",
"X  c #0B0A06",
"o  c #060509",
"O  c #09070C",
"+  c #05090B",
"@  c #0B0B0B",
"#  c #060905",
"$  c #130404",
"%  c #190705",
"&  c #130B06",
"*  c #18070A",
"=  c #130D0D",
"-  c #1C0C0A",
";  c #0C120F",
":  c #11110F",
">  c #1F100A",
",  c #0E0E11",
"<  c #190D12",
"1  c #0F1010",
"2  c #131313",
"3  c #1A1210",
"4  c #171815",
"5  c #181A17",
"6  c #141618",
"7  c #16191A",
"8  c #1A1A1A",
"9  c #1B171B",
"0  c #210D0D",
"q  c #26150E",
"w  c #29180F",
"e  c #241412",
"r  c #2D1A13",
"t  c #27181A",
"y  c #2B1D1A",
"u  c #2C1418",
"i  c #311C1C",
"p  c #18201C",
"a  c #332016",
"s  c #3F281E",
"d  c #0B0B2C",
"f  c #0E0E3A",
"g  c #201E20",
"h  c #3A1D25",
"j  c #1E2422",
"k  c #242424",
"l  c #282827",
"z  c #26272C",
"x  c #242A28",
"c  c #29292B",
"v  c #2C2426",
"b  c #342320",
"n  c #382821",
"m  c #382D2D",
"M  c #2E312E",
"N  c #2F3436",
"B  c #383639",
"V  c #3A362A",
"C  c #412717",
"Z  c #451E24",
"A  c #412222",
"S  c #462A26",
"D  c #4C2D2B",
"F  c #462E2E",
"G  c #532B2A",
"H  c #592D2F",
"J  c #5D2F26",
"K  c #4B3529",
"L  c #54322D",
"P  c #5D3E2F",
"I  c #543626",
"U  c #4D2C31",
"Y  c #403238",
"T  c #403434",
"R  c #593630",
"E  c #513C35",
"W  c #5E3838",
"Q  c #563633",
"!  c #67382C",
"~  c #633B33",
"^  c #6A3E36",
"/  c #643B3A",
"(  c #6D3E3C",
")  c #603534",
"_  c #5B453B",
"`  c #6B443B",
"'  c #6C4F3F",
"]  c #6A433A",
"[  c #72423B",
"{  c #7D473C",
"}  c #7B4B3E",
"|  c #754A3C",
" . c #141444",
".. c #191947",
"X. c #1D1D49",
"o. c #24244C",
"O. c #29294F",
"+. c #191962",
"@. c #1F1F78",
"#. c #24247B",
"$. c #2B2B7E",
"%. c #393969",
"&. c #463945",
"*. c #464746",
"=. c #49484C",
"-. c #4B4149",
";. c #5F4D40",
":. c #5C4A48",
">. c #514D4E",
",. c #57585A",
"<. c #6F4A45",
"1. c #6A4743",
"2. c #724D42",
"3. c #7B4D44",
"4. c #765046",
"5. c #7A5445",
"6. c #76544C",
"7. c #7B534C",
"8. c #755F48",
"9. c #7F5E4F",
"0. c #6F5858",
"q. c #7F5E53",
"w. c #795A5A",
"e. c #616065",
"r. c #6F676E",
"t. c #65686B",
"y. c #7E696F",
"u. c #7D6C63",
"i. c #776F72",
"p. c #804836",
"a. c #804B3C",
"s. c #8C543D",
"d. c #804C42",
"f. c #884A45",
"g. c #875B41",
"h. c #82544C",
"j. c #8C594D",
"k. c #885C48",
"l. c #905248",
"z. c #965C4A",
"x. c #935746",
"c. c #8D5B53",
"v. c #805E59",
"b. c #885F5A",
"n. c #855953",
"m. c #8A6047",
"M. c #8F664D",
"N. c #9F6449",
"B. c #97694C",
"V. c #8D6255",
"C. c #8F645C",
"Z. c #936554",
"A. c #986150",
"S. c #946955",
"D. c #96635C",
"F. c #9D675B",
"G. c #9A725E",
"H. c #A06248",
"J. c #A2694F",
"K. c #A06957",
"L. c #A46E5C",
"P. c #AA6F57",
"I. c #B06E51",
"U. c #A67358",
"Y. c #B87850",
"T. c #B77C5D",
"R. c #956161",
"E. c #9C7261",
"W. c #917869",
"Q. c #9C756D",
"!. c #8C6F71",
"~. c #907072",
"^. c #A97566",
"/. c #B37A62",
"(. c #B87F60",
"). c #AF7D71",
"_. c #A27F73",
"`. c #C07F5A",
"'. c #C07E63",
"]. c #BD815C",
"[. c #B78164",
"{. c #BA8365",
"}. c #B7846C",
"|. c #BD856D",
" X c #BE886D",
".X c #B18A6E",
"XX c #B08071",
"oX c #BC8975",
"OX c #BE8A78",
"+X c #B18A7A",
"@X c #BF907B",
"#X c #C1835A",
"$X c #C9875E",
"%X c #C28464",
"&X c #C48965",
"*X c #C88D61",
"=X c #C48A6C",
"-X c #C18D75",
";X c #CE9872",
":X c #CA9279",
">X c #C59074",
",X c #D19B78",
"<X c #D59E75",
"1X c #2E2E80",
"2X c #323282",
"3X c #3B3B86",
"4X c #3E3E88",
"5X c #2C2C96",
"6X c #33339A",
"7X c #3B3B9E",
"8X c #43438B",
"9X c #4A4A8E",
"0X c #4F4F90",
"qX c #4444A2",
"wX c #4C4CA6",
"eX c #5353A9",
"rX c #5B5BAD",
"tX c #5A5AA2",
"yX c #6060AE",
"uX c #6363B2",
"iX c #6C6CB6",
"pX c #7373B9",
"aX c #7B7BBD",
"sX c #9D8987",
"dX c #9A8B89",
"fX c #8A8B91",
"gX c #949292",
"hX c #A09298",
"jX c #B29A99",
"kX c #9E97A0",
"lX c #B2A4AC",
"zX c #B0ADAF",
"xX c #BEB9BE",
"cX c #BCB2BA",
"vX c #CC9C86",
"bX c #C0998D",
"nX c #C29682",
"mX c #C19F95",
"MX c #D1A087",
"NX c #DFA987",
"BX c #D3A38B",
"VX c #DAA787",
"CX c #D5AE98",
"ZX c #D7B69D",
"AX c #DBB098",
"SX c #DDB195",
"DX c #E9B493",
"FX c #C3ACAC",
"GX c #DEBBAF",
"HX c #C7B9B8",
"JX c #E7B9A7",
"KX c #E8C7BA",
"LX c #8282C1",
"PX c #D3C6CD",
"IX c #E6DCE0",
"UX c #EAE6ED",
/* pixels */
"  # 4 l c k 6 6 4 4 2 2 , o # @ 6 8 1 @                         ",
"    X @ , 2 @ = @ @ @ O o       X & & & & - > - $ $ . .         ",
"  @ M *.B M n r w w q q q r a s I _ ` 2.5.8.4.` L A u * .       ",
"  j t.zXHXjXXXE.S.M.m.s.g.B.U.T.]. X@XOXOX^.E.V.h.<.] F 0       ",
"  B fXi.sXmXvX:X=X&X].].#X$X$X*X{.|.L.3.^ [ 5.3.3.^ ~ ] D *     ",
"  =.UXlX0.6.Z.}.-X|.[.].T.#X%XU.z.{ ! J | S.).).^.D.3.` 1.h .   ",
"  8 cXlXy.w.q.E.nXOX|.{.%XT.P.s.{ { a.l.M.V.n.k.c.c.3.( ( U $   ",
"    >.&.&.B E q.+XBX:X%X'.T.I.H.z.x.f.( Z t : - u F D G W D %   ",
"    x =.kXr.< b 1.bXJX>X%X].Y.N.a.( G D :.e , o   = y S / H %   ",
"    ,.xXPXhX< . e w.KXMX&X*X#XJ.a.H Z ~.FXB o 9 v y S ] h.R $   ",
"    e.IXjX!.U Q W 7.GXDX;X<X;X}.A.~ / b.Q.6._ 2.7.2.{ l.z.S .   ",
"    N gXsXw.n.R.D.b.GXGXVXNXVX,X XL.A.x.z.K.U.^.F.n.7.4.L 0     ",
"    @ p 5 y S R ' W.KXCXVXDXSXVXvXoX/.L.P.F.h.` L a 3 - X . o   ",
"    : j ;     . X V u.+XvX.X8._ _ E K C r - & .     ; X o = + o ",
"    @ l p @     # 7 2 n K r                   O 1 6 5 : O o o   ",
"    O k l 2     2 z 1           @ @     X @ 4 5 8 6 : O         ",
"    # 6 8 1     8 z 6 o       # o O   o , 1 2 2 1 @ o           ",
"..2X7XqXqXqXqXwXwXwXeXeXrXeXrXrXyXuXuXiXuXiXiXpXpXpXpXaXaXLXLXLX",
"..1X7X7XqXqXqXqXwXwXwXeXeXeXrXrXrXyXuXuXiXiXiXiXpXpXpXaXaXaXaXLX",
"..1X7X7XqX7XqXqXqXwXwXwXeXeXeXrXrXrXyXuXuXuXiXiXiXpXpXaXaXaXaXLX",
"..1X6X7X7X7XqXqXqXwXwXwXwXeXeXeXrXrXrXuXuXuXiXiXiXiXpXpXpXaXaXaX",
"..$.6X7X7X7X7XqXqXqXqXwXwXwXwXeXeXrXrXrXyXuXuXuXiXiXiXpXpXpXaXaX",
" .$.6X6X7X7X7X7XqXqXqXqXwXwXwXeXeXeXrXrXrXuXuXuXuXiXiXiXpXpXpXaX",
" .$.6X6X6X7X7X7X7XqXqXqXwXwXwXwXeXeXeXrXrXrXyXuXuXiXiXiXiXpXpXpX",
" .#.6X6X6X6X6X7X7X7XqXqXqXqXwXwXwXeXeXeXeXrXrXuXuXuXiXiXiXiXpXpX",
" .#.5X6X6X6X6X7X7X7X7XqXqXqXqXwXwXwXeXeXrXrXrXrXrXuXuXuXuXiXiXpX",
" .#.5X5X5X6X6X6X6X7X7X7XqXqXqXqXwXwXwXeXeXeXrXrXrXuXuXuXuXiXiXpX",
" .#.5X5X5X6X6X6X7X6X7X7X7XqXqXqXqXwXwXwXeXeXeXrXrXrXuXuXuXuXiXiX",
" .@.5X5X5X6X5X6X6X6X7X7X7XqX7XqXqXwXwXwXwXeXeXeXrXrXrXrXuXuXuXiX",
"f @.5X5X5X5X5X6X6X6X6X7X7X7X7XqXqXqXwXqXwXwXeXeXeXrXrXrXuXuXuXuX",
"f +.@.@.#.#.#.#.$.$.$.$.1X1X2X2X2X2X3X3X3X4X4X8X9X9X9X9X0X0XyXuX",
"d f  . . . . . . . ...........X.X.X.X.X.X.o.o.o.o.o.O.O.O.O.%.tX"
};
