/* XPM */
static char *NinjaUV_SnapTop[] = {
/* columns rows colors chars-per-pixel */
"84 24 102 2",
"   c gray8",
".  c #1B1B1B",
"X  c #1E1E1E",
"o  c gray16",
"O  c #2D2D2B",
"+  c gray18",
"@  c #2F2F2E",
"#  c #2F2F2F",
"$  c #323231",
"%  c #323232",
"&  c gray20",
"*  c #353535",
"=  c gray21",
"-  c #373736",
";  c #373737",
":  c #383833",
">  c #3A3A34",
",  c #383836",
"<  c #3B3B37",
"1  c gray22",
"2  c #393938",
"3  c #393939",
"4  c gray23",
"5  c #3F3F3A",
"6  c #3C3C3C",
"7  c gray24",
"8  c #43433E",
"9  c #46463E",
"0  c #47473E",
"q  c gray25",
"w  c #414140",
"e  c gray26",
"r  c #434343",
"t  c #474741",
"y  c #464642",
"u  c #444444",
"i  c gray27",
"p  c #464645",
"a  c #484847",
"s  c #4E4E44",
"d  c #494948",
"f  c #4D4D4B",
"g  c #4E4E4A",
"h  c #505047",
"j  c #535347",
"k  c #525248",
"l  c #525249",
"z  c #53534A",
"x  c #53534C",
"c  c #55554C",
"v  c #54544F",
"b  c #58584F",
"n  c #545450",
"m  c #565651",
"M  c #585853",
"N  c #5F5F52",
"B  c #5B5B55",
"V  c #5D5D57",
"C  c #5E5E56",
"Z  c #606055",
"A  c #626255",
"S  c #63635A",
"D  c #63635B",
"F  c #656559",
"G  c #67675A",
"H  c #64645C",
"J  c #66665D",
"K  c gray39",
"L  c #656565",
"P  c gray40",
"I  c #676766",
"U  c #6A6A60",
"Y  c #6C6C61",
"T  c #696968",
"R  c #717161",
"E  c #737363",
"W  c #717165",
"Q  c #727266",
"!  c #71716D",
"~  c #7D7D6F",
"^  c #747471",
"/  c #7F7F78",
"(  c #44FF00",
")  c #808079",
"_  c #80807A",
"`  c #82827A",
"'  c #83837B",
"]  c #83837C",
"[  c #86867E",
"{  c #818181",
"}  c gray51",
"|  c #878785",
" . c #8A8A80",
".. c #8C8C82",
"X. c #8C8C89",
"o. c #8D8D8A",
"O. c #8E8E8B",
"+. c #91918D",
"@. c #92928E",
"#. c #929292",
"$. c #A4A4A4",
"%. c gray100",
/* pixels */
"  K { { { { { { { { { { { { { { { { { { { { { { { { { { { { { { | O.@.@.O.X.X.X.O.X.X.O.@.@.X.| { { { { { { { { { { { { { { { { { { { { { { { { { { { { { { { { { { #.$.",
". + P P P P P P P P P P P P P P P P P P P P P P P P P P P P P P ! ` ( ..[ ` ) ) / ` / `  .( ] ^ T P P P P P P P P P P P P P P P P P P P P P P P P P P P P P P P P P { #.",
"X ; u u u u u u u u u u u u u u u u u u u u u u u u u u u r 6 8 x ( ( ( %.%.%.%.%.%.%.%.( ( ( C d u r u u u u u u u u u u u u u u u u u u u u u u u u u u u u u u u P { ",
"X ; u u u u u u u u u u u u u u u u u u u u u u u u u u u r 6 ; u A ( E F b b b b z j Z R ( W B d u u u u u u u u u u u u u u u u u u u u u u u u u u u u u u u u u P { ",
"X ; u u u u u u u u u u u u u u u u u u u u u u u u u u u e ; + , j %.N h 6 5 5 6 > : 0 N %.U M u u u u u u u u u u u u u u u u u u u u u u u u u u u u u u u u u u P { ",
"X ; u u u u u u u u u u u u u u u u u u u u u u u u u u u e 4 + : s %.b u ; & : ; # o : l %.D n u u u u u u u u u u u u u u u u u u u u u u u u u u u u u u u u u u P { ",
"X ; u u u u u u u u u u u u u u u u u u u u u u u u u u u e 6 % < z %.C g 6 6 6 6 ; @ < v %.D n u u u u u u u u u u u u u u u u u u u u u u u u u u u u u u u u u u P { ",
"X ; u u u u u u u u u u u u u u u u u u u u u u u u u u u u 6 ; 8 b %.H m u u u u 6 : 6 b %.H n u u u u u u u u u u u u u u u u u u u u u u u u u u u u u u u u u u P { ",
"X ; u u u u u u u u u u u u u u u u u u u u u u u u u u u u 4 ; < b %.H n r u u u 6 ; 6 b %.F n u u u u u u u u u u u u u u u u u u u u u u u u u u u u u u u u u u P { ",
"X ; u u u u u u u u u u u u u u u u u u u u u u u u u u u u 6 ; 8 z %.H m u u u u 6 : 8 b %.H n u u u u u u u u u u u u u u u u u u u u u u u u u u u u u u u u u u P { ",
"X ; u u u u u u u u u u u u u u u u u u u u u u u u u u u u 6 ; 6 b %.H m e u u u 6 % 6 b %.H n u u u u u u u u u u u u u u u u u u u u u u u u u u u u u u u u u u P { ",
"X ; u u u u u u u u u u u u u u u u u u u u u u u u u u u u 6 , 9 Z %.W D v v v v g u j H %.Y M u u u u u u u u u u u u u u u u u u u u u u u u u u u u u u u u u u P { ",
"X ; u u u u u u u u u u u u u u u u u u u u u u u u u u u u 6 , 9 G ( ~ W H H H H C b b E ( Q B d u u u u u u u u u u u u u u u u u u u u u u u u u u u u u u u u u P { ",
"X ; u u u u u u u u u u u u u u u u u u u u u u u u u u u e 6 , 9 ( ( ( %.%.%.%.%.%.%.%.( ( ( V d u u u u u u u u u u u u u u u u u u u u u u u u u u u u u u u u u P { ",
"X ; u u u u u u u u u u u u u u u u u u u u u u u u u u u e 4 % , j ( G Z b b b b z h j A ( J m d u u u u u u u u u u u u u u u u u u u u u u u u u u u u u u u u u P { ",
"X ; u u u u u u u u u u u u u u u u u u u u u u u u u u u e ; + O > 9 t 8 6 8 < 6 < : : t c c f u u u u u u u u u u u u u u u u u u u u u u u u u u u u u u u u u u P { ",
"X ; u u u u u u u u u u u u u u u u u u u u u u u u u u u e 4 % + % , 4 ; ; ; ; % % + + ; e p u u u u u u u u u u u u u u u u u u u u u u u u u u u u u u u u u u u P { ",
"X ; u u u u u u u u u u u u u u u u u u u u u u u u u u u e e 6 , 4 4 6 6 6 6 6 6 4 4 4 4 e r u u u u u u u u u u u u u u u u u u u u u u u u u u u u u u u u u u u P { ",
"X ; u u u u u u u u u u u u u u u u u u u u u u u u u u u u u e e e e u e u u u u e e e e e u u u u u u u u u u u u u u u u u u u u u u u u u u u u u u u u u u u u P { ",
"X ; u u u u u u u u u u u u u u u u u u u u u u u u u u u u u u u u u u u u u u u u u u u u u u u u u u u u u u u u u u u u u u u u u u u u u u u u u u u u u u u u P { ",
"X ; u u u u u u u u u u u u u u u u u u u u u u u u u u u u u u u u u u u u u u u u u u u u u u u u u u u u u u u u u u u u u u u u u u u u u u u u u u u u u u u u P { ",
"X ; u u u u u u u u u u u u u u u u u u u u u u u u u u u u u u u u u u u u u u u u u u u u u u u u u u u u u u u u u u u u u u u u u u u u u u u u u u u u u u u u P { ",
". + ; ; ; ; ; ; ; ; ; ; ; ; ; ; ; ; ; ; ; ; ; ; ; ; ; ; ; ; ; ; ; ; ; ; ; ; ; ; ; ; ; ; ; ; ; ; ; ; ; ; ; ; ; ; ; ; ; ; ; ; ; ; ; ; ; ; ; ; ; ; ; ; ; ; ; ; ; ; ; ; + K ",
"  . X X X X X X X X X X X X X X X X X X X X X X X X X X X X X X X X X X X X X X X X X X X X X X X X X X X X X X X X X X X X X X X X X X X X X X X X X X X X X X X X .   "
};
