/* XPM */
static char *NinjaUV_UniformMapping[] = {
/* columns rows colors chars-per-pixel */
"64 32 153 2",
"   c gray1",
".  c #060606",
"X  c gray3",
"o  c #090909",
"O  c gray4",
"+  c #0B0B0B",
"@  c #0C0C0C",
"#  c #111111",
"$  c gray7",
"%  c #131313",
"&  c gray8",
"*  c #151515",
"=  c #161616",
"-  c gray9",
";  c #181818",
":  c #191919",
">  c gray10",
",  c #1B1B1B",
"<  c gray11",
"1  c #1D1D1D",
"2  c #1E1E1E",
"3  c gray12",
"4  c #202020",
"5  c #252525",
"6  c #2C2C2C",
"7  c #2D2D2D",
"8  c gray18",
"9  c #2F2F2F",
"0  c gray19",
"q  c #313131",
"w  c #323232",
"e  c gray20",
"r  c #343434",
"t  c #353535",
"y  c gray21",
"u  c #373737",
"i  c gray22",
"p  c #393939",
"a  c #3A3A3A",
"s  c gray23",
"d  c #3C3C3C",
"f  c gray24",
"g  c #3E3E3E",
"h  c #3F3F3F",
"j  c gray25",
"k  c #414141",
"l  c gray26",
"z  c #434343",
"x  c #444444",
"c  c gray27",
"v  c #464646",
"b  c gray28",
"n  c #484848",
"m  c #494949",
"M  c gray29",
"N  c #4B4B4B",
"B  c #4C4C4C",
"V  c gray30",
"C  c #4E4E4E",
"Z  c gray31",
"A  c #505050",
"S  c #515151",
"D  c gray32",
"F  c #535353",
"G  c gray33",
"H  c #555555",
"J  c #565656",
"K  c gray34",
"L  c #585858",
"P  c gray35",
"I  c #5A5A5A",
"U  c #5B5B5B",
"Y  c gray36",
"T  c #5D5D5D",
"R  c gray37",
"E  c #5F5F5F",
"W  c #606060",
"Q  c gray38",
"!  c #626262",
"~  c gray39",
"^  c #646464",
"/  c #656565",
"(  c gray40",
")  c #676767",
"_  c #686868",
"`  c DimGray",
"'  c #6A6A6A",
"]  c gray42",
"[  c #6C6C6C",
"{  c #6D6D6D",
"}  c gray43",
"|  c gray44",
" . c #717171",
".. c #727272",
"X. c gray45",
"o. c #747474",
"O. c gray46",
"+. c #767676",
"@. c #777777",
"#. c gray47",
"$. c #797979",
"%. c gray48",
"&. c #7B7B7B",
"*. c #7C7C7C",
"=. c gray49",
"-. c #7E7E7E",
";. c #7F7F7F",
":. c #00FF18",
">. c #808080",
",. c #818181",
"<. c gray51",
"1. c #838383",
"2. c #848484",
"3. c gray52",
"4. c #868686",
"5. c gray53",
"6. c #888888",
"7. c gray54",
"8. c gray55",
"9. c #8D8D8D",
"0. c #8E8E8E",
"q. c gray56",
"w. c gray57",
"e. c #929292",
"r. c #939393",
"t. c gray58",
"y. c #959595",
"u. c #979797",
"i. c gray60",
"p. c #9A9A9A",
"a. c #9B9B9B",
"s. c gray61",
"d. c #9D9D9D",
"f. c gray62",
"g. c #9F9F9F",
"h. c #A0A0A0",
"j. c gray63",
"k. c gray64",
"l. c #A4A4A4",
"z. c #A5A5A5",
"x. c gray65",
"c. c #A7A7A7",
"v. c gray66",
"b. c #A9A9A9",
"n. c #AAAAAA",
"m. c #ACACAC",
"M. c #AEAEAE",
"N. c #AFAFAF",
"B. c #B6B6B6",
"V. c #B9B9B9",
"C. c #BCBCBC",
"Z. c gray",
"A. c gray75",
/* pixels */
"4 p.s.p.s.s.s.s.V.s.s.h.h.h.h.l.V.k.k.k.k.l.l.l.C.l.v.v.c.c.c.c.Z.v.n.n.n.n.n.n.A.n.n.n.n.n.n.n.A.n.n.n.n.n.n.n.A.n.n.n.n.n.M.n.",
"> 0.%.%.=.=.>.=.h.>.>.>.>.>.>.>.j.3.1.1.1.1.3.5.k.3.3.3.5.5.5.5.l.5.5.5.5.5.5.5.v.5.5.5.7.5.5.7.v.5.5.5.5.7.7.5.l.5.5.5.5.5.8.n.",
"< %.S S H S H H >.H L H L L L L >.L L L K L L L 3.L K K K L L K >.K K K L L L L 3.K Y L L L L L 3.L L Y L L Y L 3.K K K K H L i.",
"< @.C C C S S S >.H H H H H H H ,.F H F F F H F ;.F H F H F H F ,.F F H H F H H ,.F F F F H H H ,.H F F H F F F ;.S S Z Z Z Z e.",
"< %.C C C S H H >.H K H H H L H ,.H K H K H K H ,.H H K H K K K ,.H K H K K H K ,.H K H K H K H ,.F K H K H H H >.F S S Z Z F u.",
"< @.M C S S H L :.Y L L L Y Y L :.L L Y L Y L Y :.L Y L Y L L L :.Y L L Y L Y L :.L L Y L Y L Y :.L L Y L Y Y K :.K H F F Z H t.",
"< @.M S S H L :.:.:.U Y Y Y Y :.:.:.Y Y Y Y Y :.:.:.Y Y Y Y Y :.:.:.U Y Y Y Y :.:.:.Y Y Y Y Y :.:.:.Y Y Y Y Y :.:.:.H H F S H t.",
"< u.%.%.=.>.:.:.:.:.:.5.5.5.:.:.:.:.:.5.5.5.:.:.:.:.:.5.5.5.:.:.:.:.:.5.5.5.:.:.:.:.:.5.5.5.:.:.:.:.:.5.5.5.:.:.:.:.:.,.,.&.,.N.",
"< | B Z F K K :.:.:.E E Y Y E :.:.:.E E Y E Y :.:.:.Y E E Y Y :.:.:.E E Y E E :.:.:.Y E E Y E :.:.:.Y E E Y Y :.:.:.K K F S H t.",
"< | B Z F K L Y :.E Y Y E E Y E :.Y Y E Y E E Y :.E E Y E E E E :.Y E Y E Y Y E :.E Y E E Y E Y :.E E Y E E E E :.Y K K F S F t.",
"> } M C S F K Y 3.Y Y Y Y Y Y Y 3.Y Y Y Y Y Y Y 5.Y Y Y Y Y Y Y 3.Y Y Y Y Y Y Y 3.Y Y Y Y Y Y Y 5.Y Y Y Y Y Y Y 3.K K F S Z S t.",
": { B C Z F K L 3.L Y Y Y Y Y Y 3.Y Y Y Y Y Y U 3.L U U U Y Y Y 3.Y Y Y U U U Y 3.Y Y Y Y L Y Y 3.L U U U Y Y Y 3.K K F S C S w.",
": { b M C S F K >.Y L L K L L Y 3.K L L Y L Y L 3.K L L L Y L L >.L L Y L L L Y >.L L Y L L L Y 3.K L L L Y L L >.K H S Z B Z w.",
": _ b M C Z F K :.L L L K L L K :.K L L K K K K :.K L L K K K L :.K L K L L L K :.L L K L L L K :.K L L L K K L :.H F Z Z B Z 0.",
"= _ c b B Z F :.:.:.K H H H K :.:.:.H H K H H :.:.:.K K H H K :.:.:.K H K H H :.:.:.K H K H H :.:.:.K K H H K :.:.:.Z Z B M B 0.",
": 8.o.#.#.&.:.:.:.:.:.>.>.,.:.:.:.:.:.,.,.,.:.:.:.:.:.,.,.,.:.:.:.:.:.,.,.,.:.:.:.:.:.,.,.,.:.:.:.:.:.,.,.,.:.:.:.:.:.%.#.@.%.v.",
"* ~ c c b B Z :.:.:.F F F F F :.:.:.F F F F F :.:.:.F F F F F :.:.:.F F F F F :.:.:.F F F F F :.:.:.F F F F F :.:.:.C B M b B 7.",
"= ~ h c b B B Z :.S S S S S S S :.S S S S S S S :.S S S S S S S :.S S S S S S S :.S S S S S S S :.S S S S S S S :.Z B M b b M 5.",
"* Q k c c M B C &.Z Z Z Z Z Z Z &.Z Z Z Z Z Z S &.Z Z Z S Z Z Z =.Z Z Z S Z Z Z =.Z Z Z S Z Z Z &.Z Z Z Z Z Z Z &.C N M b c b 5.",
"* E h k c b M B %.C Z C Z Z Z Z &.Z Z Z Z C C Z %.Z Z C Z C Z Z &.Z C C Z Z C C &.Z C C Z Z C C &.C Z Z C Z Z C &.B b b c z b 5.",
"* E h k c c M B #.C B C C B C B %.C B C C C B C %.B C B C B C B %.C B C C B C B %.C B C C B C B &.C B C B C C B %.B b c c k b 3.",
"* E s h h c b b :.B M M M M M B :.M M B M M M M :.B M M M M M B :.M M M M B M M :.M M M M B M M :.M M B M M M B :.b c c k h c >.",
"$ Y s s h k c :.:.:.b b b b b :.:.:.b b b b b :.:.:.b b b b b :.:.:.b b b b b :.:.:.b b b b b :.:.:.b b b b b :.:.:.c k h s c ,.",
"$ 3.` { } } :.:.:.:.:.....o.:.:.:.:.:...o...:.:.:.:.:.....o.:.:.:.:.:.o.....:.:.:.:.:.o...o.:.:.:.:.:.......:.:.:.:.:.} | { | d.",
"$ Y y u u s g :.:.:.h h h h h :.:.:.h h h h k :.:.:.h h h h h :.:.:.h h k h h :.:.:.h h h k h :.:.:.h h h h h :.:.:.s s s u h &.",
"$ L r r r y u a :.a s s a a s s :.a a s a a s a :.a s s a a s s :.a a a s a s s :.a s a a s a a :.a s a s a a a :.a u u y y s %.",
"$ K w w w w r r _ r y r r y r y _ r y r r r y y _ r y r r y y r _ r y r y r y r _ r y r y r y r _ y r y y y r y ) e w w w w y o.",
"* Y w r r w r r ( w r r w r r r ( w r r r w r r ( w r r e e e r ( e e e e e e r ( e e e e e e e ( e e e e e e w ( e e e e r r X.",
"* ( g h k k c h | k k k k k c h ..h c h k k k k ..h k k k c c k ..k k c k k c k ..z z z z c z c ..z z c c c z c X.c c c c k B ;.",
"# _ Y Y Y Y Y Y 5.Y Y Y E Y Y Y 5.Y Y Y Y Y Y E 5.E E E E E E E 5.Q Q Q Q ~ ~ ~ 7.~ ~ ~ ~ ~ ~ ~ 8.( ( ( ) _ ( _ 0.` ` ` ] _ | ;.",
". 5 7 6 7 6 6 6 6 6 6 6 6 6 6 6 6 6 6 6 7 6 6 6 6 7 7 7 6 7 7 9 9 7 9 9 9 9 9 9 9 w w w w w w r e r r r r r y r y y u u u u 9 r ",
"  . X X X X X X X X X X X X X X X X X X o X X X X X X X X X X X X X o o o o o o o o X o + o + o o + o o + + + + + + + @ + + X + "
};
