/* XPM */
static char *Ninja_ToolB[] = {
/* columns rows colors chars-per-pixel */
"32 32 256 2",
"   c #010101",
".  c #0F0F0D",
"X  c #121213",
"o  c #171819",
"O  c #181A1D",
"+  c #211F1E",
"@  c #2C2B1C",
"#  c #24261D",
"$  c #111622",
"%  c #111826",
"&  c #1E1E21",
"*  c #11192C",
"=  c #181E2D",
"-  c #111B33",
";  c #1E2128",
":  c #1F293F",
">  c #262625",
",  c #272825",
"<  c #292926",
"1  c #24262D",
"2  c #282629",
"3  c #272828",
"4  c #2B2B2B",
"5  c #38372F",
"6  c #2E2F32",
"7  c #202839",
"8  c #2D2E38",
"9  c #333433",
"0  c #3B3A33",
"q  c #36363B",
"w  c #383738",
"e  c #3C3C3C",
"r  c #545015",
"t  c #726A19",
"y  c #7B741E",
"u  c #474427",
"i  c #5E5B28",
"p  c #464439",
"a  c #504D3F",
"s  c #5F5A3A",
"d  c #585638",
"f  c #615E3E",
"g  c #716A24",
"h  c #7E782F",
"j  c #6F6C38",
"k  c #666338",
"l  c #736E33",
"z  c #7A7438",
"x  c #1F2B45",
"c  c #1F2D4C",
"v  c #1F2F51",
"b  c #1F3156",
"n  c #1F325C",
"m  c #262F42",
"M  c #273043",
"N  c #2C3444",
"B  c #2E3748",
"V  c #2F3849",
"C  c #3E3F45",
"Z  c #263451",
"A  c #2D3852",
"S  c #2D3D5E",
"D  c #1F3360",
"F  c #304167",
"G  c #31436B",
"H  c #36486E",
"J  c #324672",
"K  c #394C76",
"L  c #304779",
"P  c #364C7B",
"I  c #394D7B",
"U  c #444445",
"Y  c #484743",
"T  c #4C4B4D",
"R  c #494947",
"E  c #514E4B",
"W  c #595747",
"Q  c #53524C",
"!  c #59554C",
"~  c #585646",
"^  c #464B53",
"/  c #484851",
"(  c #555554",
")  c #5C5A54",
"_  c #555459",
"`  c #5C5D5F",
"'  c #615E5B",
"]  c #62614E",
"[  c #737047",
"{  c #787141",
"}  c #76724A",
"|  c #6D6C55",
" . c #79725E",
".. c #4B5469",
"X. c #47597F",
"o. c #696966",
"O. c #62656A",
"+. c #686769",
"@. c #6A6A68",
"#. c #716D65",
"$. c #737166",
"%. c #7F7C62",
"&. c #72736A",
"*. c #636C7E",
"=. c #6F7075",
"-. c #757371",
";. c #86781F",
":. c #817844",
">. c #AC9B12",
",. c #B1A11E",
"<. c #8B8026",
"1. c #8E8830",
"2. c #8A833A",
"3. c #908A30",
"4. c #958A3C",
"5. c #A4943F",
"6. c #D0B221",
"7. c #C4AF3C",
"8. c #FFCB1B",
"9. c #FFC824",
"0. c #F8CB2B",
"q. c #FFD92C",
"w. c #FFC431",
"e. c #FFE020",
"r. c #8C8549",
"t. c #948B45",
"y. c #9A9244",
"u. c #86845B",
"i. c #A09C57",
"p. c #BFAD41",
"a. c #B9A749",
"s. c #BFAF57",
"d. c #B4A753",
"f. c #938A64",
"g. c #93937C",
"h. c #878573",
"j. c #A8A46F",
"k. c #C5B347",
"l. c #CDBF5C",
"z. c #D3BD5E",
"x. c #C4BF7A",
"c. c #E8CD5E",
"v. c #E4D059",
"b. c #FCDB54",
"n. c #FFD45C",
"m. c #FFE842",
"M. c #FFFF40",
"N. c #FFFC4D",
"B. c #FFE459",
"V. c #FFFC53",
"C. c #FFFF5A",
"Z. c #EDD666",
"A. c #FFDC60",
"S. c #FFD669",
"D. c #F5D869",
"F. c #F9DC7A",
"G. c #FFE469",
"H. c #FFE86C",
"J. c #F8E463",
"K. c #FFFF6C",
"L. c #EDE276",
"P. c #FFE071",
"I. c #FFE872",
"U. c #FFE478",
"Y. c #304983",
"T. c #304D8D",
"R. c #395083",
"E. c #39538D",
"W. c #385493",
"Q. c #38569B",
"!. c #3859A3",
"~. c #475A86",
"^. c #415A93",
"/. c #445F9B",
"(. c #516186",
"). c #526389",
"_. c #4C669E",
"`. c #506491",
"'. c #697797",
"]. c #677595",
"[. c #4462A6",
"{. c #4E67A0",
"}. c #4464AD",
"|. c #5C72A3",
" X c #5D75AC",
".X c #4465B0",
"XX c #4467B8",
"oX c #4468BA",
"OX c #5D79B7",
"+X c #5D7ABF",
"@X c #446BC3",
"#X c #456ECB",
"$X c #4E72C3",
"%X c #4E74CC",
"&X c #5175C6",
"*X c #5D7DC6",
"=X c #5177CD",
"-X c #5479CD",
";X c #5D7FCC",
":X c #5379D1",
">X c #7181A4",
",X c #7283AC",
"<X c #6E83B2",
"1X c #7286B4",
"2X c #7289BB",
"3X c #5D80D2",
"4X c #728BC3",
"5X c #728DCC",
"6X c #6788D4",
"7X c #6385D0",
"8X c #718FD3",
"9X c #7290D5",
"0X c #7A97D7",
"qX c #7291DA",
"wX c #7A98D9",
"eX c #989886",
"rX c #9E988E",
"tX c #999488",
"yX c #B6B687",
"uX c #BBB288",
"iX c #AAA59C",
"pX c #B2AB9A",
"aX c #B6B293",
"sX c #B9B099",
"dX c #8894B1",
"fX c #909AB3",
"gX c #B2ADA1",
"hX c #B7B0A2",
"jX c #B9B4A8",
"kX c #C2B486",
"lX c #C4BDAA",
"zX c #CDC689",
"xX c #D0CB83",
"cX c #C8C697",
"vX c #FFE080",
"bX c #FDEA84",
"nX c #F2E48D",
"mX c #FFF28E",
"MX c #FFF894",
"NX c #FFFF9C",
"BX c #CDC9B1",
"VX c #D6CCB6",
"CX c #D6CAB7",
"ZX c #E0D0BB",
"AX c #E8EDAB",
"SX c #FFFFA7",
"DX c #FFFFAF",
"FX c #A6B0C7",
"GX c #A6B2CC",
"HX c #B2B9C9",
"JX c #A6B5D4",
"KX c #A6B7DB",
"LX c #A6B9E3",
"PX c #A6BBE9",
"IX c #FFF8CB",
"UX c #FFF2C4",
/* pixels */
"o $ $ $ % % * * * - - - - - - - - - - - - - * * * * % % $ $ * A ",
"= Z F G J L Y.Y.T.T.E.J Z 7 1 O O > : Z G W.T.T.Y.Y.L J J F K ).",
"x K /.[..XoX@X#X&XP N > , > > , , , > > > N I &X#X@XXX}.[./.|.>X",
"x P [..XoX@X#XW.N > > > > , < 4 4 4 < > > > > V {.#X@XoX.X[.|.,X",
"m R.}.XX@X:XI > > > > < e T ( _ _ ( T R 9 < < < > X.=X#XoX}. X1X",
"c E.XX#X:XH > > > > 9 R T T ( ) ( ( R R U C 9 > > , ~.:X@XoXOX1X",
"v W.oX#XK > > > 4 e U ] u.j.x.xXzXyXg.&.Q e w 9 > > > ~.#X@X*X2X",
"v Q.#X^.> > > 6 w a i.K.K.I.U.vXbXmXNXSXDXeX( 9 4 > > > _.@X*X4X",
"v !.&XN > > < 6 d y.k [ c.J.Z.D.F.F.bXnX%.| aXh.w < > > N -X;X4X",
"n !.R.> > > > u a.s o.! k v.A.D.S.P.L.| Q ' ' AX$.> > > > ~.;X5X",
"b [.N > > > > l 2.$.ZXgX! j b.n.n.H.[ ! iXVX#.h.cX9 > > > N 6X8X",
"n R.> > > 3 < <.z rXVXUXiX~ 2.b.B.t.~ iXIXVXtX .MXR > > > 3  X8X",
"n S > > > > # ;.:.hXlXQ o.-.s 7.k.s &.@.] CXpX$.U.) & > > > (.8X",
"D m > > > > # ;.r.CXR   ( +.p 4.t.p &._   Q BX%.L.] & > > > ..qX",
"D 1 > > > > > t y.jX+   . o < y.y.4 & X   O jXf.H.a & > > > ^ qX",
"D ; > > > > & r 6.kX_ X     a 7.p.p     . ( aXs.l.5 ; > > > U qX",
"n > > > > > > @ >.0.uX=.U ) s.9.0.d.Y q +.aXz.V.[ 6 3 > > > U qX",
"D 1 > > > 2 > ; u >.e.N.C.q.8.>.,.q.V.I.K.N.m.r.0 4 > 2 > > ^ qX",
"D m > > > 2 > 3 4 0 i g y g s Q Q k h 3.1.l a 9 < > > > > > ..qX",
"D S > > > > 3 > < 4 8 q C ^ _ ` ` _ / C q 6 3 > > 3 3 > > > ).6X",
"n Y.> > > > > > > > > 2 < 9 e C e e 6 4 2 3 > > 3 > > > > > |.8X",
"n [.N > > > > > , > > 3 > > 3 3 < > > > > > 2 > > > > > > N 7X8X",
"Z !.I > > > > > > > > 3 > > > 2 > 3 > > 2 3 > > 1 > > > > P ;X8X",
"n !.$XN > > > > > > 3 > 2 > > > 3 > 3 > > > > 2 > > > > N oX;X4X",
"v Q.#XE., , > > > > > > , > > > > > > > > > > > > > > > E.#X*X4X",
"c W.@X#XK > > > , > > > > > > > > > , > , > > > > > > J #X@X+X2X",
"c W.XX#X=XG # , > > , > > , > # > > > > > > > > > > G %X@XoXOX1X",
"x Y.}.XX@X=XK , # > > > > > > > > > > > > > > > > G &X@XoX}. X1X",
"m Y.[..XXX@X#X{.N , > > , > > > > , > > > > > N ^.#X#XXX.X[. X,X",
": K _.[..XoX@X#X$XI N > > > > , > > , > > N K $X#XoXXX}.[./.|.'.",
"A `.,X1X2X2X5X5X9XqXwX2X'.*.O.` ` O.*.].1X0X9X9X5X5X4X2X1X,XdXfX",
"~.fXFXGXGXJXJXKXKXLXLXLXLXLXPXPXPXPXPXLXLXLXLXKXKXJXJXGXGXGXHXHX"
};
