/* XPM */
static char *NinjaUV_MoveArrowDownL[] = {
/* columns rows colors chars-per-pixel */
"75 24 130 2",
"   c black",
".  c #020202",
"X  c gray2",
"o  c #070707",
"O  c gray3",
"+  c #090909",
"@  c gray4",
"#  c #0B0B0B",
"$  c #0C0C0C",
"%  c gray5",
"&  c #0E0E0E",
"*  c gray6",
"=  c #101010",
"-  c #111111",
";  c gray7",
":  c gray9",
">  c #181818",
",  c #191919",
"<  c #2C2C2C",
"1  c #2D2D2D",
"2  c gray18",
"3  c #2F2F2F",
"4  c gray19",
"5  c #313131",
"6  c #323232",
"7  c gray20",
"8  c #343434",
"9  c #353535",
"0  c gray21",
"q  c #373737",
"w  c gray22",
"e  c #393939",
"r  c #3A3A3A",
"t  c gray23",
"y  c #3C3C3C",
"u  c gray24",
"i  c #3E3E3E",
"p  c #3F3F3F",
"a  c gray25",
"s  c #414141",
"d  c gray26",
"f  c #434343",
"g  c #444444",
"h  c gray27",
"j  c #464646",
"k  c gray28",
"l  c #484848",
"z  c #494949",
"x  c gray29",
"c  c #4B4B4B",
"v  c #4C4C4C",
"b  c gray30",
"n  c #4E4E4E",
"m  c gray31",
"M  c #505050",
"N  c #515151",
"B  c gray32",
"V  c #535353",
"C  c gray33",
"Z  c #555555",
"A  c #565656",
"S  c gray34",
"D  c #585858",
"F  c gray35",
"G  c #5A5A5A",
"H  c #5B5B5B",
"J  c gray36",
"K  c #5D5D5D",
"L  c gray37",
"P  c #5F5F5F",
"I  c #606060",
"U  c gray38",
"Y  c #626262",
"T  c gray39",
"R  c #646464",
"E  c #656565",
"W  c gray40",
"Q  c #676767",
"!  c #686868",
"~  c DimGray",
"^  c #6A6A6A",
"/  c gray42",
"(  c #6C6C6C",
")  c #6D6D6D",
"_  c gray43",
"`  c #6F6F6F",
"'  c gray44",
"]  c #717171",
"[  c #727272",
"{  c gray45",
"}  c #767676",
"|  c gray47",
" . c #00C000",
".. c #00CB00",
"X. c #00D500",
"o. c #00F400",
"O. c green",
"+. c #838383",
"@. c gray52",
"#. c #898989",
"$. c gray55",
"%. c gray56",
"&. c #929292",
"*. c gray58",
"=. c #959595",
"-. c gray59",
";. c #979797",
":. c #989898",
">. c gray60",
",. c #9A9A9A",
"<. c #9B9B9B",
"1. c gray61",
"2. c #9D9D9D",
"3. c gray62",
"4. c #9F9F9F",
"5. c #A0A0A0",
"6. c gray63",
"7. c #A2A2A2",
"8. c gray64",
"9. c #A4A4A4",
"0. c #A5A5A5",
"q. c gray65",
"w. c #A7A7A7",
"e. c gray66",
"r. c #A9A9A9",
"t. c #AAAAAA",
"y. c gray67",
"u. c #ACACAC",
"i. c gray69",
"p. c gray100",
/* pixels */
"; +.-.&.-.-.-.-.-.>.-.>.1.>.1.1.1.1.5.1.5.5.5.9.5.5.9.e.9.9.e.e.e.e.e.e.u.e.u.e.y.y.u.u.u.u.u.u.u.u.u.u.u.u.u.u.u.u.u.u.u.u.u.u.u.u.u.u.u.u.e.u.u.u.i.",
"& | Q Y Q Q Q ^ ^ ^ ` ^ ` ^ ` ` ` ` ` ` ` ` ` ` ] ` ` ` ` ] ] ` ` ] ` ] ] ] ] ] ] ] ] ] ] ] ] ] ] ] ] ] ] ] ] ] ] ] ] ] ] ] ] ] ] ] ] ] ` ` ` ` ` } e.",
"; ] H C H C H K K K K K K K K K K K K K K K Y K K K K K K K K K K K K K Y K K K K K K K  .X. .K K K I K K K K K I K K K K K K I K K K K K H H C H K 5.",
"; ] H V C C H K Y K Y Y Y Y K Y Y K Y Y Y K K Y Y K Y Y Y K Y Y Y K Y Y K K Y Y I I Y ..o.O.o...Y I I Y I I I I I I Y I Y I I I Y K Y Y K H C H C Y 5.",
"& ` C V C H H K Y K Y Y Y Y K Y Y Y Y K K Y Y Y Y Y Y Y Y K K Y Y Y K Y Y Y Y Y Y Y  .o.O.O.O.o. .Y I Y I Y I Y Y I Y I Y Y I Y Y Y Y K K H H H C Y 5.",
"& ` V V C C K K Y Y Y Y Y Y Y Y Y Y Y Y Y Y Y Y Y Y Y Y Y Y Y Y Y Y Y Y Y Y Y Y Y > X.O.O.O.O.O.X.Y Y Y Y Y Y Y Y Y Y Y Y Y Y Y Y Y Y K K H H C C Y 5.",
"& ^ C V C C K Y K Y Y Y Y Y Y Y Y Y Y Y Y Y Y Y Y Y Y Y Y Y Y Y Y Y Y Y Y Y Y Y Y >  .o.O.O.O.o. .Y Y Y Y Y Y Y Y Y Y Y Y Y Y Y Y Y Y Y K K H C C K 5.",
"& ^ V m C H H K Y Y Y Y K Y Y Y Y K Y Y Y Y Y Y Y Y K Y Y Y Y Y Y Y Y Y Y K Y p.Y > > ..o.O.o...I Y I Y I Y I Y Y I Y I Y I Y I Y K Y Y K K H H C K 5.",
"& Q V m V C H K K K Y K Y Y K Y K Y K Y Y K Y K Y K Y K K Y Y K K Y K Y K Y p.. p.K > >  .X. .Y I I I I I I I I I I Y I I I I I Y K Y K K H C C V H 1.",
"& Y m x V C C K K K K K K K K K K H K K K K K K K K K K K K K K K K p.p.H p.. . . p.K : : : K K K K K K K K K K K J K K K K K K K K K K H C C V m H 5.",
"@ Y x x x V V C H H H K H K H H H H H H H K H K H H H H H H H H H . p.. p.. . . . . p.H K H H H H H J H H H H H H J H J H J H H H H H H C C V m m C 1.",
"@ Y k k x x m V C C C C C C C C H C C C C C C C C C C H C C C C C . p.. . . . . . p.C C C C C C C C S C C C S C C C C C C C C C C C C C C V m x x C >.",
"& K k d k x m m V V V V C V V V V V V V V V V V C V V V V V V V V . p.. . . . . p.V V V V V V V C V V V C V V C V C V V C V V V V V V V m m x k k m >.",
"@ K k d d x x m m m m m V m m m V m m m m m V m V m V m m m m V m . p.. . . . p.m m m V m m m m m V m m m m m m m m m V V m m m m m m m m x x k k m >.",
"& K d u d d k k x m x m m x m x m x m x x m m x m x x x x m m x x . p.. . . . . p.m x x m x m m c c c m c m c c c m c c c c m c x m x x x k k d d x -.",
"@ K u r u d d k k k x k k k x k k k k x k k k k k x k x x k k x x . p.p.p.p.p.p.p.k k x k k k k l l l l l l l l l l l l x l l l x k x k k d d d u x -.",
"@ K r q r u u d k d d k d d k d d d k d d k d d k d d k d d d d d . . . . . . . f f f d f f f f f f f f f f f f f f f f f f f f k d d d d u u u r k &.",
"@ K r q q q r u u u u u u u u u u u u u u u u u u u u u u u u u u u u u u u u u p u u u u p u u u u u p u u u p p u u u p u u p u u u u u u r r q d %.",
"@ H q 4 4 q q q r r r r r r r q r r r q r r r r r r r r r r r r r r r r r q r r r r r r r r r r r r r r r r r r r r r r r r r r r r r r q q q 4 4 d %.",
"& H q 1 1 4 4 4 4 4 q 4 q 4 4 q q 4 4 q 4 4 q 4 4 4 q 4 q 4 4 q 4 4 7 4 q 4 7 7 7 4 7 7 7 7 7 4 4 7 7 7 7 7 4 7 7 7 4 7 4 7 7 7 4 q 4 4 4 4 1 4 1 u @.",
"& C q 1 1 < 1 1 4 1 4 4 4 4 1 1 4 4 1 1 4 4 1 4 1 1 4 4 1 1 4 1 4 1 4 1 4 4 1 1 4 1 4 4 1 4 1 1 4 4 1 1 4 4 1 4 4 1 1 4 4 4 1 4 1 1 4 1 1 < 1 < 1 q +.",
"@ Q k u d d d d u d d d d d d d d d d d d d d d d d d d d k d d k d d k f f k f k f f f k f k k f k k k k k l l l l l l l l l l x x x x x x x k x C &.",
"@ k C V V V V V V V V V V V V V V V V V V V V V V V V V V V V V V V C C C C C C C C S S C H H H H H H H H K K K K I I I Y Y T T Y Y Y Q Q Q Q Q ^ ^ ` ",
". X @ X X @ X X @ X @ X @ X @ X @ X @ X X @ @ X @ X X @ @ X @ X @ @ X @ O @ @ @ @ @ @ @ O @ @ @ @ @ @ @ @ @ # # # # # & # # # & & & & & @ & & & & @ & "
};
