/* XPM */
static char *NinjaMesh_PivMaxX[] = {
/* columns rows colors chars-per-pixel */
"84 24 144 2",
"   c #1C0A0A",
".  c gray8",
"X  c #1E1E1E",
"o  c #3E0505",
"O  c #3E0D0D",
"+  c #251E1E",
"@  c #252525",
"#  c #2B2727",
"$  c #2C2C2C",
"%  c #332222",
"&  c #2F3535",
"*  c #343434",
"=  c #3C3C3C",
"-  c #4A0505",
";  c #4F1E1E",
":  c #660707",
">  c #7C0909",
",  c #751212",
"<  c #522E2E",
"1  c #592E2E",
"2  c #453232",
"3  c #3D4545",
"4  c #3C494A",
"5  c #3E4F51",
"6  c #444444",
"7  c #444A4A",
"8  c #4B4B4B",
"9  c #404F51",
"0  c #445354",
"q  c #4C5354",
"w  c #435759",
"e  c #455C5E",
"r  c #4B5B5D",
"t  c #535353",
"y  c #525859",
"u  c #5B5B5B",
"i  c #6B4646",
"p  c #4E5F61",
"a  c #516162",
"s  c #5D6262",
"d  c #506668",
"f  c #52696B",
"g  c #596A6B",
"h  c #4E7073",
"j  c #517477",
"k  c #5A7173",
"l  c #56777A",
"z  c #597578",
"x  c #59797C",
"c  c #656565",
"v  c #676D6D",
"b  c #696969",
"n  c #6D7273",
"m  c #6B7B7C",
"M  c #747474",
"N  c #7B7C7C",
"B  c #830404",
"V  c #8F0101",
"C  c #940000",
"Z  c #9C0202",
"A  c #A70000",
"S  c #AB0202",
"D  c #A40909",
"F  c #B60202",
"G  c #BA0000",
"H  c #B10C0C",
"J  c #9E2E2E",
"K  c #C40000",
"L  c #8D7070",
"P  c #827F7F",
"I  c #A37878",
"U  c #587E82",
"Y  c #5E8487",
"T  c #5D8588",
"R  c #5F898D",
"E  c #61868A",
"W  c #62898D",
"Q  c #6B8C8F",
"!  c #748283",
"~  c #778789",
"^  c #738C8E",
"/  c #7B8C8D",
"(  c #688E92",
")  c #748F92",
"_  c #629093",
"`  c #689296",
"'  c #64969B",
"]  c #6C9498",
"[  c #669A9F",
"{  c #6B9B9F",
"}  c #709093",
"|  c #7F9091",
" . c #689CA1",
".. c #749FA3",
"X. c #74A0A4",
"o. c #7BA3A6",
"O. c #7AA5A9",
"+. c #74A8AD",
"@. c #6EACB1",
"#. c #71AEB3",
"$. c #7FAEB3",
"%. c #7BB1B5",
"&. c #74B6BC",
"*. c #7DB4B9",
"=. c #76BDC3",
"-. c #7DBDC3",
";. c #78C0C6",
":. c #77C2C9",
">. c #7BC3C9",
",. c #7ECFD5",
"<. c #848484",
"1. c #838F8F",
"2. c #8A8989",
"3. c #829496",
"4. c #87989A",
"5. c #949494",
"6. c #9E9090",
"7. c #9B9B9B",
"8. c #8AA8AB",
"9. c #88ADB0",
"0. c #82B1B6",
"q. c #A6A6A6",
"w. c #ABABAB",
"e. c #B3B3B3",
"r. c #BEBEBE",
"t. c #85BAC0",
"y. c #89BCC1",
"u. c #84C6CC",
"i. c #83C8CF",
"p. c #8EC9CF",
"a. c #83CCD2",
"s. c #8DCCD2",
"d. c #85D1D7",
"f. c #8BD1D7",
"g. c #84D5DC",
"h. c #8AD4DB",
"j. c #81D8DF",
"k. c #89D8DF",
"l. c #84D8E0",
"z. c #8ADAE2",
"x. c #93DDE4",
"c. c #C3C3C3",
"v. c #C9C9C9",
"b. c #DADADA",
/* pixels */
"X b <.<.2.2.<.<.<.<.2.<.<.<.<.2.<.<.<.<.<.<.M b <.<.<.<.<.<.<.<.<.2.<.<.2.<.<.<.<.<.<.<.<.<.<.<.<.<.<.<.<.<.<.<.<.<.<.<.<.<.<.<.<.<.2.<.<.<.2.<.<.<.<.<.<.2.<.<.<.<.5.q.",
"X $ b b b b b b b b b b b b b b b b b c c c c v b b b b b b b b b b b b b b b b b b b b b b b b b b b b b b b b b b b b b b b b b b b b b b b b b b b b b b b b b b <.5.",
"X = 6 6 6 6 6 7 6 6 6 6 6 6 6 6 6 6 6 = = = b w.6 6 6 6 8 6 6 6 6 6 6 6 8 6 6 6 7 6 6 6 6 6 8 6 6 6 6 8 6 6 8 6 6 8 6 6 6 6 7 6 6 6 6 6 6 6 6 6 6 8 6 6 6 6 6 6 6 6 b <.",
"X = 6 6 6 6 6 6 6 6 6 6 6 6 6 6 6 6 6 = * * 5.c.8 6 6 6 6 6 6 6 6 6 6 6 6 6 6 6 6 6 6 6 6 6 6 6 6 6 6 6 6 6 6 6 6 6 6 6 6 6 6 6 6 6 6 6 6 6 6 6 6 6 6 6 6 6 6 6 6 6 b <.",
"X * 6 6 6 6 6 6 6 6 6 6 6 6 6 6 6 6 6 * # * e.c.u 6 6 6 6 6 6 6 6 6 6 6 6 6 6 6 6 6 6 6 6 6 6 6 6 6 6 6 6 6 6 6 6 6 6 6 6 6 6 6 6 6 6 6 6 6 6 6 6 6 6 6 6 6 6 6 6 6 c ! ",
"@ * 6 6 6 6 6 6 6 6 6 6 6 6 6 6 6 6 = * @ 8 c.r.2.6 6 6 6 6 6 6 6 6 6 6 6 6 6 6 6 6 6 6 6 6 6 6 6 6 6 6 6 6 6 6 6 6 6 6 6 6 6 6 6 6 6 6 6 6 6 6 6 6 6 6 6 6 6 8 6 6 b P ",
"X * 6 6 6 6 6 6 6 6 6 6 6 6 6 6 6 = = $ @ q e.r.<.6 6 6 6 6 6 6 6 6 6 6 6 6 6 6 7 c P <.b 8 y n P N t 6 6 6 6 6 6 6 6 6 6 6 6 6 6 6 6 t v N c t u M M t 6 6 6 6 6 6 c <.",
"X * 6 6 6 6 6 6 6 6 6 6 6 6 6 6 6 6 = $ @ + u 5.6 6 6 6 6 6 6 6 6 6 6 6 6 6 6 6 a l.j.0.N 6  .l.j.4.c 6 6 6 6 6 6 6 6 6 6 6 6 6 6 6 6 +.z.8.N y a.z.~ t 6 6 6 6 6 6 c P ",
"X = 6 8 6 6 6 6 6 6 6 6 6 6 6 6 6 6 = $ @ @ 7 P 6 6 6 6 6 6 6 6 6 6 6 6 6 6 6 6 r l.l.d.N 6 ;.,.j.3.b y b M N N c u v M c v M b 6 6 = 0 g.h.N X.k.o.u 8 6 6 6 6 6 6 b P ",
"X * 6 6 6 6 6 6 6 6 6 6 6 6 6 6 6 6 = * @ @ t P 8 6 6 6 6 6 6 6 6 6 6 = = = = = r l.a.d.! q d.;.j./ u Q j.z.f.8.b 0.x.3.! x.p.c = 6 = 2 E z.-.z.i.u 8 6 6 6 6 6 6 6 b P ",
"X * 6 6 6 6 6 6 6 6 6 6 6 6 6 6 6 6 = * $ $ t <.6 6 6 6 6 6 6 6 6 6 6 = = = = = r z.%.i.^ k u.{ a.! r j.f 6 i.h.c a x.%.X.x.m t = = = = = -.k.z.} u 6 6 6 6 6 6 6 6 c P ",
"X = 6 6 6 6 6 6 8 6 6 6 6 6 6 6 6 6 6 = & # t 3.6 6 6 6 6 6 7 6 6 6 6 = * * * * 0 z.E t.} Q %.E i.m = 0 ` #.k.j.v = ` d.f.8.u 6 * * * * * E h.i.P M 6 6 6 6 6 6 6 6 c <.",
"X * 6 6 6 6 6 6 6 6 6 8 6 6 6 6 6 6 = = * % i L 2 6 6 6 6 6 6 6 6 = 6 = * $ $ $ 0 z.E X.$.0.( E d.m d d.#.l &.d.n = r z.k.3.M * * $ * $ 4 a.j.z.0.<.t 6 6 6 6 7 6 6 b P ",
"X * 6 6 6 6 6 6 6 6 6 6 6 6 6 6 6 6 = * % B F H Z ; 6 6 6 6 6 6 6 6 = = * $ $ @ 4 x.W x s.p.z E g.g ' j.k * ;.,.n * #.j.j.u.<.u * & $ $ #.j.W &.j.4.N 6 6 6 6 6 6 6 c P ",
"X * 6 6 6 6 6 6 6 6 6 6 6 6 6 6 6 = = # : F K K G Z 2 6 6 6 6 6 6 = = * * $ @ @ 4 x.W w z.z.3 R z.0 x l.W r j.,.t j j.[ [ j.o.b * $ # h j.&.= f j.u.N u 6 6 6 6 6 6 c <.",
"X = 6 6 6 6 6 6 6 6 6 6 6 6 6 6 6 = * @ > A G G S D < 6 6 6 6 6 6 6 = = * # @ @ 4 x.W @ f.u.$ R z.5 & &.j.;.@.j.5 :.;.3 7 :.,.y = $ & ;.j.w * 6  .j.] t 6 6 6 6 6 6 b P ",
"@ * 6 6 6 6 6 6 6 6 6 6 6 6 6 8 2 = * 8 6.J A A Z I <.8 7 6 7 6 6 6 = = * $ # @ @ @ @ @ @ # $ # $ @ $ @ $ # $ # $ & * = = 6 = * * $ $ $ $ * = = 6 6 6 6 6 6 6 6 6 6 b ! ",
"X * 6 6 6 6 6 6 6 6 6 6 3 = v r.n s 7.N 8 , C C C 1 s 5.2.u e.7.8 6 = = * $ $ @ @ @ $ # $ $ $ $ $ $ $ $ $ $ $ $ $ $ * * = = = * * $ $ $ * * = = 6 6 6 6 6 6 6 6 6 6 c P ",
"X * 6 6 6 6 6 6 6 6 6 = * P c.v.b.N = X .   - - O # & * 6 w.r.r.e.b = = * * $ $ @ $ $ $ $ & $ $ $ $ $ $ $ * $ $ * * * = = = = = * * * $ * * = = 6 6 6 6 6 6 6 6 6 6 c <.",
"X = 6 6 6 6 6 6 6 = = * 7.c.w.q.q.* @ X . X X X @ # # @ # u 7.q.v.c.v = = * * * $ & * * $ * * * * $ & * * * * * * * = = 6 = = = * * * * * * = 6 = 6 6 6 6 6 6 6 6 6 c <.",
"X * 6 6 6 6 6 6 3 = * b M c 8 6 * * * $ # @ $ & * & # @ X @ * 6 u v P u = = = = * = * = * = = * * = * = = * * = = = = = = 6 = = = = = = = = = = 6 6 6 6 6 6 6 6 6 6 c P ",
"X = 6 7 6 6 6 6 = * # @ X X @ $ * = = * * * * = = = * @ X X X @ $ = = 6 6 = = = = = = = = = = = = = = = = = = = = = 6 6 6 = = 6 6 = = = 6 = 6 6 6 6 6 7 6 6 6 7 6 6 c P ",
"X $ * * * * * * $ # @ @ @ X @ $ * * * * * * * * * * $ $ @ X X @ @ $ $ * * * * * * * * * * * * * * * * $ * * * * * * & * * * * * & * * * * * * * * * * * * * * * * * $ s ",
"X @ @ @ # @ # @ @ X X X X X X @ @ @ @ @ @ # @ @ @ @ @ X @ X X X X @ @ # @ @ @ @ @ @ @ @ @ @ @ @ @ @ @ @ @ @ @ @ @ @ @ @ $ @ @ # # @ @ @ @ @ @ # @ @ @ @ # @ # @ @ @ @ + "
};
