/* XPM */
static char *NinjaMesh_DetachCap[] = {
/* columns rows colors chars-per-pixel */
"115 24 175 2",
"   c black",
".  c #020202",
"X  c gray2",
"o  c #070707",
"O  c gray3",
"+  c #090909",
"@  c gray4",
"#  c #0B0B0B",
"$  c #0C0C0C",
"%  c gray5",
"&  c #0E0E0E",
"*  c gray6",
"=  c #101010",
"-  c #111111",
";  c gray7",
":  c #131313",
">  c gray8",
",  c #151515",
"<  c #161616",
"1  c gray9",
"2  c #181818",
"3  c #2A2A2A",
"4  c gray17",
"5  c #2C2C2C",
"6  c #2D2D2D",
"7  c gray18",
"8  c #2F2F2F",
"9  c gray19",
"0  c #313131",
"q  c #323232",
"w  c gray20",
"e  c #343434",
"r  c #353535",
"t  c gray21",
"y  c #373737",
"u  c gray22",
"i  c #393939",
"p  c #3A3A3A",
"a  c gray23",
"s  c #3C3C3C",
"d  c gray24",
"f  c #3E3E3E",
"g  c #3F3F3F",
"h  c #055D72",
"j  c #0A6177",
"k  c #0F677C",
"l  c gray25",
"z  c #414141",
"x  c gray26",
"c  c #444444",
"v  c #464646",
"b  c gray28",
"n  c #484848",
"m  c #494949",
"M  c gray29",
"N  c #4C4C4C",
"B  c #4E4E4E",
"V  c gray31",
"C  c #505050",
"Z  c #515151",
"A  c gray32",
"S  c #535353",
"D  c gray33",
"F  c #555555",
"G  c #565656",
"H  c gray34",
"J  c #585858",
"K  c gray35",
"L  c #5A5A5A",
"P  c #5B5B5B",
"I  c gray36",
"U  c #5D5D5D",
"Y  c gray37",
"T  c #5F5F5F",
"R  c #606060",
"E  c gray38",
"W  c #626262",
"Q  c gray39",
"!  c #676767",
"~  c #686868",
"^  c DimGray",
"/  c #6A6A6A",
"(  c gray42",
")  c #6C6C6C",
"_  c #6D6D6D",
"`  c gray43",
"'  c #6F6F6F",
"]  c gray44",
"[  c #717171",
"{  c #727272",
"}  c gray45",
"|  c #747474",
" . c gray46",
".. c #767676",
"X. c #777777",
"o. c gray47",
"O. c #797979",
"+. c gray48",
"@. c #7B7B7B",
"#. c #7C7C7C",
"$. c gray49",
"%. c #7E7E7E",
"&. c #7F7F7F",
"*. c red",
"=. c green",
"-. c #156D82",
";. c #1C7389",
":. c #237A90",
">. c #2A8297",
",. c #32899F",
"<. c #3A91A7",
"1. c #4299AF",
"2. c #49A1B6",
"3. c #51A9BE",
"4. c #03B3DE",
"5. c #59B0C6",
"6. c #60B8CD",
"7. c #67BFD4",
"8. c #6EC6DB",
"9. c #74C9DE",
"0. c #74CCE1",
"q. c #79D1E7",
"w. c #7ED6EB",
"e. c #808080",
"r. c #818181",
"t. c gray51",
"y. c #838383",
"u. c #848484",
"i. c gray52",
"p. c #868686",
"a. c gray53",
"s. c #888888",
"d. c #898989",
"f. c gray54",
"g. c #8B8B8B",
"h. c gray55",
"j. c #8D8D8D",
"k. c #8E8E8E",
"l. c gray56",
"z. c #909090",
"x. c gray57",
"c. c #929292",
"v. c #939393",
"b. c gray58",
"n. c #959595",
"m. c gray59",
"M. c #979797",
"N. c #989898",
"B. c gray60",
"V. c #9A9A9A",
"C. c #9B9B9B",
"Z. c gray61",
"A. c #9D9D9D",
"S. c gray62",
"D. c #9F9F9F",
"F. c #A0A0A0",
"G. c gray63",
"H. c #A2A2A2",
"J. c gray64",
"K. c #A4A4A4",
"L. c #A5A5A5",
"P. c gray65",
"I. c #A7A7A7",
"U. c gray66",
"Y. c #A9A9A9",
"T. c #AAAAAA",
"R. c gray67",
"E. c #ACACAC",
"W. c gray68",
"Q. c #B4B4B4",
"!. c gray73",
"~. c #81D9EF",
"^. c #C0C0C0",
"/. c #C6C6C6",
"(. c #CACACA",
/* pixels */
"$  . .o.o.o.o.o.#.#.#.#.&.&.e.e.e.y.y.y.p.p.a.a.s.s.h.k.h.k.k.k.l.x.x.b.b.n.n.M.N.N.N.N.S.N.S.S.S.S.F.F.F.P.F.P.F.P.P.P.P.U.U.U.U.U.W.U.W.W.W.W.W.W.W.W.W.W.W.W.W.W.W.W.W.W.W.W.W.W.W.W.W.W.W.W.W.W.W.W.W.W.W.W.W.W.W.W.W.W.W.W.W.W.W.",
"O  .G G G K K U P U ~.~.~.U U U I U U I I I U U U U ~.~.~.U I I I U U U I I I U U U U U U U U U U U U U U U U U U U U U U U U U U U U U U K U U U U U K U U K U U U U U U K U U U U U U K U U U U K U U U U K U U U U U K K K G S G W.",
"O [ S G H K P U U w.w.(.w.w.U R R T R R T R T R U w.w.(.w.w.T R T R T R R R T T R R R U U R R R R R U U R R R R U R R R R R U U R R R U U R R R R R U R U R R R U R R R R R U R R R U R R R R R R R U R U R R R U R R U U K K G S G W.",
"$ ' S G H K U U q.q./././.q.q.R Q R R R R R R R q.q./././.q.q.R R R R R R R R R R R R R R R R R R R R R R R R R R R R R R R R R R R R R R R R R R R R R ! R R R R R R R R R R R R R R R R R R R R R R R ! R R R R R R R U U K G G S W.",
"$ ' B S G K U 0.9.^.^.^.^.^.0.0.R R R R Q R R 0.0.^.^.^.^.^.9.0.R R R R R R R R R R R R ! R R R R ! R ! R R R R R R R R R R R R R R R R ! R R R R R R R R R R R R R ! R R R R R R R R R R R R R R R R R R R R R R R R R U U K G S S U.",
"O ' S S K K 8.8.!.!.!.!.!.!.!.8.8.Q Q Q Q R 8.8.!.!.!.!.!.!.!.8.8.Q Q Q Q Q Q Q ! R R ! R R R ! R R R R ! R R R R ! R R ! R R ! ! R R ! R R R ! R ! ! R ! R R R ! R R R ! R R ! ! R R ! R ! R R R ! ! R ! R R R ! R ! R R U K K S S W.",
"$ ' B S G 7.7.Q.Q.Q.Q.Q.Q.Q.Q.Q.7.7.R ! Q 7.7.Q.Q.Q.Q.Q.Q.Q.Q.Q.8.7.! R Q Q Q Q ! R ! R ! R ! R ! ! R ! R R ! ! ! R R ! ! R ! R ! R ! R ! R ! R ! ! R R R R ! ! R ! ! R ! R R ! ! R ! R ! R R ! ! R ! R R R ! ! R ! ! R R U K K S S W.",
"$ ' B S 5.7.W.W.W.W.W.W.W.W.W.W.W.=.=.R =.=.W.W.W.W.W.W.W.W.W.W.W.5.6.R Q 4.4.4.4.R R ! R R R R R R 4.R R ! R R ! R ! R R R ! R R 4.R ! R R R R R R R ! R ! R R R R R R R ! R R R R 4.R ! R ! R R 4.4.4.R ! R R R R R R U U K G S S W.",
"O / B > 5.5.5.P.P.P.P.P.K.P.K.P.=.=.=.2 =.=.=.P.K.P.K.P.P.K.P.P.5.5.5.U . 4.. . U 4.R R R R R R U . 4.R R R R U U R R R R R R R . 4.U R R R R R R R R U R R R R R R R R U R R R R . 4.U U R R R 4.. . R 4.R R U R R R U U K K G S B U.",
"$ ' m : 3.S.3.3.S.S.S.S.S.S.S.=.=.*.=.2 =.*.=.=.S.S.S.S.S.S.S.3.5.C.3.U . 4.K U . U 4.U K 4.4.4.U 4.4.4.U U 4.4.4.U U U 4.4.4.U . 4.U 4.4.U U U U U U 4.4.4.U K 4.4.4.4.U U U 4.4.. 4.U U U U 4.K U U . U U U 4.4.4.U K 4.K 4.4.B B W.",
"# ( m : 2.n.n.2.2.n.n.n.n.n.=.=.*.*.=.2 =.*.*.=.=.n.n.n.b.n.2.2.n.n.2.K . 4.K K K . 4.K 4.. . K 4.. 4.K K 4.. . K 4.K 4.. . K 4.. 4.4.. K 4.K K K K 4.. . K 4.. 4.. . K 4.K 4.. K 4.4.K K K . 4.K K K K K K 4.. . K 4.. 4.4.. B 4.m W.",
"# ( c - 1.k.k.k.1.1.k.k.k.=.=.*.*.*.=.> =.*.*.*.=.=.k.k.k.1.1.l.k.k.1.H . 4.G G G . 4.. 4.4.4.4.4.. 4.G . G 4.4.4.4.. 4.G G . G . 4.G G . 4.G G G . G 4.4.4.4.. 4.G G . 4.. 4.G . . 4.G G G . 4.G K G G G . G 4.4.4.4.. 4.B B . 4.m W.",
"# / x - <.s.p.p.a.<.<.p.=.=.*.*.*.*.=.> =.*.*.*.*.=.=.p.<.<.a.a.p.p.<.S . 4.S S S . 4.. 4.. . . S . 4.S S 4.. . . 4.. 4.S S S S . 4.S S . 4.S S S S 4.. . . 4.. 4.S S . 4.. 4.S S . 4.S S S . 4.S S S S S S 4.. . . 4.. 4.B B . 4.c W.",
"# / g - ,.#.#.e.#.#.,.=.=.*.*.*.*.*.=.> =.*.*.*.*.*.=.=.,.#.&.#.1.#.,.C . 4.B B B 4.B . 4.B B S 4.. 4.B . 4.B B 4.4.. 4.B S B 4.. 4.B B . 4.B S S . 4.B S 4.4.. 4.B B . 4.. 4.B B 4.4.B B S . B 4.S B B 4.. 4.B B 4.4.. 4.4.c . 4.x W.",
"O / s - >.>. . .o. . .=.*.*.*.*.*.=.=.> =.=.*.*.*.*.*.=. .X.X. . .>.>.N . 4.4.4.4.B B . m 4.4.4.m . 4.4.. B 4.4.. 4.. m 4.4.4.m . 4.B B . 4.B m B . m 4.4.. 4.. 4.m B . 4.. m 4.4.. 4.B m B m . m 4.4.4.B . m 4.4.. 4.. 4.c 4.4.x s U.",
"$ / a $ - :.:.' ' [ ' =.*.*.*.*.=.=.m - - =.=.*.*.*.*.=.' ' ' ' Q :.n n . . . . c m c m . . . c m . . c c . . c . c c . . . m m . m c c . c m m c c . . c . m . m m m . c m . . m . c m m m m m . . . m c m . . c . c . 4.. . x s s U.",
"# / y p * - ;.;./ / ! =.*.*.*.=.=.c x c - - =.=.*.*.*.=./ ! ! ;.;.c c c c c c c c c c c c c c c c c c c x c c c c c c c c c c c c c c c c c c c c c c c c c c c c c c c c c c c c c c c c c c c x c c c c c c c x c c . 4.x s s p p U.",
"O ! 9 r y $ - -.-.R R =.*.*.=.=.x s x s g - - =.=.*.*.=.R R -.-.x s x s s x s s x s x s s x s s s x x s x s s x x s s s x s s x s s x s s x x s s x x s s s x s x s x s s x s s x s x s s x s s x s s s x s s x x s s . s p p p r 9 U.",
"$ ' 7 9 r r $ $ k k I =.*.=.=.p p p p p p p $ $ =.=.*.=.U k k p p p p p p p p p p p p p p p p p p p p p p p p p p p p p p p p p p p p p p p p p p p p p p p p p p p p p p p p p p p p p p p p p p p p p r p p p p p p p p r r r r 9 P.",
"# ' 7 7 7 9 r $ $ j j =.=.=.r e 9 r e e r r r $ $ =.=.=.j j e e r 9 r 9 r r r r r 9 r 9 r r r r 9 r r 9 r r 9 r r 9 r r 9 r r r r r 9 r r r 9 r 9 r r 9 r r 9 r r 9 r 9 r r r r r 9 r 9 r r r r r 9 r r r r r r r r 9 r 9 9 9 9 7 7 F.",
"O ' 3 3 7 7 7 7 $ $ h =.=.9 7 7 9 9 9 9 7 9 9 9 $ $ =.=.h 9 9 9 9 7 9 9 7 9 9 7 9 7 9 9 7 9 9 7 9 9 9 9 9 9 9 9 9 9 9 9 9 7 9 9 7 9 9 7 9 7 9 7 9 9 7 9 9 9 9 9 9 7 9 9 7 9 9 7 9 7 9 9 7 9 9 7 9 7 9 7 9 7 9 9 9 9 9 9 7 7 7 7 3 7 F.",
"$ ' 3 3 3 3 3 3 7 O O $ 4 4 4 3 4 4 4 3 4 4 4 4 7 O O $ 4 4 4 3 3 7 7 3 3 3 3 7 3 7 7 3 3 3 3 7 3 7 3 3 3 3 3 3 3 3 7 3 3 7 7 3 7 3 3 7 7 3 7 7 3 7 3 7 3 7 3 3 7 3 3 7 3 7 7 3 3 7 7 3 7 3 3 7 3 7 3 3 3 7 7 3 3 7 3 3 3 3 3 3 3 3 F.",
"X ' ' ' ' ' ' ' ' ( ( ' ' ' ' ' ' ' ' ( ( ' ' ' ' ( ( ' ' ' ' ( ' ' ' / ' ' ' ' ' ' ' / ' ' ' ' ' ' ' ' ' ' ' ' ' ' ' ' ' [ ' [ [  . . .[  . . . .o.o.o.o.o.#.#.#.#.#.e.e.e.e.e.p.e.p.p.p.s.s.s.k.k.k.k.k.k.x.x.x.x.n.n.N.N.n.N.N.S.S.",
". X O O X O X X O O O O O X O O O X O O O O O X O O O O O X O O X O O O O O X X X O O O O O X O X O X O O O X X O X O O X O O O O O O O O O O O O O . . . . . . . . . . . . . . . . . . . . . . . . . . . . . . . . . . . . . . . . . "
};
