/* XPM */
static char *Ninja_Fracture_Icon[] = {
/* columns rows colors chars-per-pixel */
"32 32 199 2",
"   c #111111",
".  c gray7",
"X  c #131313",
"o  c gray8",
"O  c #151515",
"+  c #161616",
"@  c gray9",
"#  c #181818",
"$  c #191919",
"%  c gray10",
"&  c #1B1B1B",
"*  c gray11",
"=  c #1D1D1D",
"-  c #1E1E1E",
";  c gray12",
":  c #202020",
">  c gray13",
",  c #222222",
"<  c #232323",
"1  c gray14",
"2  c #252525",
"3  c gray15",
"4  c #272727",
"5  c #282828",
"6  c gray16",
"7  c #2A2A2A",
"8  c gray17",
"9  c #2C2C2C",
"0  c #2D2D2D",
"q  c gray18",
"w  c #2F2F2F",
"e  c gray19",
"r  c #313131",
"t  c #323232",
"y  c gray20",
"u  c #343434",
"i  c #353535",
"p  c gray21",
"a  c #373737",
"s  c gray22",
"d  c #393939",
"f  c #3A3A3A",
"g  c gray23",
"h  c #3C3C3C",
"j  c gray24",
"k  c #3E3E3E",
"l  c #3F3F3F",
"z  c gray25",
"x  c #414141",
"c  c gray26",
"v  c #444444",
"b  c gray27",
"n  c #464646",
"m  c gray28",
"M  c #484848",
"N  c #494949",
"B  c gray29",
"V  c #4B4B4B",
"C  c #4C4C4C",
"Z  c gray30",
"A  c #4E4E4E",
"S  c gray31",
"D  c #505050",
"F  c #515151",
"G  c gray32",
"H  c #535353",
"J  c gray33",
"K  c #555555",
"L  c #565656",
"P  c #585858",
"I  c gray35",
"U  c #5A5A5A",
"Y  c #5B5B5B",
"T  c gray36",
"R  c #5D5D5D",
"E  c gray37",
"W  c #5F5F5F",
"Q  c #606060",
"!  c gray38",
"~  c #626262",
"^  c gray39",
"/  c #646464",
"(  c #656565",
")  c gray40",
"_  c #676767",
"`  c #686868",
"'  c DimGray",
"]  c #6A6A6A",
"[  c gray42",
"{  c #6C6C6C",
"}  c gray43",
"|  c #6F6F6F",
" . c gray44",
".. c #717171",
"X. c #727272",
"o. c gray45",
"O. c #747474",
"+. c gray46",
"@. c #767676",
"#. c #777777",
"$. c gray47",
"%. c #797979",
"&. c gray48",
"*. c #7C7C7C",
"=. c gray49",
"-. c #7E7E7E",
";. c #7F7F7F",
":. c #808080",
">. c #818181",
",. c gray51",
"<. c #838383",
"1. c #848484",
"2. c gray52",
"3. c #868686",
"4. c gray53",
"5. c #888888",
"6. c #898989",
"7. c gray54",
"8. c #8B8B8B",
"9. c gray55",
"0. c #8D8D8D",
"q. c #8E8E8E",
"w. c gray56",
"e. c #909090",
"r. c gray57",
"t. c #929292",
"y. c #939393",
"u. c gray58",
"i. c #959595",
"p. c gray59",
"a. c #979797",
"s. c #989898",
"d. c gray60",
"f. c #9A9A9A",
"g. c #9B9B9B",
"h. c gray61",
"j. c #9D9D9D",
"k. c gray62",
"l. c #A0A0A0",
"z. c gray63",
"x. c #A2A2A2",
"c. c gray64",
"v. c #A4A4A4",
"b. c #A5A5A5",
"n. c gray65",
"m. c gray66",
"M. c #A9A9A9",
"N. c #AAAAAA",
"B. c gray67",
"V. c #ACACAC",
"C. c gray68",
"Z. c #AEAEAE",
"A. c #AFAFAF",
"S. c gray69",
"D. c #B1B1B1",
"F. c #B2B2B2",
"G. c gray70",
"H. c #B4B4B4",
"J. c gray71",
"K. c #B6B6B6",
"L. c #B7B7B7",
"P. c gray72",
"I. c #B9B9B9",
"U. c gray73",
"Y. c #BBBBBB",
"T. c #BCBCBC",
"R. c gray",
"E. c #C0C0C0",
"W. c #C1C1C1",
"Q. c gray76",
"!. c #C3C3C3",
"~. c gray77",
"^. c #C6C6C6",
"/. c gray78",
"(. c #C8C8C8",
"). c #CACACA",
"_. c #CBCBCB",
"`. c #CDCDCD",
"'. c #CECECE",
"]. c gray81",
"[. c #D0D0D0",
"{. c gray82",
"}. c #D2D2D2",
"|. c LightGray",
" X c gray83",
".X c #D5D5D5",
"XX c gray84",
"oX c #D7D7D7",
"OX c #D8D8D8",
"+X c gray85",
"@X c #DADADA",
"#X c gray86",
"$X c gainsboro",
"%X c #DDDDDD",
"&X c gray87",
"*X c gray88",
"=X c #E1E1E1",
"-X c #E2E2E2",
";X c gray100",
/* pixels */
"W 0.e.r.y.i.a.s.g.h.j.l.z.c.b.n.m.M.B.V.Z.A.D.D.G.H.J.K.L.P.I.~.",
"x ~ / _ ' { } ..o.@.$.&.=.;.>.1.3.5.7.9.q.e.t.u.i.a.d.f.h.j.k.I.",
"l Q ~ / _ ' { } ..o.@.$.&.=.;.>.1.3.5.7.9.q.e.t.u.i.a.d.f.h.j.P.",
"j R Q ~ / _ ' { } ..o.@.$.&.=.;.>.1.3.5.7.9.q.e.t.u.i.a.d.f.h.L.",
"g Y R Q ~ / _ ' { } ..o.@.$.&.=.;.>.1.3.5.7.9.q.e.t.u.i.a.d.f.K.",
"f P Y W ! ( ` Z.'.`.`.`.[.[.{. Xj.4.:.,.U. X[.'.[.}.|.'.S.d.d.J.",
"s L P T Y U Q.}..X+XOXOXOXoX#X[.7.*.o.{ ] 5.A.R.^..XXX#XoXs.a.H.",
"a H L L M g k.D.J.W.{..X X.X.XC.%.O.o.A Z n N o.d.v.L.@X{.p.i.G.",
"i F G { s > 8 ..t.C.R.).[.XXW.&.| =.O.| (.-.p 8 0 } m.R.p.t.u.D.",
"t C S M.d.n ; & u p.V.L.^.!.&.] } G.OXOXoX&XJ.j 2 6 H =.3.e.t.D.",
"w c b ]. XK.f = @ ; L 0.3.o./ / y.{.XX.X.X+X#X'.[ d H #.q.w.e.A.",
"8 t w G.[.$X-Xi., & : k V P T b./.].}.|.|..XOX#X*Xv. .;.6.0.q.Z.",
"4 < & v.E.oX$X=X6.0 r m K D l h.F.T.[.|.|.|. XXX@X$X/.6.4.7.9.V.",
"2 - X v.L.Y.h._ A B @.q.S.+.4 4 <.S./.|.|.|.|. X.X+X$XK.5.5.7.B.",
"< =   k.7./ m V S  .A.@X$XY.8 % 7 l.I.`.{.|.|. X.XXX#XQ.2.3.5.M.",
", * . / w d c A <.m.|..X+X%X4., $ v x.N.C.D.D.F.F.I.`.E.<.1.3.m.",
"> : & r r x N <._.)././.).{..X$.; * o.*.8.q.w.w.w.y.v.Z.,.>.1.n.",
", 6 9 i f S H.Z.m.n.c.c.b.Z.T.U.0.6 > 0 p d d s x F | ;.>.;.>.b.",
"1 u a d t Y 2.1.>.;.;.;.>.,.r.f.6.i 8 9 9 9 9 q p M ` %.=.-.;.c.",
"1 a a q ; + . . . X X o # , i b B M M M N V C S G T ] O.$.&.=.z.",
"< p u 8 : * = - ; : > , < 5 p V K P I Y E W ! ^ ) ' } X.@.$.&.l.",
", u i y r r y u p d f j k x M D L P Y R Q ~ / ) ` [ } ..o.@.$.j.",
": t u y 0 ;X;X;X;X;Xb m B C A F H L P Y R Q ~ / _ ~ E ;X..o.@.h.",
"; e t 7 & ;X= - 4 s c b m B C A F H L P Y R Q ~ / J x ;X} ..o.g.",
"- q e 2 @ ;X7 8 r p s ;Xh ;Xb k ;X;X;XL G B ;X;X;Xk ;X;X;X} ..s.",
"= 9 q 1 + ;X;X;X;Xr < ;X;Xs i ;X3 9 j ;Xz ;X0 u h ;X$ ;XT { } a.",
"* 8 9 , . ;X% , r 8 @ ;Xe p 8 < ;X;X;X;Xw ;Xc k f e 2 ;X! ' { i.",
"& 6 8 > o ;X2 7 y 7 $ ;Xf s 6 ;X< * = ;X5 ;XL G D z e ;X/ _ ' y.",
"% 5 6 : + ;Xe t u 5 * ;Xh t 1 ;Xw ; ;X;X4 ;XH F Z ;Xq ;X~ / _ r.",
"$ 3 5 ; O ;Xq e t 4 & ;Xf r < 5 ;X;X& ;X8 r ;X;X;Xa 5 ;X;X~ / e.",
"# 2 3 : % < 9 q e 6 : 9 s p 0 < 1 2 4 i a 8 4 0 k z 9 y F Q ~ 0.",
"o # $ # # % = - ; - - > 1 3 2 : , 3 4 9 0 6 3 8 u u w e d l x W "
};
