/* XPM */
static char *NinjaMesh_EdgeAngle[] = {
/* columns rows colors chars-per-pixel */
"75 24 177 2",
"   c black",
".  c gray1",
"X  c gray2",
"o  c #070707",
"O  c gray3",
"+  c #090909",
"@  c gray4",
"#  c #0B0B0B",
"$  c #0C0C0C",
"%  c gray5",
"&  c #0E0E0E",
"*  c gray6",
"=  c #101010",
"-  c #111111",
";  c gray7",
":  c #131313",
">  c gray8",
",  c #151515",
"<  c #161616",
"1  c gray9",
"2  c #181818",
"3  c #2C2C2C",
"4  c #2D2D2D",
"5  c gray18",
"6  c #2F2F2F",
"7  c gray19",
"8  c #313131",
"9  c #323232",
"0  c gray20",
"q  c #343434",
"w  c #353535",
"e  c gray21",
"r  c #373737",
"t  c gray22",
"y  c #393939",
"u  c #3A3A3A",
"i  c gray23",
"p  c #3C3C3C",
"a  c gray24",
"s  c #3E3E3E",
"d  c #3F3F3F",
"f  c #025A6F",
"g  c gray25",
"h  c #414141",
"j  c gray26",
"k  c #434343",
"l  c #444444",
"z  c gray27",
"x  c #464646",
"c  c gray28",
"v  c #484848",
"b  c #494949",
"n  c gray29",
"m  c #4B4B4B",
"M  c #4C4C4C",
"N  c gray30",
"B  c #4E4E4E",
"V  c gray31",
"C  c #505050",
"Z  c #515151",
"A  c gray32",
"S  c #535353",
"D  c gray33",
"F  c #555555",
"G  c #555757",
"H  c #565656",
"J  c gray34",
"K  c #585858",
"L  c gray35",
"P  c #5A5A5A",
"I  c #5B5B5B",
"U  c gray36",
"Y  c #5D5D5D",
"T  c gray37",
"R  c #5F5F5F",
"E  c #606060",
"W  c gray38",
"Q  c #626262",
"!  c gray39",
"~  c #646464",
"^  c #656565",
"/  c gray40",
"(  c #676767",
")  c #686868",
"_  c DimGray",
"`  c #6A6A6A",
"'  c gray42",
"]  c #6C6C6C",
"[  c #6D6D6D",
"{  c gray43",
"}  c #6F6F6F",
"|  c gray44",
" . c #717171",
".. c #727272",
"X. c gray45",
"o. c #777777",
"O. c gray47",
"+. c red",
"@. c #3B7F90",
"#. c #3C8091",
"$. c #3D8191",
"%. c #3F8292",
"&. c #408393",
"*. c #428494",
"=. c #438595",
"-. c #478797",
";. c #4A8998",
":. c #4C8A9A",
">. c #4E8C9B",
",. c #508D9C",
"<. c #518E9C",
"1. c #538F9E",
"2. c #5892A0",
"3. c #5993A1",
"4. c #5B94A2",
"5. c #5D95A3",
"6. c #6097A5",
"7. c #6198A5",
"8. c #6299A6",
"9. c #659BA8",
"0. c #679CA9",
"q. c #699DAA",
"w. c #6C9FAC",
"e. c #6DA0AC",
"r. c #6EA0AD",
"t. c #6FA1AD",
"y. c #70A2AE",
"u. c #71A2AE",
"i. c #74A4B0",
"p. c #7AA8B4",
"a. c #7BA9B4",
"s. c #7CAAB5",
"d. c #7EABB6",
"f. c #03B3DE",
"g. c #02CBDB",
"h. c #838383",
"j. c #8B8B8B",
"k. c #909090",
"l. c #939393",
"z. c #959595",
"x. c gray59",
"c. c #979797",
"v. c #989898",
"b. c gray60",
"n. c #9A9A9A",
"m. c #9B9B9B",
"M. c gray61",
"N. c #9D9D9D",
"B. c gray62",
"V. c #9F9F9F",
"C. c #80ACB7",
"Z. c #83AEB9",
"A. c #84AFB9",
"S. c #85AFBA",
"D. c #8AB3BD",
"F. c #8DB5BE",
"G. c #8EB5BF",
"H. c #A0A0A0",
"J. c gray63",
"K. c #A2A2A2",
"L. c gray64",
"P. c #A4A4A4",
"I. c #A5A5A5",
"U. c gray65",
"Y. c #A7A7A7",
"T. c gray66",
"R. c #A9A9A9",
"E. c #AAAAAA",
"W. c gray67",
"Q. c #ACACAC",
"!. c gray68",
"~. c #AEAEAE",
"^. c gray69",
"/. c #B4B4B4",
"(. c #92B8C1",
"). c #93B9C2",
"_. c #98BCC5",
/* pixels */
": h.c.l.l.c.c.c.b.b.m.M.M.M.H.H.H.H.H.H.H.P.P.P.I.I.I.T.T.T.T.E.E.E.W.W.W.!.!.!.!.!.!.!.^.!.!.!.!.!.!.^.!.!.^.!.!.^.!.!.^.!.!.^.!.!.^.!.!.!.!.!.!.^./.",
"& O.( Q ( ( ( ) ) ' ' ' { ) ) { [ { { [ { { { { { { { { } } } } } } } }  .}  .} {  . . . . . . . . . . . . . . . . . . . . . . . . . . . .{ { { ) O.E.",
":  .I D f f I T T T T T T T R T T T T f f T T T T T T T T T T T T T T T T T R T T T T T T T T T T T T T T T T T T T T T T T T T T T T T T I D I D T I.",
"&  .I , f f f T Q T Q T T Q R Q E E f f f E E E E E E E E E E E E E E E E E E E Q T Q T Q Q T Q T Q T Q T Q T T Q T Q T T Q T Q T Q T T T I I D I ( I.",
": { D , f ;.f f f f f f f f f f f f f w.f Q E Q Q E Q E Q E Q E Q E Q E Q E Q E Q T Q Q Q T Q Q Q Q Q Q T Q Q Q T Q Q Q Q Q Q Q Q T Q T T I I I D Q I.",
"& { D , f =.;.>.3.5.q.r.f Z.D.(.(.A.p.i.f Q Q Q Q Q Q Q Q Q Q Q Q Q Q Q Q Q Q Q Q Q Q Q Q Q Q Q Q Q Q Q Q Q Q Q Q Q Q Q Q Q Q Q Q Q Q Q T I I D D Q I.",
": ) D , f =.;.<.3.6.0.r.f d.F._.(.A.p.i.f Q Q Q Q Q Q Q Q Q Q Q Q Q g.Q Q Q Q Q Q Q Q Q Q Q Q Q Q Q Q Q Q Q Q Q Q Q Q Q Q Q Q Q Q Q Q Q T I I D D T I.",
"& ) A , f =.;.<.3.7.0.r.f d.(._.(.A.p.i.f E E Q Q E Q E Q E Q E E 2 g.Q E Q E Q Q Q T Q f.Q Q Q Q Q T Q Q Q T Q Q Q T Q Q Q T f.Q Q T Q T I I I D T I.",
"& ( C : f =.;.<.3.7.0.r.f C.F._.(.S.p.i.f Q E E +.+.E E Q T Q T E 2 g.E E E E E E E E f.Q f.Q T Q T Q Q T T Q T T Q T Q T Q   f.T Q T T T I D D A T I.",
"& ^ B : f =.;.<.3.7.0.y.f C.F._.(.S.p.i.f T T T T +.+.T U T U T T 1 g.I T I T I T T   f.  f.T I T f.T f.f.T T T T f.f.T f.T   f.T T T f.f.f.D A B I H.",
"$ ! M : f *.;.<.3.7.q.r.f C.G._.(.S.p.y.f I I I I I +.+.I I T I I 2 g.I I I I I I T   f.  f.I I   f.f.  I f.I I f.  I f.f.I   f.I I f.    D f.B B D I.",
"$ W c : f *.;.<.3.7.0.r.f C.G._.(.A.p.y.f D D D D D D +.+.D D D D 2 g.D G G D D D D f.D   D f.D   f.D D   f.D   f.D     f.D   f.D   f.D A   f.B v D H.",
"$ T x - f &.;.<.2.7.0.t.f C.G._.(.S.p.w.f A A A D A D A +.+.A A S , g.S S S S S S   f.f.f.f.f.D   f.A A   f.D   f.A D   f.A   f.A   f.f.f.f.f.v v A H.",
"$ Y k - f &.;.<.3.7.0.y.f C.G._.(.A.p.q.f C A C C C C A A +.+.A C > g.C C C C C A   f.      f.B   f.A A   f.A   f.A A   f.A   f.A   f.      v x x A M.",
"$ Y j - f #.;.<.3.7.0.r.f C.G._.(.A.p.0.f M M M M M M M B v +.+.M : g.M M M M M M f.B B B   B f.  f.v B   f.B   f.v v f.f.B   f.B   f.B v v f.j j B M.",
"$ Y d & f #.;.<.3.7.q.y.f C.G._.(.A.p.7.f v v v v v v v v v v +.+.: g.v v v v v   f.x v x v   f.  f.v v   f.v   v f.f.  f.v   f.v   v f.f.f.j s s B M.",
"$ Y p & f #.;.<.3.7.0.y.f C.F._.G.D.p.4.f k k k x k k k k k k k +.+.g.j j j j j   j j j j x   j   j x j   j j x     j   f.j   j j l       s s u u x b.",
"# Y u $ f f ;.<.3.7.0.y.f C.F._.G.A.p.:.f d d g.g.g.g.g.g.g.g.g.g.g.g.s s s s s s s s s s s s s s s s s s s s s f.f.f.f.s s s s s s s s s u u u e x c.",
"$ Y r $ $ f f <.4.7.0.y.f C.F._.).A.1.f f y % % % % % % % % % % & & u u u u u u u u u u u u u u e u u u u u u         u u u u u u u u u e e e 8 8 j l.",
"# I e 5 $ $ f f f ;.2.w.f d.d.w.<.f f f 0 0 0 0 0 0 0 0 0 0 e 0 8 q 8 8 e 8 e 8 e 8 8 e 8 8 8 8 8 e 8 8 8 e 8 8 8 e 8 e 8 8 e 8 8 q 8 8 8 8 8 5 5 j j.",
"$ L e 3 3 # # $ f f f f f f f f f f $ 7 6 6 6 6 6 6 6 6 6 6 6 6 8 5 7 5 5 5 8 5 5 5 5 8 5 5 5 5 8 5 5 8 5 5 5 8 5 8 5 5 5 8 5 5 5 5 7 7 5 5 5 5 5 e j.",
"$ ( z d j h h - - - - - - - - - - k k k k k h k k k k k k k k x j l j l j x x j x j j x x x x x x x x x x x x x x x v x v v v v v v v v v v v v v D b.",
"O v D S C A A A A A A A A A A A Z Z Z Z Z Z Z Z Z Z Z Z Z Z Z Z A D D D A D D D D D D I D I I I I T I I T T I T Q T Q Q Q Q ( Q Q ( ! ( ( ( ( ( ) { { ",
". X O O O O O o O O O O O O O O O O O o # O O o O o # O O O O O + o + + + + & + + + + + + + + + + + + + + & + & & + + & + & + & # & & & # & & & & + & "
};
