/* XPM */
static char *NinjaMesh_WeldVerts[] = {
/* columns rows colors chars-per-pixel */
"75 24 131 2",
"   c black",
".  c gray1",
"X  c gray2",
"o  c #070707",
"O  c gray3",
"+  c #090909",
"@  c gray4",
"#  c #0B0B0B",
"$  c #0C0C0C",
"%  c gray5",
"&  c #0E0E0E",
"*  c gray6",
"=  c #101010",
"-  c #111111",
";  c gray7",
":  c #131313",
">  c gray13",
",  c #222222",
"<  c #232323",
"1  c gray15",
"2  c #2C2C2C",
"3  c #2D2D2D",
"4  c gray18",
"5  c #2F2F2F",
"6  c gray19",
"7  c #313131",
"8  c #323232",
"9  c gray20",
"0  c #343434",
"q  c #353535",
"w  c gray21",
"e  c #373737",
"r  c gray22",
"t  c #393939",
"y  c #3A3A3A",
"u  c gray23",
"i  c #3C3C3C",
"p  c gray24",
"a  c #3E3E3E",
"s  c #3F3F3F",
"d  c gray25",
"f  c #414141",
"g  c gray26",
"h  c #434343",
"j  c #444444",
"k  c gray27",
"l  c #464646",
"z  c gray28",
"x  c #484848",
"c  c #494949",
"v  c gray29",
"b  c #4B4B4B",
"n  c #4C4C4C",
"m  c gray30",
"M  c #4E4E4E",
"N  c gray31",
"B  c #505050",
"V  c #515151",
"C  c gray32",
"Z  c #535353",
"A  c gray33",
"S  c #555555",
"D  c #565656",
"F  c gray34",
"G  c #585858",
"H  c gray35",
"J  c #5A5A5A",
"K  c #5B5B5B",
"L  c gray36",
"P  c #5D5D5D",
"I  c gray37",
"U  c #5F5F5F",
"Y  c #606060",
"T  c gray38",
"R  c #626262",
"E  c gray39",
"W  c #646464",
"Q  c #656565",
"!  c gray40",
"~  c #676767",
"^  c #686868",
"/  c DimGray",
"(  c #6A6A6A",
")  c gray42",
"_  c #6C6C6C",
"`  c #6D6D6D",
"'  c gray43",
"]  c #6F6F6F",
"[  c gray44",
"{  c #717171",
"}  c #727272",
"|  c gray45",
" . c #777777",
".. c gray47",
"X. c red",
"o. c #FF5050",
"O. c #5EACBF",
"+. c #03B3DE",
"@. c #7DE6FF",
"#. c #838383",
"$. c #8B8B8B",
"%. c #909090",
"&. c #939393",
"*. c #959595",
"=. c gray59",
"-. c #979797",
";. c #989898",
":. c gray60",
">. c #9A9A9A",
",. c #9B9B9B",
"<. c gray61",
"1. c #9D9D9D",
"2. c gray62",
"3. c #9F9F9F",
"4. c #A0A0A0",
"5. c gray63",
"6. c #A2A2A2",
"7. c gray64",
"8. c #A4A4A4",
"9. c #A5A5A5",
"0. c gray65",
"q. c #A7A7A7",
"w. c gray66",
"e. c #A9A9A9",
"r. c #AAAAAA",
"t. c gray67",
"y. c #ACACAC",
"u. c gray68",
"i. c #AEAEAE",
"p. c gray69",
"a. c #B4B4B4",
/* pixels */
": #.-.&.&.-.-.;.;.;.;.1.1.<.1.3.1.5.5.5.5.5.8.9.9.9.9.9.9.e.e.e.e.e.e.e.u.y.u.u.u.u.u.u.u.p.u.u.u.u.u.u.u.u.u.u.u.u.u.u.u.u.p.u.u.u.u.u.p.u.u.u.u.u.a.",
"& ..~ R ~ ~ ~ ^ ^ ' _ _ ' _ _ ' ' ' ' ' ' ' ' ' ' ' ' ' ' ' { ' { { [ [ { { [ [ { { { { { { { { { { { { { { { { { { { { { { { { { { { { ' ' ' ' '  .e.",
": { K A A K o.K I I I o.I I I I o.I I I I o.I I I I I I I I I I I I I I I I I I I I I I I I I I I I R I I I I I R I I I I I I I I I I I I K K A A I 9.",
"& { K Z A X.X.o.    X.X.o.    X.X.o.    X.X.o.Y R I R R R I R I Y Y Y Y Y Y Y Y I R I I R R I R I R I R R I R I R I R I R I R R I R I I I K A K K ~ 9.",
": ' A Z s g X.@.@.O.O.X.@.@.O.O.X.@.@.O.O.X.R Y R Y R Y R Y R Y R Y R Y R R Y R I R R R R R I R R R R R I R R R R R I R R R I R I R R I I K K K A R 9.",
"& ' A Z A g & @.@.@.O.  @.@.@.O.  @.@.@.O.  R R R R R R R R R R R R R R R R R R R R R R R R R R R R R R R R R R R R R R R R R R R R R R I K K A A R 9.",
": ^ A N A K : @.@.@.@.  @.@.@.@.  @.@.@.@.  R R R R R R R R R R R R R R R R R R R R R R R R R R R R R R R R R R R R R R R R R R R R R R I K K A A I 9.",
"& ^ Z Z A A o.@.@.@.@.o.@.@.@.@.o.@.@.@.@.o.R R R Y R Y R Y R Y R Y R Y R Y R Y R R R +.I R R R +.R I R R +.R I I R R R I R +.R R R R I I +.K K A I 9.",
"& ~ N N Z X.X.o.    X.X.o.    X.X.o.    X.X.o.I Y Y Y Y Y I Y I I I Y Y I R I I R Y   +.I R I +.I +.R I   +.R I R I I R I   +.R I R I I   +.A A Z K 9.",
"& W N n y s X.@.@.O.O.X.@.@.O.O.X.@.@.O.O.X.I I I L I I I I I I I I I I I K I I I K   +.I I   +.  +.I I +.K I I +.+.+.I I   +.I I I +.+.  +.A Z N K 9.",
"$ R n v n i & @.@.@.O.  @.@.@.O.  @.@.@.O.  K I K K K K K K I K K K K K K K K K K I   K +.I   +.  +.K   +.K K +.    I +.K   +.K K +.  K +.+.Z N N A 5.",
"$ R z k v n : @.@.@.@.  @.@.@.@.  @.@.@.@.  A A A Z F A A A A A A A A Z K A A A A A A   +.A +.A   A +.  +.A   +.A A   +.A   +.A   +.A     +.N v v A 5.",
"$ I k j z v o.@.@.@.@.o.@.@.@.@.o.@.@.@.@.o.Z Z Z Z Z Z Z Z Z Z A A Z Z Z Z Z Z Z Z Z   +.  +.Z A   +.  +.Z   +.+.+.+.+.Z   +.Z   +.Z Z   +.N v k Z 5.",
"$ K j g k X.X.o.    X.X.o.    X.X.o.    X.X.o.N Z N N N Z N N N N Z N N N Z N N N Z Z   +.  +.N Z   +.  +.N   +.      N Z   +.Z   +.Z N   +.v k k Z 1.",
"$ K g s 6 6 X.@.@.O.O.X.@.@.O.O.X.@.@.O.O.X.n n n n N v b n v N v N v N v N v N v N v   N +.v N N   N +.v N   +.N v N +.N   +.v   +.N v   +.k g g N 1.",
"$ I s y s 5 & @.@.@.O.  @.@.@.O.  @.@.@.O.  z v z z v z v k v k v k v k v k v k v k v k   +.v k k k   +.v v   k +.+.+.v k   +.k   k +.+.+.+.g s s v ;.",
"$ I i w y i = @.@.@.@.  @.@.@.@.  @.@.@.@.  h h g g h g g h g g g g g g g g g g g g g g   g g g k g   g g g g       g g g   g g g         s s y y k ;.",
"$ K y 0 w t o.@.@.@.@.o.@.@.@.@.o.@.@.@.@.o.s s s s s s s s s s s s s s s s s s s s s s s s s s s s s s s s s s s s s s s s s s s s s s s y y y w k -.",
"$ K t 6 9 X.X.o.    X.X.o.    X.X.o.    X.X.o.y y y y y y y y y y y y y y y y y y w y y y w y y y y y y y y y y y y y y y y y y y y y y w w w 6 6 g &.",
"$ K w 5 , < X.6 9 1 1 X.9 9 1 1 X.9 9 1 1 X.9 6 6 w 6 6 6 9 6 w w 6 6 w 6 6 w 6 w 6 w 6 w 6 w 6 6 w 6 6 w 6 w 6 6 6 6 w 6 w 6 6 w 6 6 6 6 6 6 5 5 s &.",
"# K w 2 2 > 2 5 5 5 , 5 5 5 5 , 5 5 5 5 < 5 5 5 5 5 5 5 5 5 5 5 5 5 5 5 5 5 5 5 5 5 5 5 5 5 5 5 5 5 5 5 5 5 5 5 5 5 5 5 6 6 5 5 5 5 5 5 5 5 5 2 2 w $.",
"$ ~ k s g g g s g g g g g g g g g g g g g g g g g g g g g h g g g g k g k k k g k g k k k k k k k k k k k k k v k v k k v k k v k v v v k v k v v A -.",
"o z A Z Z Z Z Z Z Z Z Z Z Z Z Z Z Z Z Z Z Z Z Z Z Z Z Z Z Z Z Z Z A A A A A A A A A A K A K K K K I K I I I I I R I R R R R ~ R R ~ ~ ~ ~ ~ ~ ~ ^ ' ' ",
". X o o o o o o o o o o o o + o o X o + X + o o o + X + o o o + + + X + + + + + + + + + + + + + + + + + + & + + & + + & + & + & & + & + & & & & & + & "
};
