/* XPM */
static char *NinjaUV_SnapBot[] = {
/* columns rows colors chars-per-pixel */
"84 24 106 2",
"   c gray8",
".  c #161615",
"X  c #191919",
"o  c #1B1B18",
"O  c #1B1B1B",
"+  c #1D1D1D",
"@  c #1E1E1E",
"#  c #20201F",
"$  c #25251F",
"%  c #262621",
"&  c #282823",
"*  c #292923",
"=  c #292926",
"-  c #2D2D27",
";  c #292928",
":  c gray16",
">  c gray18",
",  c #2F2F2E",
"<  c #2F2F2F",
"1  c #31312A",
"2  c #32322A",
"3  c #32322D",
"4  c #33332E",
"5  c #323232",
"6  c #353535",
"7  c gray21",
"8  c #373736",
"9  c #373737",
"0  c #383830",
"q  c #383833",
"w  c #3A3A34",
"e  c #383836",
"r  c #3B3B37",
"t  c gray22",
"y  c #393938",
"u  c #393939",
"i  c #3B3B3A",
"p  c gray23",
"a  c #3F3F3A",
"s  c #3C3C3C",
"d  c gray24",
"f  c #43433E",
"g  c #47473D",
"h  c #46463E",
"j  c #47473E",
"k  c gray25",
"l  c #414140",
"z  c gray26",
"x  c #434343",
"c  c #474741",
"v  c #464642",
"b  c #444444",
"n  c gray27",
"m  c #464645",
"M  c #4B4B42",
"N  c #4C4C41",
"B  c #4E4E42",
"V  c #4A4A45",
"C  c #484847",
"Z  c #4E4E44",
"A  c #494948",
"S  c #4D4D4B",
"D  c #4E4E4A",
"F  c #505046",
"G  c #505047",
"H  c #535347",
"J  c #525249",
"K  c #53534A",
"L  c #53534C",
"P  c #55554C",
"I  c #54544F",
"U  c #58584C",
"Y  c #5B5B4D",
"T  c #58584F",
"R  c #545450",
"E  c #565651",
"W  c #585853",
"Q  c #5D5D53",
"!  c #5F5F52",
"~  c #5B5B55",
"^  c #5D5D57",
"/  c #5E5E56",
"(  c #606055",
")  c #626255",
"_  c #63635A",
"`  c #63635B",
"'  c #656559",
"]  c #67675A",
"[  c #64645C",
"{  c #66665D",
"}  c #68685F",
"|  c gray39",
" . c gray40",
".. c #6A6A60",
"X. c #6C6C61",
"o. c #717161",
"O. c #737363",
"+. c #717165",
"@. c #727266",
"#. c #7D7D6F",
"$. c #44FF00",
"%. c #818181",
"&. c gray51",
"*. c #929292",
"=. c #A4A4A4",
"-. c gray100",
/* pixels */
"  | %.%.%.%.%.%.%.%.%.%.%.%.%.%.%.%.%.%.%.%.%.%.%.%.%.%.%.%.%.%.%.%.%.%.%.%.%.%.%.%.%.%.%.%.%.%.%.%.%.%.%.%.%.%.%.%.%.%.%.%.%.%.%.%.%.%.%.%.%.%.%.%.%.%.%.%.%.%.%.%.*.=.",
"O >  . . . . . . . . . . . . . . . . . . . . . . . . . . . . . . . . . . . . . . . . . . . . . . . . . . . . . . . . . . . . . . . . . . . . . . . . . . . . . . . .&.*.",
"@ 9 b b b b b b b b b b b b b b b b b b b b b b b b b b b b b b b b b b b b b b b b b b b b b b b b b b b b b b b b b b b b b b b b b b b b b b b b b b b b b b b b  .%.",
"@ 9 b b b b b b b b b b b b b b b b b b b b b b b b b b b b b b b b b b b b b b b b b b b b b b b b b b b b b b b b b b b b b b b b b b b b b b b b b b b b b b b b  .%.",
"@ 9 b b b b b b b b b b b b b b b b b b b b b b b b b b b b b b b b b b b b b b b b b b b b b b b b b b b b b b b b b b b b b b b b b b b b b b b b b b b b b b b b  .%.",
"@ 9 b b b b b b b b b b b b b b b b b b b b b b b b b b b b b b b b b b b b b b b b b b b b b b b b b b b b b b b b b b b b b b b b b b b b b b b b b b b b b b b b  .%.",
"@ 9 b b b b b b b b b b b b b b b b b b b b b b b b b b b b b b b b b b b b b b b b b b b b b b b b b b b b b b b b b b b b b b b b b b b b b b b b b b b b b b b b  .%.",
"@ 9 b b b b b b b b b b b b b b b b b b b b b b b b b b b b b b b A A A b b b b b b b b A A A b b b b b b b b b b b b b b b b b b b b b b b b b b b b b b b b b b b  .%.",
"@ 9 b b b b b b b b b b b b b b b b b b b b b b b b b b b b b b S R ^ ^ ~ P R R R R R R W ^ R S b b b b b b b b b b b b b b b b b b b b b b b b b b b b b b b b b b  .%.",
"@ 9 b b b b b b b b b b b b b b b b b b b b b b b b b b b b b b R { $.@.} [ { ` { ` { ..@.$...R A b b b b b b b b b b b b b b b b b b b b b b b b b b b b b b b b b  .%.",
"@ 9 b b b b b b b b b b b b b b b b b b b b b b b b b b b x f k L $.$.$.-.-.-.-.-.-.-.-.$.$.$.^ A b b b b b b b b b b b b b b b b b b b b b b b b b b b b b b b b b  .%.",
"@ 9 b b b b b b b b b b b b b b b b b b b b b b b b b b b z s 9 c ) $.O.' T T T P P J ! O.$.@.W A b b b b b b b b b b b b b b b b b b b b b b b b b b b b b b b b b  .%.",
"@ 9 b b b b b b b b b b b b b b b b b b b b b b b b b b b z u > e H -.! F s s r f e q g ( -...W b b b b b b b b b b b b b b b b b b b b b b b b b b b b b b b b b b  .%.",
"@ 9 b b b b b b b b b b b b b b b b b b b b b b b b b b b z u > q B -.T c q 9 9 9 > ; e F -.` R b b b b b b b b b b b b b b b b b b b b b b b b b b b b b b b b b b  .%.",
"@ 9 b b b b b b b b b b b b b b b b b b b b b b b b b b b x u 5 r K -.^ D d d d d 7 < e P -.` R b b b b b b b b b b b b b b b b b b b b b b b b b b b b b b b b b b  .%.",
"@ 9 b b b b b b b b b b b b b b b b b b b b b b b b b b b z d 9 f P -.[ R b b b c s 6 d T -.{ L b b b b b b b b b b b b b b b b b b b b b b b b b b b b b b b b b b  .%.",
"@ 9 b b b b b b b b b b b b b b b b b b b b b b b b b b b b d 9 s T -.[ R b b b x d q a T -.[ R b b b b b b b b b b b b b b b b b b b b b b b b b b b b b b b b b b  .%.",
"@ 9 b b b b b b b b b b b b b b b b b b b b b b b b b b b b u 9 f T -.[ R b b b x s 6 a T -.[ R b b b b b b b b b b b b b b b b b b b b b b b b b b b b b b b b b b  .%.",
"@ 9 b b b b b b b b b b b b b b b b b b b b b b b b b b b b d 9 r T -.` R b b b b d 9 s T -.[ I b b b b b b b b b b b b b b b b b b b b b b b b b b b b b b b b b b  .%.",
"@ 9 b b b b b b b b b b b b b b b b b b b b b b b b b b b b d e g ( -.@.` R I I R D c F [ -...~ b b b b b b b b b b b b b b b b b b b b b b b b b b b b b b b b b b  .%.",
"@ 9 b b b b b b b b b b b b b b b b b b b b b b b b b b b b d u c [ $.#.@.` [ [ { ^ T ! O.$.@.~ A b b b b b b b b b b b b b b b b b b b b b b b b b b b b b b b b b  .%.",
"@ 9 b b b b b b b b b b b b b b b b b b b b b b z z b b b b u e g $.$.$.-.-.-.-.-.-.-.-.$.$.$.^ A b b b b b b b b b b b b b b b b b b b b b b b b b b b b b b b b b  .%.",
"O > 9 9 9 9 9 9 9 9 9 9 9 9 9 9 9 9 9 9 9 9 9 9 9 9 9 9 u 9 > = 3 B $.! U F F F F M g B T $.! V d 9 9 9 9 9 9 9 9 9 9 9 9 9 9 9 t 7 7 t t 7 t 7 t 7 t 7 t 7 t 7 7 t > | ",
"  O @ @ @ @ @ @ @ @ @ @ @ @ @ @ @ @ @ @ @ @ @ @ @ @ @ @ @ @ O   o % 1 1 - & & & & % $ * 1 0 3 = # @ @ @ @ @ @ @ @ @ @ @ @ @ @ @ @ @ @ @ @ @ @ @ @ @ @ @ @ @ @ @ @ @ o   "
};
