/* XPM */
static char *Ninja_UV_IconB[] = {
/* columns rows colors chars-per-pixel */
"32 32 109 2",
"   c #270F0F",
".  c #2A1515",
"X  c #2E1C1C",
"o  c #371515",
"O  c #3A1B1B",
"+  c #2D2323",
"@  c #312323",
"#  c #3D2424",
"$  c #3F2929",
"%  c #3E3030",
"&  c #451919",
"*  c #4D1D1D",
"=  c #551E1E",
"-  c #5A1F1F",
";  c #412525",
":  c #4A2525",
">  c #412C2C",
",  c #4D2B2B",
"<  c #522424",
"1  c #582424",
"2  c #532D2D",
"3  c #5B2C2C",
"4  c #443232",
"5  c #553333",
"6  c #5D3434",
"7  c #573D3D",
"8  c #5B3939",
"9  c #612222",
"0  c #652A2A",
"q  c #682F2F",
"w  c #732626",
"e  c #742C2C",
"r  c #7D2B2B",
"t  c #623333",
"y  c #6A3535",
"u  c #633C3C",
"i  c #6D3B3B",
"p  c #743535",
"a  c #793333",
"s  c #753A3A",
"d  c #7A3C3C",
"f  c #5F4141",
"g  c #654242",
"h  c #684747",
"j  c #694A4A",
"k  c #714343",
"l  c #7E4545",
"z  c #754B4B",
"x  c #7F4A4A",
"c  c #735252",
"v  c #795151",
"b  c #755959",
"n  c #842D2D",
"m  c #8E2D2D",
"M  c #922525",
"N  c #952B2B",
"B  c #833333",
"V  c #853A3A",
"C  c #8B3C3C",
"Z  c #943535",
"A  c #993333",
"S  c #963C3C",
"D  c #9D3C3C",
"F  c #8B4545",
"G  c #824C4C",
"H  c #8E4C4C",
"J  c #914747",
"K  c #9B4444",
"L  c #944A4A",
"P  c #9D4949",
"I  c #855454",
"U  c #8F5050",
"Y  c #875959",
"T  c #895C5C",
"R  c #915353",
"E  c #9B5555",
"W  c #955A5A",
"Q  c #9B5A5A",
"!  c #A14343",
"~  c #A64D4D",
"^  c #A35555",
"/  c #AA5454",
"(  c #AD5B5B",
")  c #8D6363",
"_  c #8F6969",
"`  c #9A6363",
"'  c #916C6C",
"]  c #9D6B6B",
"[  c #937070",
"{  c #A16565",
"}  c #AC6464",
"|  c #A36C6C",
" . c #AF6C6C",
".. c #B26363",
"X. c #B56C6C",
"o. c #A27373",
"O. c #AB7A7A",
"+. c #B47474",
"@. c #B97373",
"#. c #B77B7B",
"$. c #BE7C7C",
"%. c #5FFF00",
"&. c #00A8FF",
"*. c #BC8484",
"=. c #C28484",
"-. c #C68B8B",
";. c #C99393",
":. c #CD9A9A",
">. c gray100",
/* pixels */
", ; # # # # # # # $ $ $ > > > > > > > > 4 4 4 4 4 4 4 4 4 4 4 + ",
"H U l x x G G I I I I I Y Y T T ) ) ) ) ) ) _ ' ' ' ' ' [ [ b % ",
"( ........%.%.%.@.@.@.$.$.$.*.%.%.%.-.-.-.-.;.;.;.%.%.%.:.:.[ 4 ",
"( ( ......%.%.%.>.>.>.>.>.>.>.%.%.%.>.>.>.>.>.>.>.%.%.%.:.:.[ 4 ",
"( ^ R L E %.%.%.X.@.@. .` ` | %.%.%.=.=.-.*.O.o.O.%.%.%.:.:._ 4 ",
"/ L y , 6 x >.R R R W G u 5 u Y >.` ] ] ] ) j 7 c O.>.;.:.:.[ 4 ",
"/ F : . O 6 >.i k k k u ; X ; g >.z v z v h > @ 7 o.>.;.;.;._ 4 ",
"/ L 6 O 2 l >.R R R R G 8 $ 8 I >.` ` ] ] ) f > j O.>.;.;.:._ 4 ",
"~ P d 6 d ^ >.} ....X.} G u I  .>.$.$.$.=.#.) g ) *.>.-.;.;._ 4 ",
"~ ~ F y F %.%.%.( ......R k W %.%.%.@.$.$.$.] v ] %.%.%.-.;._ 4 ",
"~ ~ V y F %.%.%.>.>.>.>.>.>.>.%.%.%.>.>.>.>.>.>.>.%.%.%.-.-.) 4 ",
"! P p 3 d %.%.%.( ( } ( G 6 G %.%.%.@.@.$.+.Y g T %.%.%.-.-.) 4 ",
"! C < O < s >.F F H H l 6 # 5 G >.W W W W I 8 > g o.>.=.-.-.) > ",
"! V * . O 3 >.y y y y 6 # . # 8 >.k k z z g > @ 8 ` >.=.=.-.) > ",
"K C 1 O : p >.F F F F l 3 # 2 x >.R W W W I 8 > g | >.=.=.=.) > ",
"D D e < a P >.~ / / / ^ d 6 l ( >...X.X.X. .I u I +.>.$.=.=.) > ",
"D D B 0 V %.%.%.~ / / / F i F %.%.%...X.X.X.W z W %.%.%.$.$.) > ",
"D D n 0 d %.%.%.>.>.>.>.>.>.>.%.%.%.>.>.>.>.>.>.>.%.%.%.$.=.T > ",
"D Z q - w %.%.%.~ ~ ~ P d 3 d %.%.%.....X.} G u I %.%.%.$.$.Y > ",
"A n 1 o * e B V V V C s 2 O 2 l F H L U U x 6 # u ` @.@.@.$.Y > ",
"A r &   o 1 9 0 0 0 q 3 O   O 3 i i i i i t # X , W @.@.$.$.I $ ",
"A B - & = e B B B V V p 3 * 2 d F F F H H x t , i Q X.@.@.@.I $ ",
"A N n n B D D D S C &.K J V d &.L &./ ( ( E G &.Q } X.@.@.@.I ; ",
"N A A A A A D D B 0 &.! ! V q &.y &.( ( ( H s &.......X.X.@.I $ ",
"N A A A A A D D e < &.! ! d < &.3 s &./ ^ s &.U ....X.X.X.X.I # ",
"N N N A A Z A A e * &.D ! a < &.p 0 &./ F t &.^ } ........X.I # ",
"N N N N A A A D w * &.D D a 1 &.V 3 p &.s &.J ( ( ........X.G # ",
"M N N N N A A A w = &.D D a < &.K p 3 &.3 &.E / ( ( ........G # ",
"M N N N N N A A w * &.D D e < &.K V 1 < &.C / / / ( ( ......x # ",
"M M M N N N N A r = 9 &.&.&.&.B ! K p < &.P / / / ( ( ( ....x O ",
"M M M M N N N N m w = * = = e S ! ! V 0 C ~ ~ / / ( ( ( ( ..U ; ",
"M M M M N N N N N m r w w r Z D D K D C K ~ ~ ~ ~ / / ( ( ( H , "
};
