/* XPM */
static char *Ninja_Bonus_IconB[] = {
/* columns rows colors chars-per-pixel */
"32 32 194 2",
"   c #380F0F",
".  c #2B1616",
"X  c #2E1818",
"o  c #3A1212",
"O  c #341B1B",
"+  c #3A1E1E",
"@  c #2D2323",
"#  c #3D2424",
"$  c #3F2929",
"%  c #3E3030",
"&  c #411212",
"*  c #4A1515",
"=  c #441E1E",
"-  c #4E1C1C",
";  c #531717",
":  c #561C1C",
">  c #5F1E1E",
",  c #6D1C1C",
"<  c #761C1C",
"1  c #422323",
"2  c #492525",
"3  c #412D2D",
"4  c #4C2929",
"5  c #522424",
"6  c #592222",
"7  c #542C2C",
"8  c #5D2C2C",
"9  c #43312F",
"0  c #443232",
"q  c #5A3131",
"w  c #622323",
"e  c #662C2C",
"r  c #682F2F",
"t  c #712222",
"y  c #7A2424",
"u  c #752A2A",
"i  c #7C2929",
"p  c #633434",
"a  c #6C3535",
"s  c #653A3A",
"d  c #6C3C3C",
"f  c #793333",
"g  c #743B3B",
"h  c #7B3D3D",
"j  c #5A4644",
"k  c #5F4B41",
"l  c #594B49",
"z  c #6F4B4A",
"x  c #724343",
"c  c #7C4545",
"v  c #7E4949",
"b  c #7E5C52",
"n  c #755959",
"m  c #786858",
"M  c #786962",
"N  c #832626",
"B  c #8B2626",
"V  c #8D2929",
"C  c #952A2A",
"Z  c #813232",
"A  c #883131",
"S  c #853B3B",
"D  c #8C3838",
"F  c #923434",
"G  c #9A3535",
"H  c #963C3C",
"J  c #9E3C3C",
"K  c #814242",
"L  c #8C4646",
"P  c #834A4A",
"I  c #8E4B4B",
"U  c #924343",
"Y  c #984141",
"T  c #924A4A",
"R  c #9C4C4C",
"E  c #855353",
"W  c #8A5251",
"Q  c #895957",
"!  c #875959",
"~  c #895C5C",
"^  c #945353",
"/  c #9A5454",
"(  c #9D5B5B",
")  c #A24444",
"_  c #A54C4C",
"`  c #A55252",
"'  c #AA5454",
"]  c #A45D5D",
"[  c #AC5B5B",
"{  c #8D6363",
"}  c #8F6969",
"|  c #916C6C",
" . c #85766B",
".. c #947D67",
"X. c #937070",
"o. c #917873",
"O. c #9D7C74",
"+. c #A56363",
"@. c #AE6262",
"#. c #A66D6C",
"$. c #B26464",
"%. c #B66C6C",
"&. c #A37C77",
"*. c #A37679",
"=. c #BA7474",
"-. c #BD7B7B",
";. c #AFA41D",
":. c #A79930",
">. c #D3C90E",
",. c #E2DD00",
"<. c #F4F20E",
"1. c #F6FA10",
"2. c #F9F718",
"3. c #C9C221",
"4. c #D7CE2E",
"5. c #E2E021",
"6. c #EFF023",
"7. c #F5F62B",
"8. c #EBE730",
"9. c #E8E53A",
"0. c #F2E93A",
"q. c #A1975C",
"w. c #B4AA4E",
"e. c #ADA05F",
"r. c #BAB45E",
"t. c #978864",
"y. c #9B8C72",
"u. c #9E827A",
"i. c #AA966F",
"p. c #BC936E",
"a. c #A28371",
"s. c #A88476",
"d. c #AA8B75",
"f. c #A88179",
"g. c #AA9179",
"h. c #BF907B",
"j. c #B9AC6F",
"k. c #B7AE7A",
"l. c #C4BB57",
"z. c #CFBE78",
"x. c #D6D141",
"c. c #DFDE42",
"v. c #D9D64F",
"b. c #C8C15E",
"n. c #D0CB5E",
"m. c #DCCA59",
"M. c #DED65A",
"N. c #FCFC43",
"B. c #D0C578",
"V. c #FFFB60",
"C. c #FAF775",
"Z. c #00A8FF",
"A. c #AE8D81",
"S. c #AD8E8C",
"D. c #B48585",
"F. c #AF9290",
"G. c #BF9E97",
"H. c #C28484",
"J. c #C48886",
"K. c #C58B8B",
"L. c #C99393",
"P. c #CC9A9A",
"I. c #CEA09D",
"U. c #CEB590",
"Y. c #D6AEAC",
"T. c #D5B2AF",
"R. c #CFBDB1",
"E. c #D4B2B0",
"W. c #D9B9B4",
"Q. c #E2DA92",
"!. c #E7E581",
"~. c #FBFB85",
"^. c #EEE995",
"/. c #FEFA9E",
"(. c #EAE3A8",
"). c #F6F3A9",
"_. c #FCFBAA",
"`. c #E8E2B6",
"'. c #FAF7B2",
"]. c #FBFBB4",
"[. c #FDFABA",
"{. c #E1C6C1",
"}. c #E1D9C5",
"|. c #E7D4CD",
" X c #ECDCD3",
".X c #EEE0CF",
"XX c #F8F4CF",
"oX c #EFE1D6",
"OX c #F5EED6",
"+X c #F1E6DD",
"@X c #F3EBDB",
"#X c #F3EAE3",
"$X c #F7F2EA",
"%X c #FBF8F2",
/* pixels */
"4 1 # # # # # # # $ $ $ 3 $ 3 3 3 3 3 0 0 0 0 0 0 0 0 0 0 0 0 @ ",
"T W c P P P P E Q A.R.S.~ ~ ~ ~ ~ { { { { { } } } | | X.X.X.n 0 ",
"@.$.$.$.%.%.%.%.h.Q.OX+XP.-.-.H.H.J.J.K.K.L.L.L.L.L.P.P.P.I.X.0 ",
"[ [ @.$.@.@.+.+.p.4.M.`.T.-.-.D.H.H.J.J.K.K.K.L.L.L.L.L.P.P.X.0 ",
"[ [ [ @.@./ Q O.U.8.5.Q.T.-.-.-.-.H.H.H.J.K.K.K.L.L.L.L.P.P.| 0 ",
"' [ [ [ ] c ..z.!.7.2.^.W.-.=.-.-.-.H.H.J.J.K.K.K.L.L.L.L.P.| 0 ",
"' ' [ ] R s m q.r.x.<.C. XK.=.-.-.-.-.H.H.H.J.K.K.L.K.L.L.L.| 0 ",
"' ' ` T d 4 $ l M y.l.7._.{.-.=.-.-.-.H.H.H.J.J.K.K.L.L.L.L.| 0 ",
"_ ' _ g 2 O . . 3 z u.r.N.XXT.=.=.-.-.-.-.H.H.H.H.K.K.L.L.L.{ 3 ",
"_ _ R a 2 O O . O 7 P O.r.V.OXP.=.=.=.-.-.H.H.H.H.K.K.K.K.L.} 0 ",
"_ _ _ U g 8 2 + X + s ^ f.r.~.@XL.=.=.-.-.-.-.H.H.H.K.K.K.L.} 3 ",
") _ _ _ R L h q # O 2 x ( s.b./.oXK.=.=.=.-.-.H.H.H.H.K.K.K.{ 0 ",
") ) _ _ _ _ _ L a 1 + 4 x ] d.n.'. XJ.=.=.-.-.-.-.H.H.H.H.K.{ 0 ",
") ) _ _ _ _ ` ` I a 1 + 7 c +.d.v.[.+XL.=.=.=.-.-.-.H.H.H.K.{ 3 ",
") ) ) ) _ _ _ ' _ L p 1 + 7 P #.i.9.[.#XI.=.=.-.-.-.H.H.H.H.{ 3 ",
"J Y ) ) ) _ _ _ ` ` L q # + q P #.i.9.[.$XY.K.L.H.-.-.-.H.H.{ 3 ",
"J J ) ) ) _ ) _ ` ` R L 7 + + 7 c &.w.6.[.%X+X@X|.-.-.-.-.H.~ 3 ",
"J J J ) ) ) ) _ _ _ ' _ K 7 + O 7 c a.3.1.~.).(.}.=.=.-.-.D.~ 3 ",
"J J J J J ) ) _ _ _ ` _ R g 2 O O 4 b ;.,.0.B.k.G.=.=.-.-.-.~ 3 ",
"G J J J J J ) ) ) _ _ _ ` T g 1 X X k :.>.m.F.D.=.=.=.=.-.=.Q 3 ",
"G J G J J J ) ) ) ) _ _ ` _ L 8 + . 9 t.w.j.*.%.%.%.=.=.=.=.~ 3 ",
"C G G J J J J ) ) ) ) _ _ _ R a + . O j  .o.+.$.%.%.%.=.=.=.E 1 ",
"i Z.Z.Z.Z.Z.J J ) ) ) _ _ _ R g 1 . O 7 g T @.$.$.%.%.%.%.=.E $ ",
"* Z.* ; : i Z.J J J ) ) ) _ ) S 7 O 2 g / [ @.@.$.$.%.%.%.=.E $ ",
"& Z.t u > : Z.F Z Z.Z.Z.Y S Z.Z.Z.Z.a K Z.[ ' / Z.+.^ Z.Z.Z.E $ ",
"& Z.Z.Z.Z.Z.Z.u Z.- 6 f Z.5 Z.5 6 a Z.p Z.[ I d Z.P Z.q s E Z.# ",
"  Z.* * o o Z.: Z.u e 6 Z.= Z.f r 8 Z.5 Z.' K 7 Z.g q Z.Z.v x # ",
"& Z.t t : * Z.- Z.J u - Z.: Z.) f 5 Z.7 Z.' h 8 Z.K p s c Z.c # ",
"* Z.C C t * Z.- Z.G u - Z.- Z.) f 5 Z.5 Z.R a Z.Z.I Z.c d P Z.# ",
"  Z.Z.Z.Z.Z.> : , Z.Z.Z.6 : Z.) f 5 Z.8 r Z.Z.+ Z.g g Z.Z.Z.d # ",
"* & * * ; t N t : - : u u w Z J Z e f f 8 8 8 e S c p 7 p P P 1 ",
"< , , t < B C B y t i A F A F J H D H Y S S U U R R L c I ` ^ 4 "
};
