/* XPM */
static char *NinjaUV_MoveArrowCenter[] = {
/* columns rows colors chars-per-pixel */
"84 32 139 2",
"   c black",
".  c #010101",
"X  c #020202",
"o  c gray1",
"O  c #040404",
"+  c gray2",
"@  c #060606",
"#  c #070707",
"$  c gray3",
"%  c #090909",
"&  c gray4",
"*  c #0B0B0B",
"=  c #0C0C0C",
"-  c gray5",
";  c #0E0E0E",
":  c gray6",
">  c #101010",
",  c gray7",
"<  c #131313",
"1  c gray8",
"2  c #151515",
"3  c #161616",
"4  c gray9",
"5  c #181818",
"6  c #191919",
"7  c gray10",
"8  c #1B1B1B",
"9  c gray11",
"0  c #1D1D1D",
"q  c #1E1E1E",
"w  c gray12",
"e  c #202020",
"r  c gray13",
"t  c #232323",
"y  c gray14",
"u  c #252525",
"i  c gray15",
"p  c #272727",
"a  c #282828",
"s  c gray16",
"d  c #2A2A2A",
"f  c gray17",
"g  c #2C2C2C",
"h  c #2D2D2D",
"j  c gray18",
"k  c #2F2F2F",
"l  c gray19",
"z  c #313131",
"x  c #323232",
"c  c gray20",
"v  c #343434",
"b  c #353535",
"n  c gray21",
"m  c #373737",
"M  c gray22",
"N  c #3A3A3A",
"B  c gray23",
"V  c #3C3C3C",
"C  c gray24",
"Z  c #3E3E3E",
"A  c #3F3F3F",
"S  c gray25",
"D  c #414141",
"F  c gray26",
"G  c #434343",
"H  c #444444",
"J  c #464646",
"K  c gray28",
"L  c gray29",
"P  c #4B4B4B",
"I  c #4C4C4C",
"U  c gray30",
"Y  c #4E4E4E",
"T  c gray31",
"R  c #505050",
"E  c gray32",
"W  c #535353",
"Q  c gray33",
"!  c #555555",
"~  c #565656",
"^  c gray34",
"/  c #585858",
"(  c #5A5A5A",
")  c gray36",
"_  c gray37",
"`  c #5F5F5F",
"'  c gray38",
"]  c gray39",
"[  c #656565",
"{  c DimGray",
"}  c gray43",
"|  c gray44",
" . c #717171",
".. c #727272",
"X. c gray46",
"o. c #767676",
"O. c gray48",
"+. c #7C7C7C",
"@. c #7E7E7E",
"#. c #818181",
"$. c #838383",
"%. c gray52",
"&. c #868686",
"*. c #8B8B8B",
"=. c gray55",
"-. c #939393",
";. c gray58",
":. c #979797",
">. c #9F9F9F",
",. c #A0A0A0",
"<. c gray63",
"1. c #A2A2A2",
"2. c #A4A4A4",
"3. c gray65",
"4. c gray66",
"5. c #A9A9A9",
"6. c #AAAAAA",
"7. c gray67",
"8. c #ACACAC",
"9. c gray68",
"0. c #AEAEAE",
"q. c #AFAFAF",
"w. c #B2B2B2",
"e. c gray71",
"r. c #B6B6B6",
"t. c #B7B7B7",
"y. c gray72",
"u. c #B9B9B9",
"i. c #BCBCBC",
"p. c gray75",
"a. c #C0C0C0",
"s. c #C1C1C1",
"d. c gray76",
"f. c #C3C3C3",
"g. c gray77",
"h. c gray78",
"j. c #C8C8C8",
"k. c gray79",
"l. c #CACACA",
/* pixels */
"H T Q Q Q Q Q Q Q Q Q Q Q Q Q Q Q Q Q Q Q Q Q Q Q Q Q Q Q Q Q Q Q Q Q Q Q Q Q Q Q Q Q Q Q Q Q Q Q Q Q Q Q Q Q Q Q Q Q Q Q Q Q Q Q Q Q Q Q Q Q Q Q Q Q Q Q Q Q Q Q Q Q ~ ",
"H H T Q Q Q Q Q Q Q Q Q Q Q Q Q Q Q Q Q Q Q Q Q Q Q Q Q Q Q Q Q Q Q Q Q Q Q Q Q Q Q Q Q Q Q Q Q Q Q Q Q Q Q Q Q Q Q Q Q Q Q Q Q Q Q Q Q Q Q Q Q Q Q Q Q Q Q Q Q Q Q Q Q ",
"H H H I I I I I I I I I I I I I I I I I I I I I I I I I I I I I I I I I I I I I I I I I I I I I I I I I I I I I I I I I I I I I I I I I I I I I I I I I I I I I I T Q Q ",
"H H H H H H H H H H H H H H H H H H H H H H H H H H H H H H H H H H H G G A l h M L P N j z D H H H H H H H H H H H H H H H H H H H H H H H H H H H H H H H H H H I Q Q ",
"H H H H H H H H H H H H H H H H H H H H H H H H H H H H H H H H H G F D k a _ <.p.k.l.a.,.` h c H H H H H H H H H H H H H H H H H H H H H H H H H H H H H H H H H I Q Q ",
"H H H H H H H H H H H H H H H H H H H H H H H H H H H H H H H G G D m 0 / >.w.0.5.4.4.6.q.w.<.( e V H H H H H H H H H H H H H H H H H H H H H H H H H H H H H H H I Q Q ",
"H H H H H H H H H H H H H H H H H H H H H H H H H H H H H H G F A h 7 [ #.o............... .X.#.[ 0 v H H H H H H H H H H H H H H H H H H H H H H H H H H H H H H I Q Q ",
"H H H H H H H H H H H H H H H H H H H H H H H H H H H H H G D C f 1 U ! Y U Y Y Y P P Y Y Y Y Y ! Y 2 v H H H H H H H H H H H H H H H H H H H H H H H H H H H H H I Q Q ",
"H H H H H H H H H H H H H H H H H H H H H H H H H H H H G D C k = k m c c c c c l x c k c c v v x n j : V H H H H H H H H H H H H H H H H H H H H H H H H H H H H I Q Q ",
"H H H H H H H H H H H H H H H H H H H H H H H H H H H G F C n , 2 t e e e e e q t e.t.y 0 e e e e e t 3 6 H H H H H H H H H H H H H H H H H H H H H H H H H H H H I Q Q ",
"H H H H H H H H H H H H H H H H H H H H H H H H H H H G A M t + , , , , , < < o a t.r.g . , < , , < < , O c H H H H H H H H H H H H H H H H H H H H H H H H H H H I Q Q ",
"H H H H H H H H H H H H H H H H H H H H H H H H H H G D B k > + & & & & & $   J ) 2.1.` K   $ * & & & & @ 6 S H H H H H H H H H H H H H H H H H H H H H H H H H H I Q Q ",
"H H H H H H H H H H H H H H H H H H H H H H H H H H F Z n r @ o O O O O o   O.f.I 1.<.R s.+.  O + O O O o @ z H H H H H H H H H H H H H H H H H H H H H H H H H H I Q Q ",
"H H H H H H H H H H H H H H H H H H H H H H H H H G D N z 3 X X . . . .   ~ h.: w 3.2.y * d.^   . . . .   . t H H H H H H H H H H H H H H H H H H H H H H H H H H I Q Q ",
"H H H H H H H H H H H H H H H H H H H H H H H H H G A m h ;         .   o r.D   1 h.j.3   Z y.+           . 6 H H H H H H H H H H H H H H H H H H H H H H H H H H I Q Q ",
"H H H H H H H H H H H H H H H H H H H H H H H H H F C v f &         .   u i.%     b M     # y.p           . < H H H H H H H H H H H H H H H H H H H H H H H H H H I Q Q ",
"H H H H H H H H H H H H H H H H H H H H H H H H H F V x s * . .     .   g 9.O   O   . O . o 5.h           . 1 H H H H H H H H H H H H H H H H H H H H H H H H H H I Q Q ",
"H H H H H H H H H H H H H H H H H H H H H H H H H D B z a : o .     .   2 f.5       X o   3 g.5           . 6 H H H H H H H H H H H H H H H H H H H H H H H H H H I Q Q ",
"H H H H H H H H H H H H H H H H H H H H H H H H H D B z a < . X     . .   ;.$.            #.:.            . t H H H H H H H H H H H H H H H H H H H H H H H H H H I Q Q ",
"H H H H H H H H H H H H H H H H H H H H H H H H H F V x s 7 @ .     . .   4 g...X     X | h.7   . .       # l H H H H H H H H H H H H H H H H H H H H H H H H H H I Q Q ",
"H H H H H H H H H H H H H H H H H H H H H H H H H F C v f t : o     . .     w 7.u.-.-.r.8.r   o . .       5 A H H H H H H H H H H H H H H H H H H H H H H H H H H I Q Q ",
"H H H H H H H H H H H H H H H H H H H H H H H H H G A m h i 9 o     . . . .   X c { { c o . + X . .       k G H H H H H H H H H H H H H H H H H H H H H H H H H H I Q Q ",
"H H H H H H H H H H H H H H H H H H H H H H H H H G D N z s y : o o X   . . .             . .       . o 3 D G H H H H H H H H H H H H H H H H H H H H H H H H H H I Q Q ",
"H H H H H H H H H H H H H H H H H H H H H H H H H H F Z n h i w $ O X                         . o O X & n F H H H H H H H H H H H H H H H H H H H H H H H H H H H I Q Q ",
"H H H H H H H H H H H H H H H H H H H H H H H H H H G D B x d u 7 @ o * = = ; > < 3 5 8 w r y g g % + h D G H H H H H H H H H H H H H H H H H H H H H H H H H H H I Q Q ",
"H H H H H H H H H H H H H H H H H H H H H H H H H H H G A M k a y 7 @ = M K G G K I U R W / ] / 7 # f A G H H H H H H H H H H H H H H H H H H H H H H H H H H H H I Q Q ",
"H H H H H H H H H H H H H H H H H H H H H H H H H H H G F C n k a u w = : F } @.$.%.&.=.*.#.Q < > l C F G H H H H H H H H H H H H H H H H H H H H H H H H H H H H I Q Q ",
"H H H H H H H H H H H H H H H H H H H H H H H H H H H H G D C n k d i y 7 = 1 n E ` ' ! B 4 : t n C D G H H H H H H H H H H H H H H H H H H H H H H H H H H H H H I Q Q ",
"H H H H H H H H H H H H H H H H H H H H H H H H H H H H H G D C M x h s i t 6 , - - ; ; 2 r k M C D G H H H H H H H H H H H H H H H H H H H H H H H H H H H H H H I Q Q ",
"H H H H H H H H H H H H H H H H H H H H H H H H H H H H H H G F A B n z h d s a a s d h z n B A F G H H H H H H H H H H H H H H H H H H H H H H H H H H H H H H H H T Q ",
"H H H H H H H H H H H H H H H H H H H H H H H H H H H H H H H G G D Z N m v x z z x v m N Z D G G H H H H H H H H H H H H H H H H H H H H H H H H H H H H H H H H H H T ",
"H H H H H H H H H H H H H H H H H H H H H H H H H H H H H H H H H G F D A C V B B V C A D F G H H H H H H H H H H H H H H H H H H H H H H H H H H H H H H H H H H H H H "
};
