/* XPM */
static char *Ninja_Light_Icon[] = {
/* columns rows colors chars-per-pixel */
"32 32 201 2",
"   c gray7",
".  c gray8",
"X  c #151515",
"o  c #161616",
"O  c gray9",
"+  c #181818",
"@  c #191919",
"#  c gray10",
"$  c #1B1B1B",
"%  c gray11",
"&  c #1D1D1D",
"*  c #1E1E1E",
"=  c gray12",
"-  c #202020",
";  c gray13",
":  c #222222",
">  c #232323",
",  c gray14",
"<  c #252525",
"1  c gray15",
"2  c #272727",
"3  c #282828",
"4  c gray16",
"5  c #2A2A2A",
"6  c gray17",
"7  c #2C2C2C",
"8  c #2D2D2D",
"9  c gray18",
"0  c #2F2F2F",
"q  c gray19",
"w  c #313131",
"e  c #323232",
"r  c gray20",
"t  c #343434",
"y  c #353535",
"u  c gray21",
"i  c #373737",
"p  c gray22",
"a  c #393939",
"s  c #3A3A3A",
"d  c gray23",
"f  c #3C3C3C",
"g  c gray24",
"h  c #3E3E3E",
"j  c #3F3F3F",
"k  c gray25",
"l  c #414141",
"z  c gray26",
"x  c #434343",
"c  c #444444",
"v  c gray27",
"b  c #464646",
"n  c gray28",
"m  c #484848",
"M  c #494949",
"N  c gray29",
"B  c #4B4B4B",
"V  c #4C4C4C",
"C  c gray30",
"Z  c #4E4E4E",
"A  c gray31",
"S  c #515151",
"D  c gray32",
"F  c #555555",
"G  c #565656",
"H  c gray34",
"J  c #585858",
"K  c gray35",
"L  c #5A5A5A",
"P  c #5B5B5B",
"I  c gray36",
"U  c #5D5D5D",
"Y  c gray37",
"T  c #5F5F5F",
"R  c #606060",
"E  c gray38",
"W  c #626262",
"Q  c #646464",
"!  c #656565",
"~  c gray40",
"^  c #676767",
"/  c #686868",
"(  c DimGray",
")  c #6A6A6A",
"_  c gray42",
"`  c #6C6C6C",
"'  c #6D6D6D",
"]  c gray43",
"[  c gray44",
"{  c #717171",
"}  c #727272",
"|  c gray45",
" . c #747474",
".. c gray46",
"X. c #767676",
"o. c #777777",
"O. c gray47",
"+. c gray48",
"@. c #7B7B7B",
"#. c #7C7C7C",
"$. c gray49",
"%. c #7E7E7E",
"&. c #7F7F7F",
"*. c #808080",
"=. c #818181",
"-. c gray51",
";. c #848484",
":. c gray52",
">. c #868686",
",. c #888888",
"<. c #898989",
"1. c gray54",
"2. c gray55",
"3. c #8D8D8D",
"4. c #8E8E8E",
"5. c gray56",
"6. c #909090",
"7. c gray57",
"8. c #929292",
"9. c #939393",
"0. c gray58",
"q. c #959595",
"w. c gray59",
"e. c #979797",
"r. c #989898",
"t. c gray60",
"y. c #9A9A9A",
"u. c #9B9B9B",
"i. c gray61",
"p. c #9D9D9D",
"a. c gray62",
"s. c #A0A0A0",
"d. c gray63",
"f. c gray64",
"g. c #A4A4A4",
"h. c #A5A5A5",
"j. c gray65",
"k. c gray66",
"l. c #A9A9A9",
"z. c #AAAAAA",
"x. c gray67",
"c. c #ACACAC",
"v. c #AEAEAE",
"b. c #AFAFAF",
"n. c gray69",
"m. c #B1B1B1",
"M. c #B2B2B2",
"N. c gray70",
"B. c #B4B4B4",
"V. c gray71",
"C. c #B6B6B6",
"Z. c #B7B7B7",
"A. c gray72",
"S. c #B9B9B9",
"D. c gray73",
"F. c #BBBBBB",
"G. c #BCBCBC",
"H. c gray75",
"J. c #C0C0C0",
"K. c #C1C1C1",
"L. c gray76",
"P. c #C3C3C3",
"I. c gray77",
"U. c #C5C5C5",
"Y. c #C6C6C6",
"T. c gray79",
"R. c #CACACA",
"E. c #CBCBCB",
"W. c gray80",
"Q. c #CECECE",
"!. c gray81",
"~. c #D0D0D0",
"^. c gray82",
"/. c LightGray",
"(. c gray83",
"). c #D5D5D5",
"_. c #D8D8D8",
"`. c gray85",
"'. c #DDDDDD",
"]. c gray87",
"[. c #DFDFDF",
"{. c gray88",
"}. c #E1E1E1",
"|. c gray89",
" X c #E6E6E6",
".X c #E7E7E7",
"XX c gray91",
"oX c #E9E9E9",
"OX c #EAEAEA",
"+X c #ECECEC",
"@X c #EEEEEE",
"#X c gray94",
"$X c #F1F1F1",
"%X c #F3F3F3",
"&X c #F4F4F4",
"*X c #F6F6F6",
"=X c #F8F8F8",
"-X c gray98",
";X c #FBFBFB",
":X c gray99",
">X c gray100",
/* pixels */
"T 3.6.7.9.q.e.r.u.i.p.s.d.f.h.j.k.l.x.c.v.b.m.m.N.B.V.C.Z.A.S.I.",
"l W Q ^ ( ` ] [ }  .X.X.$.y.~.`.~.n.w.2.4.6.8.0.q.e.t.y.i.p.a.S.",
"j R W Q ^ / ) _ ` ` Q %.|.-X-X:X;X:X@XB.5.4.6.8.0.q.e.t.y.i.p.A.",
"g U R W W Q Q Q W K O.).@X#X$X$X&X*X=X%XD.3.4.6.8.0.q.e.t.y.i.Z.",
"d P U Y Y U I K F A j.Q.}. XXXoXOX+X#X&XoXj.3.4.6.8.0.q.e.t.y.C.",
"s J L K K G S C j _ d.H.(.].].'.[.{..X+XXXE.r.2.4.6.8.0.q.e.t.V.",
"p F G F D C b k i ] q.V.E./.).(.(.(.`.|.|.~.l.1.2.4.6.8.0.q.e.B.",
"i D D A B x d t t W ,.z.K.T.W.E.R.R.!.^.`.R.m.,.1.2.4.6.8.0.q.N.",
"y A C N x d e 6 t F o.p.C.J.L.P.P.L.Y.I.R.K.x.>.,.1.2.4.6.8.0.m.",
"r B M c f r 5 > 6 A / 3.l.Z.D.F.F.F.F.J.G.v.7.;.>.,.1.2.4.6.8.m.",
"w m v k i 9 < = $ A H ..t.v.B.B.V.C.N.D.n.y. .=.;.>.,.1.2.4.6.b.",
"0 b z f r 5 : % + a F I -.a.v.B.C.C.M.b.z.' [ &.=.;.>.,.1.2.4.v.",
"9 x k s w 4 ; $ O + Z J ( 2.h.M.C.N.m.m.;.~ O.$.&.=.;.>.,.1.2.c.",
"7 l h s w 3 ; $ + o # S U #.y.m.V.B.K.4.I [ X.+.$.&.=.;.>.,.1.x.",
"5 j h a r 5 > & + O o & E ..6.b.V.U.P.S ! ] ..O.+.$.&.=.;.>.,.l.",
"5 h g s t 8 1 = # O O @ G  .,.b.A._.f.L ! ' } X.O.+.$.&.=.;.>.k.",
"3 g f s u q 4 : % + o - I ] O.g.B.[.g.U ~ ` { | X.O.+.$.&.=.;.j.",
"2 d f d p r 8 1 = # O # x Y | a.C.W.7.T ~ _ ] { | X.O.+.$.&.=.h.",
"1 s d d a y q 4 : % + + < Q y.:.p.s.~ R ! ( ` ] { | X.O.+.$.&.f.",
", p s s a u w 6 > & @ + , E r.[ @.<.W R Q ^ ( ` ] { | X.O.+.$.d.",
"> u p a a i e 7 < * @ + 4 Q *.T ) o.I T W Q ^ ( ` ] { | X.O.+.s.",
": t u p p u r 7 < * @ @ * A / N Y Q D U R W Q ^ ( ` ] { | X.O.p.",
"- e w 0 >Xy e 8 > $ >X# & ; e v x d >XP U R I H >X( ` ] { | X.i.",
"= q 4 - >Xt e 8 ; + + % = 2 e g s w >XJ P U Z g >X^ ( ` ] { | u.",
"* 9 , @ >Xr w 8 > # >X& % >X>Xu >X2 >Xb >X>Xs >X>X>X^ ( ` ] { r.",
"& 7 : + >Xe w 9 > + >X$ >X@ * >X>X; >X>Xq i >XO >XG Q ^ ( ` ] e.",
"% 6 ; O >Xw w 0 : X >X+ >X: @ + >X% >Xp t 6 >X: >XL W Q ^ ( ` q.",
"$ 4 - o >X0 q q > O >X+ >Xr < % >X- >XM g 4 >X7 >XU R W Q ^ ( 9.",
"# 3 = X >X9 0 q < + >X@ >Xt < >X>X> >XV s 3 >X6 >XP U R W Q ^ 7.",
"@ 1 *   >X>X>X>X>X@ >X* : >X>X+ >X: >XN a 2 >X, >X>XP U R W Q 6.",
"+ < = .   X o & ; = 1 3 = - * $ >X4 p n f 0 w 3 0 B J P U R W 3.",
". + O X . X o + $ % * # >X>X>X>X= 1 5 0 8 7 8 6 8 t s d g j l T "
};
