/* XPM */
static char *NinjaUV_SnapSL[] = {
/* columns rows colors chars-per-pixel */
"84 24 56 1",
"  c #131313",
". c #181816",
"X c #1D1D1D",
"o c #21211E",
"O c #252524",
"+ c #2A2A25",
"@ c #2C2C2C",
"# c #33332D",
"$ c #353535",
"% c #393934",
"& c #3D3D3C",
"* c #44443D",
"= c #49493F",
"- c #444444",
"; c #4B4B46",
": c #4C4C4A",
"> c #515147",
", c #55554D",
"< c #58584F",
"1 c #545450",
"2 c #5D5D55",
"3 c #5D5D5D",
"4 c #626255",
"5 c #64645B",
"6 c #69695D",
"7 c #666666",
"8 c #6C6C62",
"9 c #6D6D6B",
"0 c #727264",
"q c #74746B",
"w c #7B7B6D",
"e c #747471",
"r c #7C7C76",
"t c #2FFE01",
"y c #30FF00",
"u c #44FF00",
"i c #70FE3C",
"p c #7EFE4F",
"a c #7DFB50",
"s c #81817A",
"d c #8BFE60",
"f c #818181",
"g c #888887",
"h c #8B8B8A",
"j c #939393",
"k c #9F9F9F",
"l c #A4A4A4",
"z c gray68",
"x c gray70",
"c c #BBBBBB",
"v c #C3C3C3",
"b c #CACACA",
"n c #D0D0D0",
"m c #F0FEEA",
"M c #F7FCF5",
"N c #FEFEFE",
/* pixels */
" 7fffffffffffffffffffffffffffffffffffffffffffffffffffffffffffghgfffffffffffffgghggjl",
"X@7777777777777777777777777777777777777777777777777779777777eftfrqeeeqeee9eeqerusegj",
"o$----------------------------------------------------------2qur05545555555346quq59f",
"o%--:---------:-;-------------------------------------------uuutdNNNNNNNNNNNmiyuuueg",
"o$:1322,111,11231:---------------------------------------&$%;5y04<<,,,12,,,>><6tq59f",
"X&15u0855555580u81:--------------------------------------&#@%,d2:**&&*&&*&*%$*,d629f",
"X$1uuuNNNNNNNNuuu2:--------------------------------------&$@#;m>-$$$$$$$$$$@+#>M2,7f",
".@-4u05<,2<,>20u92;---------------------------------------&#%>N2:&&&&&&&&&&$@&,N517f",
".+%>N4:*&&&%%=2N81------------------jl1-------------------&$&<N51----------&$&<N517f",
"XO%:N<-$$$$$+$>N51----------------&&v3l1------------------&$&1N51----------&$*<N517f",
".+%>N2:&&&&$@%,N3,---------------&$$c&@z:-----------------&$&,N31----------&$&<N517f",
"X@*<N51----&$*<N71-------------hjhggv@ @x1----------------&$&,N41----------&#&<N517f",
"X@&,N51----&$*,N71-----------&$c-&$&$   $z:---------------&$&<N51----------&$&<N517f",
".@*,N51----&$&<N31-----------$$z         $b---------------&$&<M51----------&$&<N517f",
"X@&,N51----&$*<N71----------&@Oz         7k---------------&$&,N51----------&$&<N517f",
"X@*4N05111,:->5N71----------&@Ovffff9.  7k----------------&%&,N51----------&$*<N517f",
"X@-6uw055552220u02---------&&@O-----b& 7l&----------------&$-1N51----------&$&<N317f",
".@=uuuNNNNNNNNuuu3;---------&$@O@OOXx@3z$&----------------&$&1M51----------&%*<M717f",
"X@%>u5421211;>4u5<:---------&&$$$@OOnjk$&------------------$;4a0511,11111,1:==4d939f",
" O@%==*&&&&&%%=,,:-----------&&-$$@O-3$&-----------;-------&,8yw054555555553,20ye59f",
"XO@@$%$$$$$@@@$------------------$$@@$&-------------------&&uuuydNNNNNNNNNNNmiyuuuef",
"X$&&%&&&&&&&&$&&-----------------&$$$&-------------------*%$-4u85,,<,<,,,,<>;>6u05ef",
"X@$&$$$&&$$&$$$$&$$$$$&$&$$&$$&$$$$$$$$$$$$$&$%$$$$$$$$$$@+O#*u;*%%%%%$%%%$$##=u,-#7",
" XXXXXXXXXXXXXXXXXOXXXXoXXXXXXXXXXXXXXOXooXXXXXXoooXOXOXXX. .o+oX .. ......  .o++OX "
};
