/* XPM */
static char *NinjaMesh_AlignPivLast[] = {
/* columns rows colors chars-per-pixel */
"75 24 130 2",
"   c black",
".  c gray1",
"X  c #040404",
"o  c gray2",
"O  c #070707",
"+  c gray3",
"@  c #090909",
"#  c gray4",
"$  c #0B0B0B",
"%  c #0C0C0C",
"&  c gray5",
"*  c #0E0E0E",
"=  c gray6",
"-  c #101010",
";  c #111111",
":  c gray7",
">  c #131313",
",  c gray8",
"<  c #151515",
"1  c #161616",
"2  c gray9",
"3  c #181818",
"4  c #191919",
"5  c #2C2C2C",
"6  c #2D2D2D",
"7  c gray18",
"8  c #2F2F2F",
"9  c gray19",
"0  c #313131",
"q  c #323232",
"w  c gray20",
"e  c #353535",
"r  c gray21",
"t  c #373737",
"y  c gray22",
"u  c #393939",
"i  c #3A3A3A",
"p  c gray23",
"a  c #3C3C3C",
"s  c #3E3E3E",
"d  c #3F3F3F",
"f  c #414141",
"g  c gray26",
"h  c #434343",
"j  c #444444",
"k  c gray27",
"l  c #464646",
"z  c gray28",
"x  c #484848",
"c  c #494949",
"v  c gray29",
"b  c #4B4B4B",
"n  c #4C4C4C",
"m  c gray30",
"M  c #4E4E4E",
"N  c gray31",
"B  c #505050",
"V  c #515151",
"C  c gray32",
"Z  c #535353",
"A  c gray33",
"S  c #555555",
"D  c #565656",
"F  c gray34",
"G  c #585858",
"H  c gray35",
"J  c #595B5B",
"K  c #5A5A5A",
"L  c #5B5B5B",
"P  c gray36",
"I  c #5D5D5D",
"U  c gray37",
"Y  c #5F5F5F",
"T  c #606060",
"R  c gray38",
"E  c #626262",
"W  c gray39",
"Q  c #646464",
"!  c #656565",
"~  c gray40",
"^  c #676767",
"/  c #686868",
"(  c DimGray",
")  c #6A6A6A",
"_  c gray42",
"`  c #6C6C6C",
"'  c #6D6D6D",
"]  c gray43",
"[  c #6F6F6F",
"{  c gray44",
"}  c #717171",
"|  c #727272",
" . c gray45",
".. c #777777",
"X. c gray47",
"o. c red",
"O. c #03B3DE",
"+. c #02CBDB",
"@. c #838383",
"#. c #8B8B8B",
"$. c #909090",
"%. c #939393",
"&. c #959595",
"*. c gray59",
"=. c #979797",
"-. c #989898",
";. c gray60",
":. c #9A9A9A",
">. c #9B9B9B",
",. c gray61",
"<. c #9D9D9D",
"1. c gray62",
"2. c #9F9F9F",
"3. c #A0A0A0",
"4. c gray63",
"5. c #A2A2A2",
"6. c gray64",
"7. c #A4A4A4",
"8. c #A5A5A5",
"9. c gray65",
"0. c #A7A7A7",
"q. c gray66",
"w. c #A9A9A9",
"e. c #AAAAAA",
"r. c gray67",
"t. c #ACACAC",
"y. c gray68",
"u. c #AEAEAE",
"i. c gray69",
"p. c #B4B4B4",
/* pixels */
"> @.=.%.=.=.=.=.;.;.;.<.<.<.<.3.3.3.3.3.3.8.8.8.8.8.9.9.0.0.e.e.e.e.e.t.t.t.t.u.u.u.u.u.u.u.u.u.u.u.u.u.u.u.u.u.u.u.u.u.u.u.u.u.u.u.u.u.u.u.u.u.u.i.p.",
"* X.^ E ^ ^ ^ / / ] ] / / ] / ] ' ] ] ' ' ] ] ] ] ] ] ] { { { ] ] { { { { { { { } } } } } } } } } } } } } } } } } } } } } } } } } } } } ] ] ] ] / X.e.",
"> } L A L A L I I I I I I I E I T I I I I o.I T I T I I I I T I I I T I I T I I I I O.I I I I O.I I O.I I I I I I I I I I I I I I I I I I L L A L I 9.",
"* } L Z A A L I I E E E E E I E T T T T 3 o.T T T T T T T T T T T T T T T T T T I O.E O.E E . O.I . E I E I E I E E E I E E E E E I E E I L A L A E 9.",
"> ] A Z A L L I I E I E E E I +.T E T E 3 o.T E E T E T E T E T E T E T E T E T . O.. O.E E . O.E E O.E E E O.O.O.I I O.O.O.I E E E E I I L L A A E 9.",
"* ] A Z A A I I E E E E E E +.+.+.E E E 4 o.E E E E E E E E E E E E E E E E E E O.I . I O.I . O.E . O.E E O.. . O.E . O.. E O.E E E E I I I L L A E 9.",
"> / A N A A I E E E E E E +.+.+.+.+.E E 4 o.E E E E E E E E E E E E E E E E E . O.O.O.O.O.E . O.E . O.E . O.I . O.E . O.I . O.E E E E E E I L A A I 9.",
"* / Z Z A L L I I E E E 2 4 4 +.3 E T E 3 o.T E E T E T E T E T E T E T E E I . O.. . . O.E . O.I . O.I . O.E . O.E . O.E . O.E E I E E I L L A A E 9.",
"* ^ Z N Z A L I I E E I E I 4 +.T T T T 3 o.T T E E I E I E E I I E T T T T T O.I E E . I O.. O.I . O.I . I O.O.O.E . O.I . O.I E I E I I L A A Z L 9.",
"* Q N x N Z A L I I I I I I 4 +.P P I I 3 o.I P I I I I I I I I I I I I I L . L I I I L . I . L I . I I L O.. . O.I . L I . I I I I I L I A Z Z N L 9.",
"% E N z N N Z F L L L I L L 2 +.P L L L 3 o.F P L L I L L L L L L P L L L L L L L L L L L L L L L L L L . L O.O.L L L L L L L L L L L L A A Z N N A 3.",
"% E x l z N N Z A A A A A A 2 +.F A A A 2 o.A F A A A A A O.A A A A A A L A A A A A A A A A A A A A O.A Z . . A A O.O.O.O.A A A A A A A A Z N O.x A 3.",
"% I l j l x N N Z Z Z Z Z Z 2 +.Z Z Z Z , o.Z Z Z Z Z Z . O.Z Z A Z Z Z Z Z Z Z A Z Z Z Z Z Z Z Z . O.Z Z Z Z Z O.. . . Z O.Z Z Z Z Z Z N N . O.x Z 3.",
"% P j f j z n N N N N Z Z N > +.N N N Z , o.Z Z Z N N N . O.N N N Z N Z Z O.O.O.N Z Z N O.O.O.Z Z O.O.O.N Z N . O.N N N . O.N N N O.O.O.N x . O.l N <.",
"% I f d f l +.x x N N x n n > o.N n n n > o.N x x N N x . O.x N n N x x O.. . x O.N x O.. . x O.. . O.x N x x . O.x x N . N N x O.. . x O.l . O.f N <.",
"% I d p d +.+.l z z x x z z o.o.o.z z z > o.x x x x x x . O.x x z x x . l z l . O.l . O.l l . l l . O.x x x x . x O.O.O.O.x l . O.l l . O.f . O.d x <.",
"% I p r +.+.+.+.+.+.+.+.+.o.o.o.o.o.f j > o.f j f f f f . O.f f l f f f f O.O.O.O.f . f O.O.O.f f . O.f f f f f . . . . f O.f . O.O.O.O.O.d . O.r x ;.",
"% P p * * +.+.* - * - - X X o.o.o.d a d * o.d d d d d d . O.p d d d d p O.. . . O.p d . . . d O.d . O.d d d d d O.d p d . O.p . O.. . . p p . O.r f =.",
"% P y 9 * % +.y y p y p p * * o.y y p p * o.y p p p p p . O.r p p r p . O.r r O.O.p r O.r p . O.r . O.r p p r . O.r p p . O.p . O.r p p O.r . O.q d %.",
"$ L r 7 7 % q q q e q q q q * q q e q q * o.q q q q q q . O.O.O.O.O.O.. q O.O.. O.q . q O.O.O.r q . O.O.q q q . q O.O.O.O.q q . q O.O.O.q 7 . O.7 d %.",
"$ L e 7 5 5 5 7 7 7 7 q 9 9 9 7 9 9 9 7 % o.9 7 7 7 7 q . . . . . . 7 7 . . 7 . 7 q 7 . . . 7 7 7 . . 7 7 7 q 7 . . . . 7 7 q 7 . . . 7 7 7 . 5 7 r #.",
"% ^ j d f f f f f f f f f f f f f f f f - f f f f f f f f f f f f f l f l f f l l f l f l l f l l l l l l l l l l l l x l l x x x l l l x x l l x A =.",
"O z A Z Z Z Z Z Z Z N Z Z Z Z Z Z Z Z Z Z Z Z Z Z Z Z Z Z Z Z Z Z Z Z A Z Z A A A A A A A A L L L L L L L I I I I I I E E E E E E ^ E ^ ^ ^ ^ ^ / ] ] ",
". O O O O O O O O $ O $ O O O O O O O O O O O $ O O O O O O O $ $ O O $ $ O $ $ $ $ $ $ $ O $ $ $ O $ $ $ $ $ $ $ $ $ * $ $ * * $ * * * * * * * * $ * "
};
