/* XPM */
static char *NinjaMesh_EdgeHard[] = {
/* columns rows colors chars-per-pixel */
"75 24 166 2",
"   c black",
".  c gray1",
"X  c #040404",
"o  c gray2",
"O  c #070707",
"+  c gray3",
"@  c #090909",
"#  c gray4",
"$  c #0B0B0B",
"%  c #0C0C0C",
"&  c gray5",
"*  c #0E0E0E",
"=  c gray6",
"-  c #101010",
";  c #111111",
":  c gray7",
">  c #131313",
",  c #2C2C2C",
"<  c #2D2D2D",
"1  c gray18",
"2  c #2F2F2F",
"3  c gray19",
"4  c #313131",
"5  c #323232",
"6  c gray20",
"7  c #343434",
"8  c #353535",
"9  c gray21",
"0  c #373737",
"q  c gray22",
"w  c #393939",
"e  c #3A3A3A",
"r  c gray23",
"t  c #3C3C3C",
"y  c gray24",
"u  c #3E3E3E",
"i  c #3F3F3F",
"p  c #025A6F",
"a  c gray25",
"s  c #414141",
"d  c gray26",
"f  c #434343",
"g  c #444444",
"h  c gray27",
"j  c #464646",
"k  c gray28",
"l  c #484848",
"z  c #494949",
"x  c gray29",
"c  c #4B4B4B",
"v  c #4C4C4C",
"b  c gray30",
"n  c #4E4E4E",
"m  c gray31",
"M  c #505050",
"N  c #515151",
"B  c gray32",
"V  c #535353",
"C  c gray33",
"Z  c #555555",
"A  c #565656",
"S  c gray34",
"D  c #585858",
"F  c gray35",
"G  c #5A5A5A",
"H  c #5B5B5B",
"J  c gray36",
"K  c #5D5D5D",
"L  c gray37",
"P  c #5F5F5F",
"I  c #606060",
"U  c gray38",
"Y  c #626262",
"T  c gray39",
"R  c #646464",
"E  c #656565",
"W  c gray40",
"Q  c #676767",
"!  c #686868",
"~  c DimGray",
"^  c #6A6A6A",
"/  c gray42",
"(  c #6C6C6C",
")  c #6D6D6D",
"_  c gray43",
"`  c #6F6F6F",
"'  c gray44",
"]  c #717171",
"[  c #727272",
"{  c gray45",
"}  c #777777",
"|  c gray47",
" . c #3B7F90",
".. c #3C8091",
"X. c #3D8191",
"o. c #3F8292",
"O. c #408393",
"+. c #438595",
"@. c #478797",
"#. c #4A8998",
"$. c #4C8A9A",
"%. c #508D9C",
"&. c #518E9C",
"*. c #538F9E",
"=. c #5B94A2",
"-. c #5D95A3",
";. c #6097A5",
":. c #6198A5",
">. c #6299A6",
",. c #659BA8",
"<. c #679CA9",
"1. c #699DAA",
"2. c #6C9FAC",
"3. c #6DA0AC",
"4. c #6EA0AD",
"5. c #6FA1AD",
"6. c #70A2AE",
"7. c #74A4B0",
"8. c #75A5B1",
"9. c #77A6B2",
"0. c #78A7B2",
"q. c #7AA8B4",
"w. c #7BA9B4",
"e. c #7CAAB5",
"r. c #7EABB6",
"t. c #03B3DE",
"y. c #838383",
"u. c #8B8B8B",
"i. c #909090",
"p. c #939393",
"a. c #959595",
"s. c gray59",
"d. c #979797",
"f. c #989898",
"g. c gray60",
"h. c #9A9A9A",
"j. c #9B9B9B",
"k. c gray61",
"l. c #9D9D9D",
"z. c gray62",
"x. c #9F9F9F",
"c. c #80ACB7",
"v. c #83AEB9",
"b. c #84AFB9",
"n. c #85AFBA",
"m. c #8AB3BD",
"M. c #8EB5BF",
"N. c #A0A0A0",
"B. c gray63",
"V. c #A2A2A2",
"C. c gray64",
"Z. c #A4A4A4",
"A. c #A5A5A5",
"S. c gray65",
"D. c #A7A7A7",
"F. c gray66",
"G. c #A9A9A9",
"H. c #AAAAAA",
"J. c gray67",
"K. c #ACACAC",
"L. c gray68",
"P. c #AEAEAE",
"I. c gray69",
"U. c #B4B4B4",
"Y. c #93B9C2",
"T. c #98BCC5",
/* pixels */
"> y.d.p.p.d.d.f.g.g.j.j.l.l.l.x.N.N.B.B.V.V.V.S.S.A.S.S.S.G.H.H.H.H.H.H.L.L.L.L.L.L.L.P.P.P.P.P.P.P.P.P.L.P.P.P.P.P.P.P.P.P.P.P.L.L.I.L.L.L.L.L.L.L.U.",
"* | Q Y Q Q Q ! ! / / / / _ _ / ) ) ) ) ) ) _ _ _ _ _ _ _ _ _ _ ] _ ] _ _ ] ] _ ] ] ] ] ] ] ] ] ] ] ] ] ] ] ] ] ] ] ] ] ] ] ] ] ] ] ] ] ] _ _ _ _ } J.",
"> ] H C p p H J K K K K K K K K P P P p p P P P P P P P P P P P P P P P P P P P K P P K P K K K K K P K K K K K P K K K K K P K K K K K K H H C C K A.",
"* ] H o p p p K Y I Y I Y I I Y P U p p p P P P P U P P P P P P P U P P P U P P P P Y K Y P Y P Y Y P Y Y P Y P Y P Y P Y Y P Y Y K Y Y K H C H H Q A.",
"> _ H o p @.p p p p p p p p p p p p p 6.p P U P U U U U U U U U U P U P U U U U Y P Y Y Y P Y Y Y P Y P Y Y P Y P Y Y P Y P Y Y Y Y K K K H H C C Y A.",
"* _ C o p +.#.%.p ;.1.2.8.c.m.Y.p n.q.6.p T T T U T U T U T U T T T T T T U U T Y Y Y Y Y Y Y Y Y Y Y Y Y Y Y Y Y Y Y Y Y Y Y Y Y Y Y Y K K H H C Y A.",
"> ! C o p +.#.%.p ;.<.5.8.c.M.T.p n.q.0.p T T T T T T T T T T T T U T U U T T U Y Y Y Y Y Y Y Y Y Y Y Y Y Y Y Y Y Y Y Y Y Y Y Y Y Y Y Y Y H K C C Y A.",
"* ! B o p +.#.%.p :.<.6.0.c.M.T.p n.q.6.p P P T P U P U P U P U U U U U U U U U Y P Y Y P Y t.Y Y Y P Y t.P Y Y Y Y Y Y P Y Y P Y Y K Y K K t.C C K B.",
"* W M o p +.#.&.p :.1.5.8.c.M.T.p n.q.0.p P P U I P I P I P P P P P U P P P U P U P U P Y   t.P Y K Y   t.Y K Y K Y Y K Y P Y K Y K Y K K   t.B B K A.",
"* E n o p +.#.&.p :.,.5.0.c.M.T.p n.q.6.p P H P P J P J P H P P K K K P K K K K K K K P K   t.K K K K   t.K K K t.t.t.K K K t.K t.K K t.t.  t.B b H B.",
"& T v o p p #.&.p :.1.5.0.c.M.T.p n.q.p p H A H H F H F H F H H F H H F H H H H F H H F H   t.H H H H   t.H K t.    K t.K   t.t.K H t.  C t.t.B b H B.",
"& I z o p p p %.p :.,.6.8.c.M.T.p n.p p p A A A A A A A A A A A A A A A A A A A A A A A A   t.t.t.t.t.t.t.C   C C C   t.C   t.C C   t.C     t.b z C B.",
"& P j o p O.p p p p p p p p p p p p p 2.p C B B B B B C B B C B B B B B Z B B B B B B B Z . t.          t.C B B t.t.t.t.C   t.B B   t.C B   t.z j B B.",
"$ J g . p O.#.%.p ;.<.6.0.c.M.T.p n.q.1.p n B n n B M M B n M M n N N n N N N n n N N n n   t.n b B B   t.b B t.      t.B   t.B B   t.b b   t.j j B l.",
"& L d o p X.#.&.p ;.<.4.0.c.M.T.p n.0.,.p v v v v v v v v v v v b b b b v b v b b b b b b   t.v b z z   t.b   t.b z t.t.b   t.z z   t.z z   t.f f b l.",
"$ J i . p X.#.%.p ;.<.6.8.c.M.T.p n.q.,.p z v j j v j z j v j z z j j z j z j z z j j z z   t.z z z z   t.z   z t.t.  t.z   t.z z   z t.t.t.t.f u z g.",
"& J t o p  .#.%.p :.<.6.7.c.M.T.p b.q.-.p d d d d d d d d g d d f f f f f f f f f f f f f   f f f f f   f f f     f   f f   f f f f         u w w j g.",
"& J e . p p #.%.p :.<.6.7.c.M.T.p b.q.%.p y i i y i i i i i y i u u u u u u u u u u u u u u u u u u u u u u u u u u u u u u u u u u u u u w w 0 0 j d.",
"$ J q . . p p &.p :.<.6.7.c.M.T.p b.&.p p e e q q e e e q e q e w w w w w w w w w w w w w w w w w w w w w w w w w w w w w w w w w w w w 0 0 6 6 6 f p.",
"$ H 9 1 . o p p p #.=.2.w.c.w.6.p p p p 6 6 6 6 6 6 6 6 6 6 6 6 6 6 6 6 6 6 6 6 6 6 6 6 6 6 6 6 6 6 6 6 6 6 6 6 6 6 6 6 6 6 6 6 6 6 6 6 6 6 2 2 2 f u.",
"& F 8 , , o . . p p p p p p p p p p o 1 1 1 1 3 1 3 1 3 1 3 1 3 2 2 2 2 2 2 2 2 2 2 2 2 2 2 2 2 2 2 2 2 2 2 2 2 2 2 2 2 2 2 2 2 2 2 2 2 2 2 2 , , 0 u.",
"& ! g i a a a . o o . o o . o o . d d d d d d d d d d d d d g d f f f f f j j f j f j f j j j f j j j j j j z z j j j z z j z z z z z j j z j z z C d.",
"O j A B N B B B B B B B N N N B B B B B B B B B B B B B B B B B C C B C C C C C C H C C C H H H H H H K K K K K Y K K Y Y Y Y Y Y Q Q Q Q Q Q Q Q _ _ ",
"o o + + + + + + + + + + + + + O + + + + + + + + + + + O O $ + + @ o @ @ @ @ @ @ @ @ @ @ @ @ @ @ @ @ @ @ @ * @ @ * @ * @ * @ * * * @ * @ * * * * * @ * "
};
