/* XPM */
static char *NinjaUV_AlignCenV[] = {
/* columns rows colors chars-per-pixel */
"75 24 124 2",
"   c black",
".  c #020202",
"X  c gray2",
"o  c #070707",
"O  c gray3",
"+  c #090909",
"@  c gray4",
"#  c #0B0B0B",
"$  c #0C0C0C",
"%  c gray5",
"&  c #0E0E0E",
"*  c gray6",
"=  c #101010",
"-  c #111111",
";  c gray7",
":  c #2C2C2C",
">  c #2D2D2D",
",  c gray18",
"<  c #2F2F2F",
"1  c gray19",
"2  c #313131",
"3  c #323232",
"4  c gray20",
"5  c #343434",
"6  c #353535",
"7  c gray21",
"8  c #373737",
"9  c gray22",
"0  c #393939",
"q  c #3A3A3A",
"w  c gray23",
"e  c #3C3C3C",
"r  c gray24",
"t  c #3E3E3E",
"y  c #3F3F3F",
"u  c gray25",
"i  c #414141",
"p  c gray26",
"a  c #434343",
"s  c #444444",
"d  c gray27",
"f  c #464646",
"g  c gray28",
"h  c #484848",
"j  c #494949",
"k  c gray29",
"l  c #4B4B4B",
"z  c #4C4C4C",
"x  c gray30",
"c  c #4E4E4E",
"v  c gray31",
"b  c #505050",
"n  c #515151",
"m  c gray32",
"M  c #535353",
"N  c gray33",
"B  c #555555",
"V  c #565656",
"C  c gray34",
"Z  c #585858",
"A  c gray35",
"S  c #5A5A5A",
"D  c #5B5B5B",
"F  c gray36",
"G  c #5D5D5D",
"H  c gray37",
"J  c #5F5F5F",
"K  c #606060",
"L  c gray38",
"P  c #626262",
"I  c gray39",
"U  c #646464",
"Y  c #656565",
"T  c gray40",
"R  c #676767",
"E  c #686868",
"W  c DimGray",
"Q  c #6A6A6A",
"!  c gray42",
"~  c #6C6C6C",
"^  c #6D6D6D",
"/  c gray43",
"(  c #6F6F6F",
")  c gray44",
"_  c #717171",
"`  c #727272",
"'  c gray45",
"]  c #767676",
"[  c gray47",
"{  c red",
"}  c green",
"|  c #838383",
" . c gray52",
".. c #898989",
"X. c gray55",
"o. c gray56",
"O. c #929292",
"+. c gray58",
"@. c #959595",
"#. c gray59",
"$. c #979797",
"%. c #989898",
"&. c gray60",
"*. c #9A9A9A",
"=. c #9B9B9B",
"-. c gray61",
";. c #9D9D9D",
":. c gray62",
">. c #9F9F9F",
",. c #A0A0A0",
"<. c gray63",
"1. c #A2A2A2",
"2. c gray64",
"3. c #A4A4A4",
"4. c #A5A5A5",
"5. c gray65",
"6. c #A7A7A7",
"7. c gray66",
"8. c #A9A9A9",
"9. c #AAAAAA",
"0. c gray67",
"q. c #ACACAC",
"w. c gray69",
"e. c gray100",
/* pixels */
"; | #.O.#.#.#.#.#.&.#.&.-.&.-.-.-.-.-.,.,.,.,.3.3.,.3.7.3.7.7.7.7.8.8.8.8.8.0.0.0.0.q.q.q.q.0.q.q.q.q.q.q.q.q.q.q.q.0.q.q.q.q.q.q.q.q.q.q.q.8.8.q.w.w.",
"& [ R P R R R Q Q Q ( Q ( Q ( ( ( ( ( ( ( ( ( ( ( ( ( ( ( ( ( ( ( ( _ ( _ _ ( _ _ _ _ _ _ _ _ _ _ _ _ _ _ _ _ _ _ _ _ _ _ _ _ _ _ _ _ _ ( ( ( ~ ( ] 3.",
"; _ D N D N D G G G G G G G G G G G G G G G G G G G G G G G G G G G G G G G G G G G G G K G G G K G K G G G G G K G G G K G K G G G G G D D D D D G ,.",
"; _ D M N N D G P G P P P P G P P G P P P } P G P K K P K P P G P } P K P K P P K } P K K K P K K K K K K } P K K K P K K K K K K P P G G D C C N I ,.",
"& ( N M N D D G P G P P P P G P P P G P } } } P P P P G P P K P } } } K P K P K } } } K J P P J P K P K } } } K K P K P P K P K P K P G G D D N N P ,.",
"& ( M M N N G G P P P P P P P P P P P } } } } } e.e.e.e.e.e.e.} } } } } P P P } } } } } e.e.e.e.e.e.e.} } } } } P P P P P P P P P P P K G G D D N P ,.",
"& Q N M N N G P G P P P P P P P P P . . } } } . . . . . . . . . } } } P P P . . } } } . . . . . . . . . } } } P P P P P P P P P P P P P P D D N N G ,.",
"& Q M v N D D G P P P P G P P P P P G . . } J P G P G P P G P . . } P P P P G . . } K P P J P P K P G . . } K P K P K P K P K P K P K P G G D N N G ,.",
"& R M v M N D G G G P G P P G P P G P J . e.J P P J J J J P J J . e.G P J P J J . e.J J J P J J P J J J . e.P J K K K K K K K K P G P G G D N N M D -.",
"& P v k M N N G G G G G G G G G G G G G . e.D D G G G D G G G D . e.G G D D G G . e.G G D D G G G G G D . e.G D G G G G G G G G G G G D D N M M v D ,.",
"@ P k k k M M N D D D G D G D D D D D D . e.D D D D D D D D D D . e.D D A D D D . e.D D A D D D D D D D . e.D D D D D D D D D D D D D D D M M v v N -.",
"@ P g g k k v M N N N N N N N N N N N { { { { { { { { { { { { { { { { { { { { { { { { { { { { { { { { { { { { { N N N C N C N N N N N N M M v k k N &.",
"& G g p g k v v M M M M N M M M M M . . . . . . . . . . . . . . . . . . . . . . . . . . . . . . . . . . . . . M M M M M N N N M M M M M b v k g g M &.",
"@ G g p p k k v v v v v M v v v b b v v . e.v v v v v v b b v v . e.b b v v v M . e.b b v v v M v v v v . e.v v b b b b b b b b b b b v v k k g s v &.",
"& G p r p p g g k v k v v k v k z z v k . e.v k v k k v z z v k . e.k z k v k k . e.k z k v k k v k k v . e.z z z z z z z z z z z z v k h g g p p k #.",
"@ G r q r p p g g g k g g g k g h g g g . } g g g k g g h g g k . } h h k g g k . } h h k g g k g k g g . } h h h h h h h h h h h g g g g p p p r k +.",
"@ G q 8 q r r p g p p g p p g p p p p p } } } s p p p p p g p p } } } p p g p p } } } p p p p p p p p p } } } p s p s s s s s p g p p s p r r r q g O.",
"@ G q 8 8 8 q r r r r r r r r r r r r } } } } } e.e.e.e.e.e.e.} } } } } r r r } } } } } e.e.e.e.e.e.e.} } } } } r r r r r r r r r r r r r e q q 8 p o.",
"@ D 8 1 1 8 8 8 q q q q q q q 8 q q . . } } } . . . . . . . . . } } } q q q . . } } } . . . . . . . . . } } } q q q 9 q q q q q q q q q 8 8 8 1 1 u X.",
"& D 8 > > 1 1 1 1 1 8 1 8 1 1 8 8 1 1 . . } 5 1 8 1 1 8 1 1 1 . . } 5 1 8 1 1 . . } 1 8 1 1 5 5 1 1 1 . . } 1 8 5 5 1 5 1 5 1 5 1 8 1 1 1 1 > 1 1 r ..",
"& N 8 > > : > > 1 > 1 1 1 1 > > 1 > 1 > . > > 1 > 1 > 1 1 > > > . > 1 > > > 1 > . > > > > > 1 > 1 > > > . > > 1 1 > > 1 1 > 1 1 > > 1 > > > : : > 8  .",
"@ R g r p p p p r p p p p p p p p p p p p p p p p p p p p p g p p p p g p g g p p g g g g s g s g g g g g g g g h h h h k h h h k k k k k h k k h N O.",
"@ g N M M M M M M M M M M M M M M M M M M M M M M M M M M M M M M N N N N N N N N N N N N D D D D D D D D G G G G K K K P P P I P I I R R R R R E Q ( ",
". X @ X X @ X X @ X @ X @ X @ X O O X @ X O @ X X @ X O @ X O O O O O O @ @ @ @ @ @ @ @ O @ @ @ @ @ @ @ @ @ & @ @ $ $ $ @ $ $ & $ & & & @ & & & & @ & "
};
