/* XPM */
static char *Ninja_Mesh_IconB[] = {
/* columns rows colors chars-per-pixel */
"32 32 256 2",
"   c #2F0F0F",
".  c #2D1414",
"X  c #2D181B",
"o  c #321616",
"O  c #341919",
"+  c #3C1C1C",
"@  c #3A1515",
"#  c #2D2229",
"$  c #332126",
"%  c #3D2525",
"&  c #3F2929",
"*  c #3E3030",
"=  c #4B1616",
"-  c #431C1C",
";  c #4B1C1C",
":  c #421313",
">  c #561C1C",
",  c #5D1B1B",
"<  c #6F1E1E",
"1  c #661E1E",
"2  c #771E1E",
"3  c #432222",
"4  c #4D2424",
"5  c #412D2D",
"6  c #4D2929",
"7  c #532323",
"8  c #5A2424",
"9  c #562C2C",
"0  c #5C2B2B",
"q  c #443232",
"w  c #583030",
"e  c #622626",
"r  c #682222",
"t  c #642A2A",
"y  c #6B2D2D",
"u  c #712323",
"i  c #7A2323",
"p  c #742C2C",
"a  c #7D2D2D",
"s  c #643535",
"d  c #6A3434",
"f  c #6B3A3A",
"g  c #733535",
"h  c #7B3333",
"j  c #753C3C",
"k  c #7C3A3A",
"l  c #3F394D",
"z  c #2E3659",
"x  c #363A5B",
"c  c #1B387F",
"v  c #253D79",
"b  c #433A47",
"n  c #3E4268",
"m  c #27427F",
"M  c #354173",
"N  c #3C4979",
"B  c #54445B",
"V  c #774040",
"C  c #7D4444",
"Z  c #7F4A4A",
"A  c #6B4750",
"S  c #774A51",
"D  c #755959",
"F  c #424C75",
"G  c #734F60",
"H  c #7E5C65",
"J  c #7B657A",
"K  c #812222",
"L  c #8A2424",
"P  c #832B2B",
"I  c #8E2C2C",
"U  c #922525",
"Y  c #952B2B",
"T  c #833232",
"R  c #8C3434",
"E  c #833A3A",
"W  c #8C3C3C",
"Q  c #943434",
"!  c #983434",
"~  c #963B3B",
"^  c #9C3E3E",
"/  c #844545",
"(  c #8A4444",
")  c #834C4C",
"_  c #8C4C4C",
"`  c #934343",
"'  c #9B4444",
"]  c #954D4D",
"[  c #9D4B4B",
"{  c #845454",
"}  c #8F5050",
"|  c #86595A",
" . c #895C5C",
".. c #945252",
"X. c #9C5454",
"o. c #9B5B5B",
"O. c #A34C4C",
"+. c #A45353",
"@. c #AA5454",
"#. c #A35C5C",
"$. c #AD5B5B",
"%. c #875D66",
"&. c #8D6363",
"*. c #8B676B",
"=. c #8F6969",
"-. c #916C6C",
";. c #82627A",
":. c #806173",
">. c #966F7F",
",. c #937070",
"<. c #A66363",
"1. c #AC6464",
"2. c #AE6C6C",
"3. c #B16464",
"4. c #B56B6B",
"5. c #B57171",
"6. c #B97474",
"7. c #BE7C7C",
"8. c #0F3A94",
"9. c #153D94",
"0. c #183A8A",
"q. c #243E82",
"w. c #123FA2",
"e. c #1A459D",
"r. c #2E4785",
"t. c #354783",
"y. c #2F4B90",
"u. c #1642A3",
"i. c #1C4CAD",
"p. c #1244A9",
"a. c #184CB8",
"s. c #2351AF",
"d. c #2453BD",
"f. c #295ABB",
"g. c #375BB7",
"h. c #2D61BF",
"j. c #555E96",
"k. c #5A5989",
"l. c #717099",
"z. c #4E65B2",
"x. c #556FBC",
"c. c #5D73BE",
"v. c #7176A9",
"b. c #7F7EB0",
"n. c #737EBA",
"m. c #1B52C1",
"M. c #265CC5",
"N. c #345DC3",
"B. c #215AD3",
"V. c #2D63C3",
"C. c #2C62C9",
"Z. c #326CCF",
"A. c #2E69D8",
"S. c #326AD3",
"D. c #326DDD",
"F. c #3671D6",
"G. c #3976DA",
"H. c #3672DC",
"J. c #1B5AE0",
"K. c #2964E2",
"L. c #2B69EA",
"P. c #2666EC",
"I. c #326DE0",
"U. c #3B76E6",
"Y. c #3779EF",
"T. c #3B7CEC",
"R. c #3978E9",
"E. c #266AF1",
"W. c #2C70F2",
"Q. c #3B7DF9",
"!. c #4267C6",
"~. c #5474C4",
"^. c #4A7AE3",
"/. c #81748D",
"(. c #987E97",
"). c #A27380",
"_. c #B17B81",
"`. c #8278A3",
"'. c #7786BC",
"]. c #3D81FD",
"[. c #00A8FF",
"{. c #7A8DCA",
"}. c #7C94D2",
"|. c #4888E7",
" X c #4C8CEC",
".X c #4583E9",
"XX c #498BF4",
"oX c #4384FC",
"OX c #4984F8",
"+X c #508CFF",
"@X c #4E90FC",
"#X c #5896F0",
"$X c #5B96FE",
"%X c #5D9BFC",
"&X c #5493F5",
"*X c #759AE7",
"=X c #649AFA",
"-X c #65A3F6",
";X c #6CA3FE",
":X c #6DAAFA",
">X c #6CA9F7",
",X c #75ADFB",
"<X c #7AAAFE",
"1X c #7DB3FE",
"2X c #B98C96",
"3X c #AA8899",
"4X c #9D86A3",
"5X c #8588B3",
"6X c #C28484",
"7X c #C68B8B",
"8X c #C38F92",
"9X c #CA9494",
"0X c #CD9A9A",
"qX c #84A3E7",
"wX c #93AFEB",
"eX c #83AFFF",
"rX c #81A6FB",
"tX c #89B2FF",
"yX c #82B9FB",
"uX c #8CBDFE",
"iX c #87B3FE",
"pX c #9CB7F4",
"aX c #90B7FF",
"sX c #95BEFE",
"dX c #9BBEFF",
"fX c #A1BCF5",
"gX c #8CC2FC",
"hX c #9DC1FE",
"jX c #9CCAFE",
"kX c #A6C0F7",
"lX c #A4C3FE",
"zX c #A2CDFE",
"xX c #ACCBFF",
"cX c #A9C2FA",
"vX c #B3CEFF",
"bX c #BACFFF",
"nX c #ABD3FE",
"mX c #AED8FE",
"MX c #B5D2FE",
"NX c #BCD4FF",
"BX c #B6DBFF",
"VX c #BCDBFE",
"CX c #C4DBFF",
"ZX c #CADEFF",
"AX c #C6E5FD",
"SX c #CBE2FF",
"DX c #CBE8FE",
"FX c #D4E6FE",
"GX c #D0E8FF",
"HX c #DBEDFE",
"JX c #DDF0FE",
"KX c #E2EFFE",
"LX c #E3F1FF",
"PX c #ECF5FF",
"IX c #F3FAFF",
"UX c #FAFDFF",
/* pixels */
"6 3 + % % % % % % & & & & 5 & q 5 5 5 q q q q q q q q q q q q # ",
"} } Z Z Z ) ) { { { { { | H /.5X'.'.l.J *.*.=.=.=.-.-.,.,.,.D * ",
"$.3.3.3.3.4.4.4.4.4.5.).`.}.wXfXcXkXpXqX{.4X8X9X9X9X0X0X0X0X,.q ",
"$.$.3.3.3.1.2.1.1.$.l.{.pXMXvXbXNXvXvXxXfX*Xb.2X9X9X9X9X0X0X,.q ",
"$.$.$.$.1.$.#.#.o.J x.fXxXvXCXCXCXCXNXxXlXdX*Xn.2X9X9X9X0X0X-.q ",
"@.$.$.$.$.#.o...%.~.rXfXcXNXZXFXFXFXZXbXlXdXtX^.`.8X9X9X0X0X-.q ",
"@.@.@.+.+..._ Z k.^.uXhXMXSXFXLXPXKXFXCXxXsXtX=XN.3X9X9X9X9X-.q ",
"@.+.+.X...) V A d.OXiXlXMXSXLXIXUXPXKXZXvXsXeX$XJ.5X7X8X9X0X=.q ",
"O.O.[ ] ( V s B A.oX<XhXMXGXLXUXUXIXHXAXxXsX<X@XP.c.7X7X9X9X=.q ",
"O.O.' ( j d w N P.^.;XsXMXSXLXIXUXPXHXAXxXuX;X].E.!.7X7X7X9X-.5 ",
"O.' ` k d 0 4 t.L.oX$X1XjXVXGXJXLXJXDXBXjX1X%X].W.N.6X7X7X7X&.q ",
"' ' ( j s 4 % M K.Q.@X;XuXnXVXAXDXAXBXzXyX:XXX].L.g.6X7X7X7X&.q ",
"^ ~ E g 0 3 + n B.Y..X$X,XuXzXnXmXnXjXgX,X$XoXR.B.z.6X6X7X7X&.5 ",
"` W E y 8 3 O b a.K.U.OX=X,XyXgXgXgX1X,X-XXX].D.a.v.6X6X6X7X&.5 ",
"^ W h t 7 3 O $ r.m.D.U.|.#X-X>X,X:X>X&XXXT.I.M.u.(.7.6X6X6X&.5 ",
"~ W h y 7 - O . b u.M.S.H.U.|. X&X X|..XG.S.C.p.j._.7.6X6X6X%.5 ",
"^ R h y 8 - O . O F e.a.C.Z.F.G.G.G.F.Z.C.M.p.y.).6.7.7.6X6X| 5 ",
"~ R T p 8 ; + o . # M e.i.d.V.V.h.h.h.f.s.y.q.:.2.6.7.7.7.6X| 5 ",
"! Q T p e 4 + o o . # z c e.8.e.e.e.e.0.0.v D <.2.5.6.6.7.6X .5 ",
"~ Q R a y 8 ; + X . . X # z N r.r.v m n B S ..<.2.5.6.6.6.6.{ 5 ",
"! Q R P p e 8 ; + + o o o o O + O 3 w f C } #.1.4.4.6.6.6.6. .5 ",
"! ! Q R T p e 9 ; - + + + + + 3 6 w s V ) ..#.1.4.4.4.6.6.7.{ 3 ",
"Y R P [.I a p e 7 [.4 ; 4 4 4 9 9 d j ( ......[.3.4.4.4.5.6.{ 5 ",
"Y i > [.[.R p 7 [.[.t t 0 t t y g V ( ] X.( f [.3.3.4.4.4.5.{ % ",
"Y u   [.[.Q p o [.[.p e [.[.[.k j k [.[.[.C 9 [...[.[.4.4.4.{ % ",
"Y u   [.r [.r [.. [.e [.- 4 y [.d [.7 9 V [.6 [.[.d ) [.4.4.) % ",
"Y < : [.> [.> [.: [.; [.[.[.[.[.t 7 [.[.j d 3 [.V f f [.4.4.) % ",
"Y < = [.= [.= [.; [.@ [.; - 7 h h 0 0 g [.k 4 [.+./ w [.3.3.) % ",
"U < = [.> = [.> > [.: [.p y y [.E [.g t k [.9 [.$./ 9 [.3.3.) % ",
"U < = [.r = [.r ; [.> e [.[.[.h y p [.[.[.d 8 [.@./ 9 [.$.3.C % ",
"U 2 , 2 2 , i i , u u > > > p R h 8 7 0 h k y ( @.( d _ $.3.] % ",
"U L K L L K I I P I Q a p a Q ^ ~ h a E ` ' ` [ @.[ ] +.$.$._ 6 "
};
