/* XPM */
static char *NinjaMesh_PivCenter[] = {
/* columns rows colors chars-per-pixel */
"84 24 137 2",
"   c #1C0A0A",
".  c gray8",
"X  c #1E1E1E",
"o  c #3E0505",
"O  c #3E0D0D",
"+  c #251E1E",
"@  c #252525",
"#  c #2B2727",
"$  c #2C2C2C",
"%  c #332222",
"&  c #343434",
"*  c #353A3B",
"=  c #3B3B3B",
"-  c #4A0505",
";  c #4F1E1E",
":  c #660707",
">  c #7C0909",
",  c #751212",
"<  c #522E2E",
"1  c #592E2E",
"2  c #453232",
"3  c #3C4647",
"4  c #444444",
"5  c #464D4D",
"6  c #4B4A4A",
"7  c #404F51",
"8  c #435253",
"9  c #4E5252",
"0  c #455658",
"q  c #47585A",
"w  c #4C5C5E",
"e  c gray33",
"r  c #5C5C5C",
"t  c #6B4646",
"y  c #4A6668",
"u  c #4E686A",
"i  c #536365",
"p  c #5D6263",
"a  c #546A6C",
"s  c #59696A",
"d  c #536E70",
"f  c #577275",
"g  c #5A7A7D",
"h  c #656565",
"j  c #696969",
"k  c #617A7D",
"l  c #747474",
"z  c #7B7C7C",
"x  c #830404",
"c  c #8F0101",
"v  c #940000",
"b  c #9C0202",
"n  c #A70000",
"m  c #AB0202",
"M  c #A40909",
"N  c #B60202",
"B  c #BA0000",
"V  c #B10C0C",
"C  c #9E2E2E",
"Z  c #C40000",
"A  c #8D7070",
"S  c #827F7F",
"D  c #A37878",
"F  c #547C80",
"G  c #5B7E81",
"H  c #637F81",
"J  c #5C878B",
"K  c #5C898D",
"L  c #5F8D91",
"P  c #648184",
"I  c #6D8284",
"U  c #64868A",
"Y  c #628A8D",
"T  c #6D898C",
"R  c #718283",
"E  c #738D8F",
"W  c #7A8A8B",
"Q  c #628E93",
"!  c #798E90",
"~  c #649194",
"^  c #699396",
"/  c #65969A",
"(  c #6A969A",
")  c #679A9F",
"_  c #6B999D",
"`  c #719194",
"'  c #769B9E",
"]  c #659EA3",
"[  c #6E9CA1",
"{  c #6CA1A5",
"}  c #6DA5AA",
"|  c #78A1A5",
" . c #75A6AA",
".. c #79A5A9",
"X. c #76A9AE",
"o. c #75AEB2",
"O. c #7AAEB2",
"+. c #71B1B6",
"@. c #7DB0B4",
"#. c #74B6BC",
"$. c #7DB6BC",
"%. c #75B9BF",
"&. c #7BBABF",
"*. c #77BBC1",
"=. c #7DBCC2",
"-. c #75C1C7",
";. c #7AC0C6",
":. c #7CC5CC",
">. c #7FCFD6",
",. c #848484",
"<. c #828D8D",
"1. c #898989",
"2. c gray58",
"3. c #9E9090",
"4. c #999999",
"5. c #82B3B8",
"6. c #88B7BB",
"7. c #A5A5A5",
"8. c #ABABAB",
"9. c #B4B4B4",
"0. c #BDBDBD",
"q. c #8ABFC4",
"w. c #89C1C6",
"e. c #80C4CB",
"r. c #88C7CD",
"t. c #85C9CF",
"y. c #89C8CD",
"u. c #83D1D7",
"i. c #83D3DA",
"p. c #8AD6DD",
"a. c #81D8DF",
"s. c #84D9E0",
"d. c #8BDBE2",
"f. c #90DCE3",
"g. c #C3C3C3",
"h. c #C8C8C8",
"j. c #DADADA",
/* pixels */
"X j ,.,.,.,.,.,.,.,.,.,.,.,.,.,.,.,.,.,.,.,.l j ,.,.,.,.,.,.,.,.,.1.,.,.1.,.,.,.,.1.,.,.,.,.,.,.,.,.,.1.,.,.,.,.,.,.,.,.,.,.,.,.,.,.,.,.,.,.,.,.,.,.,.,.,.,.,.,.,.1.2.7.",
"X $ j j j j j j j j j j j j j j j j j h p h h j h j j j j j j j j j j j j j j j j j j j j j j j j j j j j j j j j j j j j j j j j j j j j j j j j j j j j j j j j j ,.2.",
"+ * 4 4 4 4 6 4 4 6 4 4 4 6 4 4 4 4 4 = = = j 8.4 4 4 6 4 4 4 6 4 4 4 4 6 4 4 4 4 4 4 6 4 4 4 5 4 4 4 4 6 4 4 4 4 4 4 6 6 4 4 4 4 6 4 4 4 4 4 6 6 4 4 4 4 4 4 6 4 4 j ,.",
"X = 4 4 4 4 4 4 4 4 4 4 4 4 4 4 4 4 4 = & & 2.h.6 4 4 4 4 4 4 4 4 4 4 4 4 4 4 4 4 4 4 4 4 4 4 4 4 4 4 4 4 4 4 4 4 4 4 4 4 4 4 4 4 4 4 4 4 4 4 4 4 4 4 4 4 4 4 4 4 4 h S ",
"X * 4 4 4 4 4 4 4 4 4 4 4 4 4 4 4 4 = = $ & 9.g.r 4 4 4 4 4 4 4 4 4 4 4 4 4 4 4 4 4 4 4 4 4 4 4 4 4 6 4 4 4 4 4 4 4 4 4 4 4 4 4 4 4 4 4 4 4 4 4 4 4 4 4 4 4 4 4 4 4 h S ",
"X * 4 4 4 4 4 4 4 4 4 4 4 4 4 4 4 4 = & @ 4 g.0.,.4 4 4 4 4 4 4 4 4 4 4 4 4 4 4 4 4 4 4 4 4 4 4 4 4 4 4 4 4 4 4 4 4 4 4 4 4 4 4 4 4 4 4 4 4 4 4 4 4 4 4 4 4 4 4 4 4 h ,.",
"X & 4 4 4 4 4 4 4 4 4 4 4 4 4 4 4 4 = $ @ 9 9.g.,.4 4 4 4 4 4 4 4 4 4 4 4 4 6 e h j l z l 9 4 4 4 4 4 4 4 4 4 4 4 4 4 4 6 e j p 6 4 4 4 4 4 4 4 4 4 4 4 4 4 4 4 4 4 h S ",
"X & 4 4 4 4 4 4 4 4 4 4 4 4 4 4 4 4 = $ @ X r 2.4 4 4 4 4 4 4 4 4 4 4 4 4 4 4 P ;.a.>.&.W j 6 4 4 4 4 4 4 4 4 4 4 4 4 6 4 ` 6.z 4 4 4 4 4 4 4 4 4 4 4 4 4 4 4 4 4 4 j S ",
"+ & 4 4 4 4 4 4 4 4 4 4 4 4 4 4 4 3 = $ @ X 6 z 4 4 4 4 4 4 4 4 4 4 = 4 4 4 g s./ 4 5 +.>.p 9 e j l z j r e j l l l l e i d.w.1.j r j l z l e e j z l j r 4 4 4 4 4 h ,.",
"X = 4 4 4 4 4 4 4 4 4 4 4 4 4 4 4 4 = * # # e ,.4 4 4 4 4 4 4 4 4 4 4 = = = :.:.e 4 4 4 4 4 4 U u.a.=.<.p ( a.@.u.a.5.r u.d.d.y.p T p.f.w.,.p ' p.w.f.' e 4 4 4 4 4 h ,.",
"X * 4 4 4 4 4 4 6 4 4 4 4 4 4 4 4 4 2 & $ $ e ,.4 4 4 4 4 4 4 4 4 4 = = = 5 a.X.h 4 = 4 4 = a s. .5 :.e.r ~ a.#.= %.a.k w p.@.r a d. .5 t.y.p ^ f...9 9 6 4 4 4 4 4 h ,.",
"+ & 4 6 4 4 4 4 4 4 4 4 4 4 4 4 4 4 4 = $ $ 9 <.4 4 4 4 4 4 4 4 = = = = = w a. .j = = = 4 = ) d.I 4 ~ a.i ~ a.Y = Q p.P w u.O.6 _ p.I 4 ~ d.s ^ p.E r 4 4 4 4 4 4 4 h W ",
"X = 4 4 4 4 4 4 4 4 4 4 4 4 4 4 4 4 2 & & % t A 2 4 4 4 4 4 4 4 = = = & & 5 d.@.z = = = = * } p.d.a.p.d.a Q s.T & K i.g q i.o.2 } i.a.p.p.p.f ~ d.! h 4 4 4 6 4 4 4 j S ",
"X & 4 4 4 4 4 4 4 4 4 4 4 4 4 4 4 4 3 * # x N V b ; 4 4 4 4 4 = = = & & & = :.t.z h e e e & _ d.i & & & & Y d.T $ K a.J * a.+.3 ) s.i & & & = ~ d.W h 4 4 4 4 4 4 4 h ,.",
"X = 4 4 4 4 4 4 4 4 4 6 4 4 4 4 5 3 & $ : N Z Z N b 2 4 4 4 4 = = = & & & & g d.' j r $.u.3 u d._ 5 =.t.& Y d.k $ K s.f * >.} = y >.) 6 ;.:.= Q a.R r 4 4 4 4 4 4 4 h S ",
"X & 4 4 4 4 4 4 4 4 4 4 4 4 4 4 2 = & @ > m B B m M < 4 4 4 4 4 = = & & & = = g =.d.d.+.5 $ $ g f.f.=.3 $ Y d.u $ K s.y $ { d.-.$ g a.a.#.0 = ~ a.s 9 4 4 4 4 4 4 4 h S ",
"X * 4 4 4 4 4 4 4 4 4 4 4 4 6 6 = = & 9 3.C m n b D ,.5 4 4 4 4 = = & & & = & = = & $ $ $ $ $ $ $ $ $ $ $ $ $ $ $ @ @ $ $ @ $ $ $ $ $ $ $ & = = = 4 4 4 4 4 4 4 4 4 h S ",
"+ & 4 4 4 4 4 4 4 4 4 4 4 = j 0.l r 4.z 6 , v v v 1 p 4.1.r 8.2.4 = & & & & = = * & & $ $ $ $ $ & $ $ $ $ $ $ $ $ $ $ $ $ @ $ $ $ $ $ & & & = = 4 4 4 4 4 4 4 4 4 4 h ,.",
"X & 4 4 4 4 4 4 4 4 4 = & z g.h.j.S = X .   o - O # & & 4 8.0.0.7.r = & & = & = = & & & $ & & $ $ & & $ & & $ & & $ $ & $ $ & $ $ & & & & & = 4 4 4 4 4 4 4 4 4 4 4 h ,.",
"X & 4 4 4 4 4 4 4 = = & 4.h.8.7.7.$ @ X . X X + @ $ @ @ @ r 4.4.g.9.p & & = = = = = & & & & & & & = & & & & & * & & & & & & & & & & & & = = = 4 4 4 4 4 4 4 4 4 4 4 h S ",
"X & 4 4 4 4 4 4 4 = $ j z p 6 4 & & & $ # @ $ $ & & $ @ X X * 4 e h z e = = = = = = = = = = = = = = = = = = = = = = & = * = = & = = = * = = = 4 4 4 4 4 4 4 4 4 4 4 h ,.",
"X & 4 4 4 4 4 4 = & $ @ X + @ $ & & = = * & & = = * $ # X X X @ $ = = = = = = 4 = = 4 = = = = = 3 2 3 2 = = 2 = = = = = = = = = = = = 4 = 4 4 4 = 4 4 4 4 4 4 4 4 4 h z ",
"X $ & = = & & * $ $ @ X X X @ $ & & & & & & & * & & $ # @ @ + X @ $ $ & & & & & & & & & & & & & * * & & & * & & & & & & $ & * & & & & & & & & & & & * & & * & & & & $ h ",
"X @ @ @ @ @ @ @ @ @ X X X X @ X @ @ @ @ @ @ @ @ # @ @ @ X X X + X @ @ # @ @ @ @ @ @ @ @ @ @ @ @ @ @ @ @ @ @ @ @ @ @ # @ # @ @ @ # @ @ @ @ $ @ @ @ # @ # @ @ # @ @ @ @ X "
};
