/* XPM */
static char *NinjaMesh_PivWorld[] = {
/* columns rows colors chars-per-pixel */
"84 24 137 2",
"   c #1C0A0A",
".  c gray8",
"X  c #1E1E1E",
"o  c #3E0505",
"O  c #3E0D0D",
"+  c #251E1E",
"@  c #252525",
"#  c #2B2727",
"$  c #2D2D2D",
"%  c #332222",
"&  c #343434",
"*  c #333839",
"=  c #3C3C3C",
"-  c #4A0505",
";  c #4F1E1E",
":  c #660707",
">  c #7C0909",
",  c #751212",
"<  c #522E2E",
"1  c #592E2E",
"2  c #453232",
"3  c #364041",
"4  c #3C4444",
"5  c #3E4F51",
"6  c #444444",
"7  c #424748",
"8  c #464B4C",
"9  c #4B4B4B",
"0  c #4C5454",
"q  c #475C5E",
"w  c #4D5A5B",
"e  c #525252",
"r  c #545E5F",
"t  c #5C5C5C",
"y  c #6B4646",
"u  c #4E5E60",
"i  c #4B676A",
"p  c #4D696C",
"a  c #536364",
"s  c #5D6363",
"d  c #5D6768",
"f  c #53696B",
"g  c #5A6D6F",
"h  c #526E71",
"j  c #4F7175",
"k  c #557275",
"l  c #5C7779",
"z  c #646464",
"x  c #636969",
"c  c #696969",
"v  c #6F7475",
"b  c #617B7E",
"n  c #747474",
"m  c #7B7C7C",
"M  c #830404",
"N  c #8F0101",
"B  c #940000",
"V  c #9C0202",
"C  c #A70000",
"Z  c #AB0202",
"A  c #A40909",
"S  c #B60202",
"D  c #BA0000",
"F  c #B10C0C",
"G  c #9E2E2E",
"H  c #C40000",
"J  c #8D7070",
"K  c #827F7F",
"L  c #A37878",
"P  c #5A7F82",
"I  c #5C8185",
"U  c #5F8589",
"Y  c #658487",
"T  c #698487",
"R  c #618B8F",
"E  c #6A8A8D",
"W  c #738A8C",
"Q  c #658D91",
"!  c #6C8D91",
"~  c #738E91",
"^  c #669397",
"/  c #6A9396",
"(  c #669599",
")  c #679A9E",
"_  c #749A9D",
"`  c #659FA3",
"'  c #6E9DA2",
"]  c #729EA2",
"[  c #68A1A6",
"{  c #6CA4A9",
"}  c #6FA8AD",
"|  c #74A1A5",
" . c #7CA4A7",
".. c #73A5AA",
"X. c #75A9AD",
"o. c #73ADB2",
"O. c #7BAEB2",
"+. c #78B1B6",
"@. c #75B6BC",
"#. c #7CB5BA",
"$. c #7EB8BE",
"%. c #79BAC1",
"&. c #7AC7CD",
"*. c #7ECFD6",
"=. c #848484",
"-. c #828788",
";. c #828D8D",
":. c #8A8989",
">. c #949494",
",. c #9E9090",
"<. c #9B9B9B",
"1. c #83ABAF",
"2. c #88ACAE",
"3. c #81B7BD",
"4. c #83B9BD",
"5. c #A6A6A6",
"6. c #ABABAB",
"7. c #B4B4B4",
"8. c #BEBEBE",
"9. c #82BEC3",
"0. c #8ABEC3",
"q. c #82C1C7",
"w. c #88C0C5",
"e. c #84C5CC",
"r. c #83C9CE",
"t. c #83CDD3",
"y. c #8ACDD3",
"u. c #87D0D7",
"i. c #83D2D9",
"p. c #8BD7DE",
"a. c #80D8DF",
"s. c #84D8E0",
"d. c #8CDBE2",
"f. c #91DCE3",
"g. c #C3C3C3",
"h. c gray79",
"j. c #DADADA",
/* pixels */
"X c =.=.=.:.=.=.=.=.:.=.=.=.=.=.=.=.=.=.=.=.n c =.=.=.=.:.=.:.=.=.=.:.=.=.=.=.=.:.=.=.=.=.:.=.=.:.=.=.=.:.=.=.=.=.=.:.=.=.=.=.:.=.=.=.=.=.=.=.:.=.=.=.=.=.=.:.=.=.=.>.6.",
"X $ c c c c c c c c c c c c c c c c c z s z z c c c c c c c c c c c c c c c c c c c c c c c c c c c c c c c c c c c c c c c c c c c c c c c c c c c c c c c c c c c =.>.",
"+ * 6 6 6 6 9 6 6 6 6 6 6 6 6 6 7 6 7 2 = = c 6.6 6 6 6 6 6 6 6 6 6 6 6 6 6 6 6 6 6 6 6 6 6 6 6 6 6 6 6 6 6 6 6 6 6 6 6 6 6 6 6 6 9 6 6 6 6 6 6 6 9 6 6 6 6 6 6 6 6 c K ",
"X = 6 6 6 6 6 6 6 6 6 6 6 6 6 6 6 6 6 = & & >.g.9 6 6 6 6 6 6 6 6 6 6 6 6 6 6 6 6 6 6 6 6 6 6 6 6 6 6 6 6 6 6 6 6 6 6 6 6 6 6 6 6 6 6 6 6 6 6 6 6 6 6 6 6 6 6 6 6 6 c K ",
"X * 6 6 6 6 6 6 6 6 6 6 6 6 6 6 6 6 4 & $ * 7.g.t 6 6 6 6 6 6 6 6 6 6 6 6 6 6 6 6 6 6 6 6 6 6 6 6 6 6 6 6 6 6 6 6 6 6 6 6 6 6 6 6 6 6 6 6 6 6 6 6 6 6 6 6 6 6 6 6 6 z K ",
"+ & 6 6 6 6 6 6 6 6 6 6 6 6 6 6 6 6 = & # 6 g.8.:.6 6 6 6 6 6 6 6 6 6 6 6 6 6 6 6 6 6 6 6 6 6 6 6 6 6 6 6 6 6 6 6 6 6 6 6 6 6 6 6 6 6 6 6 6 6 6 6 6 6 6 6 6 6 6 6 6 z =.",
"X & 6 6 6 6 6 6 6 6 6 6 6 6 6 6 6 6 = $ @ 9 7.8.=.6 6 6 6 6 6 6 6 6 6 6 6 6 6 6 9 c n z 9 t m m z e z n c 6 6 6 6 6 6 6 6 6 6 6 e n n 6 6 6 6 9 z n c 6 6 6 6 6 6 6 z =.",
"X * 6 6 6 6 6 6 6 6 6 6 6 9 6 6 6 6 = $ @ X t >.6 6 6 6 6 6 6 6 6 6 6 6 6 6 6 6 I s.1.c 6 i.a.2.c w a.q.n 6 6 6 6 6 6 6 6 6 6 6 +.p.=.e 6 6 9 a f.w.m 6 6 6 6 6 6 6 z =.",
"+ * 6 6 6 6 6 9 6 6 6 6 6 6 6 6 6 7 = $ @ @ 9 m 6 6 6 6 6 6 6 9 6 6 6 6 6 6 6 4 w a.4.c f a.a.3.x l a. .c s c m m c t 9 z n c 6 X.f.W z e z t a f.0.m 6 6 6 6 6 6 6 z =.",
"X = 6 6 6 6 6 6 6 6 6 6 6 6 6 6 6 6 = & @ @ e =.6 6 6 6 6 6 6 6 6 6 6 6 = 4 = 2 = i.r.z U u.r.e.s R *.W z | s.s.0.;.z b d.0.f.X.X.f.K e Y p.f.X.f.4.n 6 6 6 6 6 6 6 z K ",
"X * 6 6 6 6 6 6 6 6 6 6 6 6 6 6 6 6 2 & $ # e =.9 6 6 6 6 6 6 6 6 6 6 = 6 = = = = o.a.x ..#./ r.d ..i.x ^ s.l 8 %.t.z k d.q.6 0 ..d.v q p.#.= { p.4.m 6 6 6 6 6 6 6 x =.",
"+ * 6 6 6 6 6 6 6 6 6 6 6 6 6 6 6 6 7 = & $ 0 ;.6 6 6 6 6 6 6 6 6 6 = 6 = & & * & I d.g q.E k e.b $.9.4 *.&.e 2 U s.! h d.| 6 & } d.s U d.! = u p.4.n 6 6 6 6 6 6 6 z =.",
"X & 6 6 6 6 6 6 6 6 6 6 6 6 6 6 6 6 = & $ % y J 2 6 6 6 6 6 6 6 6 6 = = = & & $ $ q d.O.y.l 4 y...y.| 4 a.+.c * k *.Q p a._ e * { s.w U p.~ 6 6 a.$.n 6 6 9 6 6 6 6 z =.",
"X & 6 6 6 6 6 6 6 6 6 6 9 6 6 6 6 6 = * % M S F V ; 6 6 6 6 6 6 6 6 6 = & & $ $ $ 3 f.f.d.w $ q.p.p.E & t.*.n = I s.k p a._ e & } s.8 P a._ t w p.4.m 6 6 6 6 6 6 6 z K ",
"X = 6 6 6 6 6 6 6 6 6 6 6 6 6 6 7 6 = $ : D H H S V 2 6 6 6 6 6 6 6 = = & & # # @ @ e.f.e.= # ) d.d.r & R d.E 8 %.@.$ f a./ 6 $ [ *.4 5 s.@.e ) a.+.c 6 6 6 6 6 6 6 z =.",
"X & 6 6 6 6 6 6 6 6 6 6 6 6 6 6 7 2 $ @ > A D D Z A < 6 6 6 6 6 6 6 = = = & $ @ @ @ ^ f./ $ @ k d.y.* $ $ ( d.s.o.3 $ i a.P & $ [ *.* $ k a.a.} a.} t 6 6 6 6 6 6 6 z =.",
"X & 6 6 6 6 6 6 6 6 6 6 6 6 6 9 4 & & 9 ,.G C C V L K 8 6 6 6 6 6 6 6 = = & $ # @ @ @ @ @ # @ $ $ $ $ & $ $ $ $ $ $ $ & # $ $ $ $ $ $ $ $ & = = = 6 6 6 6 6 6 6 6 6 x K ",
"X = 6 6 6 6 6 6 6 6 6 6 6 = c 8.n t <.m 9 , B B B 1 s <.:.t 7.<.9 6 = 4 & * $ # $ $ $ # # # $ $ $ $ & $ $ $ $ & $ $ & & & $ $ $ $ $ $ $ $ & & = 6 6 6 6 6 6 6 6 6 6 z K ",
"X = 6 6 6 6 6 6 6 6 6 = & K g.h.j.m = X .   o - O # $ & 6 6.8.8.7.c 6 = = & & & $ $ $ $ $ $ $ & $ & & $ & & & & & & & & & & & & $ $ & $ & & = = = 6 6 6 6 6 6 6 6 6 z =.",
"X & 6 6 6 6 6 6 6 6 & & >.h.6.5.5.& @ + . X X + @ $ $ @ @ t >.6.h.h.c 6 = = & & & & & & & * & & & & * & & & & & & & & = & * & & & & & & & & = 6 6 6 6 6 6 6 6 6 6 6 x K ",
"X & 6 6 6 6 6 6 4 & & c m z 9 6 & & & $ # # # $ & & # @ X X & 6 t c =.t 6 = = = = = = * = = = = = = = = & = & = = = = = = 3 = = = = & = = = = 6 6 6 6 6 6 6 6 6 6 6 z =.",
"X & 6 6 6 6 6 6 = & $ @ X X @ $ & = = & * & * = = * & @ X X X @ & & = 6 = 4 = = = = = = = = = = 4 2 = = 2 = = 4 4 4 2 4 = 2 = 4 = = = = = = = 6 = 6 6 6 6 6 6 6 6 6 z K ",
"X $ * & & * & & $ # # X X X @ $ & & & & & & & * * & $ # @ @ X @ @ $ & & = & & & & & & & & & & & & * & & * * * & & & & & & & & & & & & & & & & * & * & * & & * & & & $ s ",
"X @ # @ # @ @ @ @ @ X X X X X @ @ @ @ @ @ # @ @ # @ @ @ X X X X + @ @ # @ @ @ # @ @ @ @ @ @ @ @ @ @ @ @ # @ @ @ @ @ @ @ # @ @ @ @ @ @ @ @ @ @ @ @ # @ # @ @ # @ @ @ @ X "
};
