/* XPM */
static char *NinjaMesh_AlignCornerYZ[] = {
/* columns rows colors chars-per-pixel */
"84 24 254 2",
"   c gray6",
".  c #120F0F",
"X  c #141414",
"o  c #1C1C1C",
"O  c #201111",
"+  c #1B2020",
"@  c #1C2C2D",
"#  c #252525",
"$  c #222F2F",
"%  c #2C2C2C",
"&  c #352323",
"*  c #362D2C",
"=  c #222F30",
"-  c #322E31",
";  c #273536",
":  c #2D3434",
">  c #2F3738",
",  c #2D393B",
"<  c #343434",
"1  c #393331",
"2  c #323738",
"3  c #333A3B",
"4  c #3C3C3C",
"5  c #403E3D",
"6  c #343F43",
"7  c #2D4244",
"8  c #264548",
"9  c #2E4A4B",
"0  c #364444",
"q  c #3D4344",
"w  c #364749",
"e  c #3C4649",
"r  c #374B4F",
"t  c #294F52",
"y  c #344B51",
"u  c #255257",
"i  c #2D5152",
"p  c #225458",
"a  c #2A575B",
"s  c #2E595B",
"d  c #3C5254",
"f  c #32585C",
"g  c #3D5A5C",
"h  c #2E5D60",
"j  c #335E64",
"k  c #256166",
"l  c #296268",
"z  c #296A6F",
"x  c #396166",
"c  c #34666A",
"v  c #3B6669",
"b  c #3C6B6E",
"n  c #2B6E72",
"m  c #3F6C70",
"M  c #25757D",
"N  c #2E767C",
"B  c #3A777D",
"V  c #37787D",
"C  c #444444",
"Z  c #434C4D",
"A  c #4B4B4B",
"S  c #445354",
"D  c #4A5353",
"F  c #455558",
"G  c #465D5F",
"H  c #535353",
"J  c #525A5C",
"K  c #5A5A5A",
"L  c #436365",
"P  c #4F6364",
"I  c #45696C",
"U  c #4A6B6D",
"Y  c #5B6668",
"T  c #556E6F",
"R  c #5C6D6D",
"E  c #476D70",
"W  c #447377",
"Q  c #4C7275",
"!  c #44737B",
"~  c #44787D",
"^  c #497A7E",
"/  c #5A7778",
"(  c #57797C",
")  c #5C7879",
"_  c #656566",
"`  c #686868",
"'  c #677374",
"]  c #627C7D",
"[  c #687E7F",
"{  c #747474",
"}  c gray48",
"|  c red",
" . c #00FF18",
".. c #9E947C",
"X. c #AC9372",
"o. c #AD9A7A",
"O. c #B39C7B",
"+. c #267880",
"@. c #347A82",
"#. c #3A7D83",
"$. c #467B81",
"%. c #4E7B86",
"&. c #547F83",
"*. c #5C7E81",
"=. c #25818A",
"-. c #2E838B",
";. c #35838A",
":. c #3E868D",
">. c #3B8C93",
",. c #29949D",
"<. c #33929B",
"1. c #3E949B",
"2. c #2A96A1",
"3. c #2598A1",
"4. c #289BA5",
"5. c #3298A1",
"6. c #3A9CA5",
"7. c #3F9FA8",
"8. c #37A3AD",
"9. c #3EA4AE",
"0. c #3AACB7",
"q. c #3BACB8",
"w. c #438186",
"e. c #45848A",
"r. c #40888E",
"t. c #568285",
"y. c #5E8385",
"u. c #5C8B8E",
"i. c #4D8791",
"p. c #528D91",
"a. c #5E8F94",
"s. c #44939B",
"d. c #569096",
"f. c #648587",
"g. c #638588",
"h. c #6F8789",
"j. c #6B8B8D",
"k. c #738081",
"l. c #7D8484",
"z. c #748789",
"x. c #7A8C8E",
"c. c #618C91",
"v. c #708F90",
"b. c #639195",
"n. c #66969A",
"m. c #6C9598",
"M. c #63989C",
"N. c #6D989B",
"B. c #7A9396",
"V. c #74969A",
"C. c #79989A",
"Z. c #429CA4",
"A. c #5E9DA2",
"S. c #559EA8",
"D. c #6D9CA0",
"F. c #769EA2",
"G. c #4CA6AF",
"H. c #57A1A7",
"J. c #5CA5AB",
"K. c #5EAFB5",
"L. c #5CB6BC",
"P. c #64A0A5",
"I. c #63A8AE",
"U. c #70A2A6",
"Y. c #7BA0A3",
"T. c #79ABAE",
"R. c #66A6B0",
"E. c #63ADB4",
"W. c #66ADB9",
"Q. c #72AFB4",
"!. c #65B0B6",
"~. c #6DB1B6",
"^. c #6BB5BB",
"/. c #66B8BF",
"(. c #71B1B6",
"). c #7BB1B5",
"_. c #7BB8B6",
"`. c #74B9BF",
"'. c #32B5C3",
"]. c #55B6C1",
"[. c #5DBCC5",
"{. c #77B7C0",
"}. c #74BAC0",
"|. c #7DBFC5",
" X c #71BDC8",
".X c #5DC0C9",
"XX c #5DC9D2",
"oX c #69C1C7",
"OX c #6FC2C9",
"+X c #7BC5CB",
"@X c #7CC8CE",
"#X c #7ECDD5",
"$X c #7ED0D6",
"%X c #6EDEE4",
"&X c #848484",
"*X c #838A8A",
"=X c #8C8D8D",
"-X c #928886",
";X c #908D89",
":X c #8F9481",
">X c #858F90",
",X c #869595",
"<X c #839F94",
"1X c #939393",
"2X c #9B9694",
"3X c #A0948F",
"4X c #A69E99",
"5X c #ABA38A",
"6X c #B2A083",
"7X c #A4AB9B",
"8X c #86A3A5",
"9X c #8AA8AB",
"0X c #9EA3A3",
"qX c #94A6AA",
"wX c #97ABAE",
"eX c #81AEB3",
"rX c #9AAEB0",
"tX c #8AB6BA",
"yX c #95B8B9",
"uX c #A4A4A4",
"iX c #A4AAAB",
"pX c #A8AEAE",
"aX c #A5B4B6",
"sX c #A8B1B1",
"dX c #A8B6B8",
"fX c #A0BABD",
"gX c #A9BCBE",
"hX c #9CBDC0",
"jX c #89C1C6",
"kX c #80C4CA",
"lX c #8CC6CB",
"zX c #90C0C5",
"xX c #92C7CC",
"cX c #9BC4CA",
"vX c #96CACF",
"bX c #80CFD7",
"nX c #8ACCD2",
"mX c #80D0D7",
"MX c #81D0D8",
"NX c #80D8DF",
"BX c #A7C1C3",
"VX c #A8C4C6",
"CX c #A3C5C8",
"ZX c #A9C6C8",
"AX c #A3CBCD",
"SX c #A9CBCE",
"DX c #ADCCD0",
"FX c #A5D1D5",
"GX c #ABD1D6",
"HX c #A0D9DF",
"JX c #83D8E0",
"KX c #98DBE2",
"LX c #84ECF2",
"PX c #ACEBEF",
/* pixels */
"o ` &X&X&X&X&X&X&X&X&X&X&X&X-X&X&X-X&X&X*X&X&X&X&X&X&X&X&X&X&X&X&X&X&X&X&X&X&X-X&X&X&X&X&X&X&X&X&X-X&X&X&X*X&X&X&X&X&X&X&X&X&X&X&X&X&X&X&X&X&X&X&X&X&X&X&X&X&X&X&X=X2XuX",
"o < ` ` ` ` ` ` ` ` ` ` ` ` ` ` ` ` ` ` ` ` ` ` ` ` ` ` ` ` ` ` ` ` ` ` ` ` ` ` ` ` ` ` ` ` ` ` ` ` ` ` ` ` ` ` ` ` ` ` ` ` ` ` ` ` ` ` ` ` ` ` ` ` ` ` ` ` ` ` ` ` &X=X",
"# < C C C C C C C C D Q A C C C C C C C C C C C A J C C C A C C C C A C C C C C A C C C C A C C C Z C C C A C C C C A C C C C A A C C C C A C C C C A C C C C C C C ` &X",
"o < C C C C C C C U [.XXH.F C C C C C C C C C R vXHXtXP C C C A C C C C C C C C C C C C C C C C C C C C C C C C C C C C C C C C C C C C C C C C C C C C C C C A C C ` &X",
"o < C C 4 C q F J./.E.E.K.K.&.C C C 5 C q Z m.FXFXFXGXcXv.C C C C C C C C C C C C C C C C C C C C C C C C C C C C C C C C C C C C C C C C C C C C C C C C C C C C C _ &X",
"# < C C C < t.^.Q.U.N.n.n.A.E.P.P q 4 4 g.hXAXCXBXBXBXSXSXtXR C C C C C C C C C C C C C C C C C C C C C C C C C C C C C C C C C C C C C C C C C C C C C C C C C C C _ } ",
"o < 4 C S ~.|.).Y.B.x.z.h.j.a.P.Q.y.T Q.yXhXfXaXdXdXdXgXZXSXGXC.J C Z C C C C C C C C C C C C C C C C H { } K A H ` } _ C C C H ` { { } &X{ H C C C C C C C C C C C ` &X",
"o < < < s.%XnX9X,X,X*Xl.l.k.[ c.I.G. XOXxXrX0XiXiXiXpXsXsXSXPXLX] C C C C C C C C C C C C C C C C C C (.$X8X} A ( $X|.` C C A JXJXJXJXJXJXx.K C A C C C C C C C C C _ &X",
"o - < * E 5.[.lXwX;X=X=X&X&XV.d.t 9 H.9 S.hXhX2XuXuXuX4XDXKX].G.] C C C C C C C C C C C C C C C C C C P $X#Xl.H }.$X' H C C 4 C C 5 *.JXkX_ H C C C C C C C C C C C ` &X",
"o # % % E 1.b $.kXyX2X-XqXeXi.% > , p.6 : 9 R.hX0X3XiXFX XI B Z.) C C C C C C C C C C A C 5 5 C 4 5 4 5 n.JXC.m.JXD.H C 4 4 6 < 4 D #X#XY H C C C C A C C C C C C C _ &X",
"X # # + I 1.~ F 5 W. . .{.S * 4 2 2 ^ : > < 1 $. . .xX%.C G ^ 6.) C C C C C C C C C C C C q 5 4 4 4 4 4 4 +X#X@X#XH A 5 4 < 5 4 4 `.NXf.A C C C C C C C C C C C C C _ *.",
"X # + o I 1.^ L D *  . .- 6 q e 0 w p.; > , 2 1  . .C 5 d L w.7.) C C C C C C C C C C C C q 5 4 < < < 2 < ( JXJXj.H 5 4 < < 1 1 n.NXn.A C C C C C C C C C C C C C C _ -X",
"X o o o L G.:.L F 0 O.X.| | S g g x H.t 8 7 0 | | o.6 C F b >.0./ C C C C C A C C C C A C 5 4 4 2 < < < < < $XmX` H 4 4 < 2 < t.JX(.A C C C C A C C C C C C A C C C _ &X",
"X o o X v q.s.W L r O.O.r G | W B V L.n l p | 7 0 ..w d x #.6.'.P C C C C C C C C C C C C C 5 4 < < % % - < #X$X} C 4 4 < < G NX+X` K C C C C C C C C C C C C C C C ` } ",
"X o o X o h 6.:.~ j 5X3Xj W w.| ;. . . .M | k a i :Xf c #.,.8.E C C C C C C C C C C C C C q 4 < < - % - - < #XMX{ 4 4 < < < u.NX*.{ { { { ` K C C C C C C C C C C C ` &X",
"X o o X X . @ ;.:.@.7X7X#.>.>.V |  . . .| M =.M n <XN ;.2.>.q C C C C C C C C C C C C C 5 C 5 4 < : - - < < bXmXH 4 2 < * < u.NXJX%X$X$XJXV.H C C C C C C C C C C C _ &X",
"X + o o . .   X s <. . .<.:.9 X X O | .   X p ,.,._.4.,.v 2 4 C C C A C C C C C C C C C C C C 4 3 1 - : < 4 4 4 C 4 4 < 1 < < < 4 5 C C C C C C C C C C C C C C C C _ &X",
"o # # o X X X   . $  . .s o X o X o | X X     @  . .@., < < 4 C C C C C C C C C C C C C C C C 4 4 < 1 : < < 4 C 4 4 4 < < : < < 4 5 5 C C C C C C C C C C C C C C C _ &X",
"X # % # o X X X X o o + | | o o o o | X X X X |  . .% < < 4 C C C C C C C C C C C C C C C C C 4 4 4 < < < q 4 q 5 4 2 < < < < 4 4 5 5 C C C C C C C C C C C C C C C _ } ",
"o # - # # o o o o o + + # # | # # + | o o o | + # % < < 4 C C C C C C C C C C C C C C C C C C C 4 5 < 4 4 5 5 5 C 4 < < < < < < 4 5 C 6 C C C C A C C C C C C C C C _ &X",
"o * < - # # + + o # # % % % % | % & | & + | # # % < < < 5 C C C C C C C C C C C C C C C C C C 5 5 5 5 4 q 5 C C C 5 4 < 4 < 4 5 4 C 5 C C C C C C C C C C C C C C C _ &X",
"o : 4 < : % # % % % % * % - % - |  . . .| # % % < < < C C C C C C C C C C C C C C C C C C C C C 5 q 5 5 5 C 5 C 5 C 6 4 4 4 4 5 4 q C C C C C C C C C C C C C C C C ` } ",
"o % < : % % # # # # # % % # # # #  . . .# # # % % < < < < < < < < < < < < < < < < < < < < < < < < < < < 2 < < < < < < < < < < < 1 < < < < < < < 2 < < < < < < < 2 2 % K ",
"o + # # o # # O + + o o o o o o o + o o o o o # # # # # # # # # % # # % # % # # % # # % % # # % # # # % # # # % # # # # # # # # # % # # # % # # # % # # % # # % % % # O "
};
