/* XPM */
static char *NinjaMesh_TransformsStore[] = {
/* columns rows colors chars-per-pixel */
"115 24 192 2",
"   c black",
".  c #020202",
"X  c gray2",
"o  c #070707",
"O  c gray3",
"+  c #090909",
"@  c gray4",
"#  c #0B0B0B",
"$  c #0C0C0C",
"%  c #2A2A2A",
"&  c gray17",
"*  c #2C2C2C",
"=  c #2D2D2D",
"-  c gray18",
";  c #2F2F2F",
":  c gray19",
">  c #313131",
",  c #323232",
"<  c gray20",
"1  c #343434",
"2  c #353535",
"3  c gray21",
"4  c gray22",
"5  c #393939",
"6  c #3A3A3A",
"7  c gray23",
"8  c #3C3C3C",
"9  c gray24",
"0  c #3E3E3E",
"q  c #3F3F3F",
"w  c gray25",
"e  c #414141",
"r  c gray26",
"t  c #434343",
"y  c #444444",
"u  c gray27",
"i  c #464646",
"p  c gray28",
"a  c #484848",
"s  c #494949",
"d  c gray29",
"f  c #4B4B4B",
"g  c #4C4C4C",
"h  c gray30",
"j  c #4E4E4E",
"k  c gray31",
"l  c #505050",
"z  c #515151",
"x  c gray32",
"c  c #535353",
"v  c gray33",
"b  c #555555",
"n  c #565656",
"m  c gray34",
"M  c #585858",
"N  c gray35",
"B  c #5A5A5A",
"V  c #5B5B5B",
"C  c gray36",
"Z  c #5D5D5D",
"A  c gray37",
"S  c #5F5F5F",
"D  c #606060",
"F  c gray38",
"G  c #626262",
"H  c gray39",
"J  c #676767",
"K  c #686868",
"L  c DimGray",
"P  c #6A6A6A",
"I  c gray42",
"U  c #6C6C6C",
"Y  c #6D6D6D",
"T  c gray43",
"R  c #6F6F6F",
"E  c gray44",
"W  c #717171",
"Q  c #727272",
"!  c gray45",
"~  c #747474",
"^  c gray46",
"/  c #767676",
"(  c #777777",
")  c gray47",
"_  c #797979",
"`  c gray48",
"'  c #7B7B7B",
"]  c #7C7C7C",
"[  c gray49",
"{  c #7E7E7E",
"}  c #7F7F7F",
"|  c #03B3DE",
" . c #808080",
".. c #818181",
"X. c gray51",
"o. c #838383",
"O. c #848484",
"+. c gray52",
"@. c #868686",
"#. c gray53",
"$. c #888888",
"%. c #898989",
"&. c gray54",
"*. c #8B8B8B",
"=. c gray55",
"-. c #8D8D8D",
";. c #8E8E8E",
":. c gray56",
">. c #909090",
",. c gray57",
"<. c #929292",
"1. c #939393",
"2. c gray58",
"3. c #959595",
"4. c gray59",
"5. c #979797",
"6. c #989898",
"7. c gray60",
"8. c #9A9A9A",
"9. c #9B9B9B",
"0. c gray61",
"q. c #9D9D9D",
"w. c gray62",
"e. c #9F9F9F",
"r. c #A0A0A0",
"t. c gray63",
"y. c #A2A2A2",
"u. c gray64",
"i. c #A4A4A4",
"p. c #A5A5A5",
"a. c gray65",
"s. c #A7A7A7",
"d. c gray66",
"f. c #A9A9A9",
"g. c #AAAAAA",
"h. c gray67",
"j. c #ACACAC",
"k. c gray68",
"l. c gray69",
"z. c #B9B9B9",
"x. c gray75",
"c. c #C0C0C0",
"v. c gray80",
"b. c #CECECE",
"n. c gray81",
"m. c #D0D0D0",
"M. c gray82",
"N. c #D2D2D2",
"B. c LightGray",
"V. c gray83",
"C. c #D5D5D5",
"Z. c gray84",
"A. c #D7D7D7",
"S. c #D8D8D8",
"D. c gray85",
"F. c #DADADA",
"G. c gray86",
"H. c gainsboro",
"J. c #DDDDDD",
"K. c gray87",
"L. c #DFDFDF",
"P. c gray88",
"I. c #E1E1E1",
"U. c #E2E2E2",
"Y. c gray89",
"T. c #E4E4E4",
"R. c #E6E6E6",
"E. c #E7E7E7",
"W. c gray91",
"Q. c #E9E9E9",
"!. c #EAEAEA",
"~. c gray92",
"^. c #ECECEC",
"/. c gray93",
"(. c #EEEEEE",
"). c #EFEFEF",
"_. c gray94",
"`. c #F1F1F1",
"'. c gray95",
"]. c #F3F3F3",
"[. c #F4F4F4",
"{. c gray96",
"}. c #F6F6F6",
"|. c gray97",
" X c #F8F8F8",
".X c #F9F9F9",
"XX c gray98",
"oX c #FBFBFB",
"OX c gray99",
"+X c #FDFDFD",
"@X c #FEFEFE",
"#X c gray100",
/* pixels */
"$ ^ ^ ) ^ ) ) ) ) { ) { { { { ..........+.+.+.$.$.$.=.=.=.=.=.=.,.,.,.,.3.3.3.3.6.6.6.6.0.0.0.0.t.0.t.t.t.t.t.t.p.p.p.p.f.p.f.f.f.f.f.f.f.j.f.j.j.j.j.j.j.j.j.j.j.j.j.j.j.j.j.j.j.j.j.j.j.j.j.j.j.j.j.j.j.j.j.j.j.j.j.j.j.j.j.j.j.j.j.",
"O ^ n n n n V A A A V A A A V A A A A A A A A A A V V A V A A A V A V A A A V A V A A V V A V A A V V A V A A A V A V A A V V A V A A A A A A A A A A A A A A V A A V A A A V A V A A A A A A A A V A A A A A V A A V A V V V n n n j.",
"O W c n n V V A A A A F A F A A A A F F A A A A A F A A F A A F A A F A A F A A F A A F A A F A A F A A A F A F A A F A A F A A F A A F A A A A A A A A A A F F A A A F A F A A F A A F A A A A F A A A A A F F A A A A V V V n c c j.",
"$ R c n n V A A A F F F F F F F F F F F F F F F F F F F F F F F F F F F F F F F F F F F F F F F F F F F F F F F F F F F F F F F F F F F F F F F F F F F F F F F F F F F F F F F F F F F F F F F F F F F F F F F F F F F A V V n n n j.",
"$ R j c                   F F F F F F F F F F F F F F F F F F F F F F F F F F F F F F F F F F F F F F F F F F F F F F F F F F F F F F F F F F F F F F F F F F F F F F F F F F F F F F F F F F F F F F F F F F F F F F F A A V n c c f.",
"O R c c   +X+X+X+XXX|.  f.  F F F H H F F H F F F F H F H F H F H F H F F F H F F H H F F H F F F F F H F H H F F H F H F F F H F H H F F H F H F F F H F H F H F H F H F F H F H F F H H F H F F F F H F H F H H F F H A A V n c c j.",
"$ R j c   +X+X+X+XXX|.  z.j.  H H H H H H H H H H H H H H H H H H H H H H H H H H H H H H H H H H H H H H H H H H H H H H H H H H H H H H H H H H H H H H H H H H H H H H H H H H H H H H H F H H H H H H H H H H H H F A A V n c c j.",
"$ R j c   +X+X+X|.|.].  c.S.l.  F H F H F H F F F H | | | | F H | F H F H F H F F H F H F H F F H F H F H | | | | | F H F H F H F H F H F H F F H F H F H F H F F H F | H F H F H F H F H F F F F F H F H F H F H F F F A V n n c c j.",
"O I j j   +XXX|.|.].).  x.n.c.t.  F A A F F A F A |       F |   | F F F F A F A F A F F A A F F F A A A       |   F A F F A F A F A F A F F F A F A F A A F F A F F | F A A F F A F A F A F A F F F A F A A F A F F F A A V n c c j j.",
"$ I d j   +X|.].].).).            A A A A A V A   | A A A   A | | | A A | | | A A | A | A A | | | A A V A A   | A A A | A | A A | | | A A | | | | A A A | | | A A | | | A A | | | A A | A | A | A | | | | A A A | | | V V n n c j d j.",
"$ I p d   XX].).).).~.E.E.J.Y.Y.  V V V V V n V   V | | V V     | V V |     V |   | | V V |     V | V V V V   | V V   | | V V |     V |   |     V | V |     V |     | V V |     V |   | | V   | |   |   V | V |     V | n c c j j d j.",
"O I p p   XX).).~.~.| Y.Y.Y.J.Y.  n n n n n n n n     n | | n   | n   | n n   |   | n n   | | | | | n n n n   | n n   | n n   n | | | |   | n n   |   n | |   n n   | n   | n n   |   | n n   | n   | n   |   n | |   n c c j d d p j.",
"$ I r p   |.).~.~.E.| Y.J.Y.S.Y.  c c c c c c c c c c     c |   | c   | c c   |   | c c   |       c c c c c   | c c   | c c c |       |   | c c   | c     c | c c   | c   | c c   |   | c c   | c   | c   | c     c | c c j j d p r j.",
"$ I 0 r   ].~.E.E.Y.| J.J.S.S.S.  j c j c j c j c | c j c   |   | j   | j c   |   | j c   | j c c | j j c j   | j c   | j c   | c j | |   | c j   | c | c   j | c   | c   | j c   |   | j c   | c   | c   | c | c   j | d d p p p r j.",
"$ I 0 0   ).E.| | | | | | | A.S.  j j d d d d j   j | | | | j   | |   j | | | d   | d d   j | | | d j d d j   | d j   | j d   j | |   |   | d j   |   d | | | d d   | d   d | | | d   | d j   | j   | d   |   j | | | d d p p r 0 0 j.",
"O H 7 7   ~.Y.Y.Y.S.| S.A.A.M.A.  p p d p d p d p         d p     d p       d p   d d p d       d d p d p d   p d p   p p d p     d   p   d p d   p d       d d p   d p d       d p   d d p   d p   d p   d p       p p p p r 0 0 0 j.",
"$ I 2 7   E.J.Y.J.S.| A.M.M.n.M.  r p r r r p r p r p r p r p r r p p r p r r r r p p r p r r p r p r p p r p r p r p r p p r r p r p r p r p r p p r r p r p r r p p r p r r p r p p r p r r p r p p r r r p r p r p r r 0 0 7 7 2 f.",
"$ H : 2   E.J.S.S.S.| A.M.n.n.n.  0 0 0 0 r 0 0 0 0 0 0 0 0 0 0 0 0 0 0 0 r 0 0 0 0 0 0 0 r 0 0 0 0 0 0 0 0 0 0 0 0 0 0 0 0 r 0 0 0 0 0 0 0 0 0 0 0 r 0 0 0 0 0 0 0 0 0 0 r 0 0 0 0 0 0 0 r 0 0 0 0 0 0 0 r 0 0 0 0 0 0 0 7 7 7 2 : f.",
"$ R - :   E.J.J.S.S.A.A.M.M.n.M.  7 7 7 7 7 7 7 7 7 7 7 7 7 7 7 7 7 7 7 7 2 7 7 7 7 7 7 7 2 7 2 7 7 7 7 7 7 2 7 7 7 7 7 7 7 7 2 7 7 2 7 7 7 7 7 7 7 7 2 7 7 7 7 7 7 7 7 7 2 7 2 7 7 7 7 7 2 7 2 7 7 7 7 7 7 7 7 7 7 7 7 7 2 2 2 2 : p.",
"$ R - -                           2 : 2 : 2 2 : : 2 : 2 2 : : 2 2 : 2 : 2 2 2 2 2 : 2 : 2 2 2 2 : : 2 : : 2 2 2 2 : : 2 : : 2 2 : 2 2 2 2 : : 2 : : 2 2 : 2 : 2 2 : 2 : 2 2 2 2 2 : 2 : 2 2 2 2 : 2 : 2 : 2 2 : : 2 : 2 : : : : - - p.",
"O I - % - - - - : : : - : - - - : - - - : : : : : : : - : - - - - - : : - : : : - - : : : : : - : : - : : : - : : : : : : : : : : : : : : - : : : : : : : : : : - - : : : : : - - - : : - : : - : - : : : : : : - : : - - - - - - - t.",
"$ R % % % % % % % % % - % - % % % - % % % % % - % % % - % - % % % - - % % % % % % - - % % % % - % - % % % % % % - % % % - % - % % - - % % - % - % - - - % % % % % - - % % - % - % - - % - - % - % - % - % % % - - % % - % % % % % % 0.",
"O R R I R R R R R I R R R R R R R R R R I R R R R I R R R R R R R R R I R R I R R R R I R I R R R R R R R R R R R R R R R W R W W W ^ ^ ^ ^ ^ ^ ^ ) ) ) ) { { { { { { ........+.+.+.+.+.$.$.$.$.=.=.,.=.=.,.,.,.3.3.3.3.3.6.6.0.6.6.0.",
"  o o o o o o o o o o O o o O o o o O O o o o o o o o O o o O O o O O o O o o o o O O o o o o o o O o o O O o o o o O O o O O O O O O O O O O O O O                                                                                   "
};
