/* XPM */
static char *NinjaMesh_PivMinY[] = {
/* columns rows colors chars-per-pixel */
"84 24 128 2",
"   c #1C0A0A",
".  c gray8",
"X  c #1E1E1E",
"o  c #3E0505",
"O  c #3E0D0D",
"+  c #251E1E",
"@  c #252525",
"#  c #2B2727",
"$  c #2C2C2C",
"%  c #332222",
"&  c #2D3233",
"*  c #343434",
"=  c #34393A",
"-  c #3C3C3C",
";  c #4A0505",
":  c #4F1E1E",
">  c #660707",
",  c #7C0909",
"<  c #751212",
"1  c #522E2E",
"2  c #592E2E",
"3  c #453232",
"4  c #444444",
"5  c #454D4E",
"6  c #4B4B4B",
"7  c #445153",
"8  c #4D5252",
"9  c #4B5758",
"0  c #525353",
"q  c #555B5B",
"w  c #5C5C5C",
"e  c #6B4646",
"r  c #4D6365",
"t  c #4A6769",
"y  c #4D6A6C",
"u  c #5D6262",
"i  c #5B6B6C",
"p  c #526E71",
"a  c #547173",
"s  c #597376",
"d  c #567A7D",
"f  c #5B797B",
"g  c #656565",
"h  c #656A6A",
"j  c #696969",
"k  c #627374",
"l  c #637D7F",
"z  c #69797B",
"x  c #747575",
"c  c #747979",
"v  c #7C7D7D",
"b  c #830404",
"n  c #8F0101",
"m  c #940000",
"M  c #9C0202",
"N  c #A70000",
"B  c #AB0202",
"V  c #A40909",
"C  c #B60202",
"Z  c #BA0000",
"A  c #B10C0C",
"S  c #9E2E2E",
"D  c #C40000",
"F  c #8D7070",
"G  c #827F7F",
"H  c #A37878",
"J  c #5B7D80",
"K  c #5D8C90",
"L  c #648589",
"P  c #668A8E",
"I  c #718283",
"U  c #78898A",
"Y  c #639195",
"T  c #6B9497",
"R  c #679699",
"E  c #68979C",
"W  c #6B999D",
"Q  c #759699",
"!  c #679FA4",
"~  c #6E9EA2",
"^  c #749DA2",
"/  c #67A0A5",
"(  c #6CA2A6",
")  c #6DA5AA",
"_  c #74A1A5",
"`  c #74A5AA",
"'  c #74A9AE",
"]  c #7CA8AC",
"[  c #75ACB1",
"{  c #79ADB2",
"}  c #7CB4B9",
"|  c #7ABFC5",
" . c #848484",
".. c #838C8C",
"X. c #8A8989",
"o. c #859597",
"O. c #8A9596",
"+. c #949494",
"@. c #9E9090",
"#. c #9B9B9B",
"$. c #85A7AB",
"%. c #82ACAF",
"&. c #88ABAF",
"*. c #80ADB1",
"=. c #87B1B5",
"-. c #82B9BE",
";. c #A6A6A6",
":. c #ABABAB",
">. c #B4B4B4",
",. c #BEBEBE",
"<. c #82BDC2",
"1. c #86C0C6",
"2. c #89C1C6",
"3. c #83C6CC",
"4. c #8BC5CA",
"5. c #86C8CE",
"6. c #84CDD3",
"7. c #8CCCD1",
"8. c #80D0D7",
"9. c #84D3DB",
"0. c #8BD4DB",
"q. c #81D8DF",
"w. c #84D9E0",
"e. c #8BDBE2",
"r. c #92DDE4",
"t. c #C3C3C3",
"y. c #C9C9C9",
"u. c #DADADA",
/* pixels */
"X j  . . . . . . . . . . . . . . . . . . . .x j  . . . . . . . . .X. .X. . . . . . .X. . . . . . . . .X. . . . . . . . . . . . . . . . . . . . . . . . . . . . . . .+.;.",
"X $ j j j j j j j j j j j j j j j j j g u g g j g j j j j j j j j j j j j j j j j j j j j j j g j j j j j j j j j j j j j j j j h j j j j j j j j j j j j j j j j j  .+.",
"+ = 4 4 6 4 4 4 4 4 4 6 6 4 4 4 4 4 4 - - - j :.4 6 4 4 4 4 4 6 4 4 4 4 6 4 4 4 4 4 4 4 4 4 4 6 4 4 4 4 6 4 4 4 4 4 4 6 6 4 4 4 4 6 4 4 4 4 6 4 4 6 4 4 4 4 6 4 4 6 j G ",
"X - 4 4 4 4 4 4 4 4 4 4 4 4 4 4 4 4 4 - * * +.y.6 4 4 4 4 4 4 4 4 4 4 4 4 4 4 4 4 4 4 4 4 4 4 4 4 4 4 4 4 4 4 4 4 4 4 4 4 4 4 4 4 4 4 4 4 4 4 4 4 4 4 4 4 4 4 4 4 4 h G ",
"X = 4 4 4 4 4 4 4 4 4 4 4 4 4 4 4 4 - * $ * >.t.w 4 4 4 4 4 4 4 4 4 4 4 4 4 4 4 4 4 4 4 4 4 4 4 4 4 4 4 4 4 4 4 4 4 4 4 4 4 4 4 4 4 4 4 4 4 4 4 4 4 4 4 4 4 4 4 4 4 g G ",
"+ = 4 4 4 4 4 4 4 4 4 4 4 4 4 4 4 4 - * # 4 t.,. .4 4 4 4 4 4 4 4 4 4 4 4 4 4 4 4 4 4 4 4 4 4 4 4 4 4 4 4 4 4 4 4 4 4 4 4 4 4 4 4 4 4 4 4 4 4 4 4 4 4 4 4 4 4 4 4 4 h  .",
"X * 4 4 4 4 4 4 4 4 4 4 4 4 4 4 4 4 - $ @ 8 >.,. .4 4 4 4 4 4 4 4 4 4 4 4 4 4 4 4 4 0 x G c q 6 g v G g w g g 6 4 4 4 4 4 4 4 4 4 6 g x j 6 6 u x j 6 4 4 4 4 4 4 4 g G ",
"X = 4 4 4 4 4 4 4 4 4 4 4 4 4 4 4 4 - $ @ X w +.4 4 4 4 4 4 4 4 4 4 4 4 4 4 4 4 4 4 ) 0.q.O.u 9 q.q.1.g ' e.k 6 4 4 4 4 4 4 4 4 4 P r.=.G w 8 9.7.c 6 4 4 4 4 4 4 4 h G ",
"+ * 4 4 4 4 4 4 4 4 4 4 4 4 4 4 4 4 = $ @ @ 6 G 4 4 4 4 4 4 4 4 4 4 4 4 4 4 4 4 4 4 ) q.q.$.w d q.q.-.g 4 g x w g c x x c j 6 4 4 4 3.e.o.u ~ w.Q w 8 4 4 4 4 4 4 4 h G ",
"X - 4 4 4 4 4 4 4 4 4 4 4 4 4 4 4 4 3 = @ @ 0  .6 4 4 4 4 4 4 4 4 4 4 4 4 - - - - - ` q.5.%.0 R | 8.} w ) q.c l r.2.4.r.4.X.h 3 - 4 s e.=.z e.| w 6 4 4 4 4 4 4 4 4 h G ",
"X = 4 4 4 4 6 4 4 4 4 4 4 4 4 4 4 4 - = $ $ 0  .4 4 4 4 4 4 4 4 4 4 4 4 4 - - - - * ) 9.} -.8 } E 3.{ 6 ) q.h s 0.7.5 T e.&.x = - - - ` e.3.e.k 8 4 4 4 4 4 4 4 4 4 g G ",
"+ = 4 4 4 4 4 4 4 6 4 4 4 4 4 4 4 4 4 - $ $ 9 ..4 4 4 4 4 4 4 6 4 4 4 4 - - * * * * _ 0.L 2.i 2.f 3.` - ) 9.w s e.' 4 a e.=.j * * * * 5 8.q._ w 6 4 4 4 4 4 4 4 4 4 h G ",
"X = 4 4 4 4 4 4 4 4 4 4 4 4 4 4 4 4 4 = & % e F 3 4 4 4 4 4 4 4 4 4 4 4 - = * $ $ $ ) 0.r 4._ 3.7 3.' = / q.q p 0.` 4 a 0.] h * * * * * ( w.I w 4 4 4 4 4 4 6 4 4 4 h G ",
"X * 4 4 4 4 4 4 4 4 4 4 4 4 4 4 4 4 - = % b C A M : 4 4 4 4 4 4 4 4 4 4 - = $ $ $ @ _ r.= 4.7.| = 9.] * / q.9 y q.` 4 a e.] g * $ * $ * ( e.U g 4 4 4 4 4 4 4 4 4 4 g  .",
"+ * 4 4 4 4 4 4 4 4 4 4 4 4 4 4 4 3 * $ > C D D C M 3 4 4 4 4 4 4 4 4 3 - * $ $ @ @ ( r.& ' 0.E = e.` $ / q.4 y q.W - a q._ w * $ $ & * ) q.I w 4 4 4 4 4 4 4 4 4 4 h G ",
"X - 4 4 4 4 4 4 4 4 4 4 4 6 4 4 4 - * @ , B Z Z B V 1 4 4 4 4 4 4 4 4 - - * $ @ @ @ W r.& d r.a = q.) $ / q.= y q.K - a q.Y 4 * $ $ & * ) q.i 8 4 4 4 4 4 4 4 4 4 4 g G ",
"X = 4 4 4 4 4 4 4 4 4 4 4 4 4 6 4 * * 6 @.S N N M H G 6 4 4 4 4 4 4 4 4 - * * # # @ @ @ @ @ # $ # # $ $ $ $ $ $ * * * - - - - * * $ * - - - 4 4 4 4 4 4 4 4 4 4 4 4 g  .",
"+ * 4 4 4 4 4 4 4 4 4 4 - - j ,.x w #.v 6 < m m m 2 u #.X.w >.#.6 4 4 - - * & $ $ @ @ # $ # # $ $ $ $ $ $ $ $ $ * * - - 4 - - - * * * * - 4 4 4 4 4 4 4 4 4 4 4 4 4 h G ",
"X * 4 4 4 4 4 4 4 4 4 - = G t.y.u.v - X .   ; ; O # * * 4 :.,.,.>.j 4 4 - - * & $ $ # $ $ $ $ & & $ & * & & * * * * - 4 4 - - - * * - - - - 4 4 4 4 4 4 4 4 4 4 4 4 g G ",
"X = 4 4 4 6 4 4 4 4 = * +.y.:.;.;.* @ X X . X + @ $ @ @ @ w #.;.y.y.j 4 - - * & * & & & * & * * * * * * * * * = * - - - - 4 - - - - - - 4 4 4 4 4 4 4 4 4 4 4 4 4 4 h G ",
"X - 4 4 4 4 4 4 4 * * j v u 8 4 - $ * $ @ @ $ & * $ $ @ X @ * 4 w j X.w - - - - * - * * = - = - - = - - = - - - - - - 4 4 4 - - - - 4 - - 4 4 4 4 4 4 4 4 4 4 4 4 4 g G ",
"X * 4 4 4 4 4 4 - * $ @ X X @ $ * - - = * * * - - - * @ X X X @ * * - 4 4 4 4 - - - - 4 - - - - 3 - - - - - - - - - 4 4 4 4 4 4 - 4 - 4 4 4 4 4 4 4 4 4 4 4 4 4 4 4 g G ",
"X $ * * = * * * $ # @ X + X @ $ $ * * * * * * = * * $ $ @ X X @ # $ * * * * * * * * * & * * * * = * * * * * * * * * * * * * * * * * * * * * * = - * * * * - * * = * $ u ",
"X @ # @ # @ @ + @ @ X X X X X X # @ @ @ @ @ @ @ @ @ @ X @ X X + X + @ # @ @ # @ @ @ # @ # @ @ @ @ # @ @ @ @ # @ @ # @ @ # @ # @ @ @ # @ @ # @ # @ @ # @ @ @ @ @ @ @ @ X "
};
