/* XPM */
static char *Ninja_Bonus_Icon[] = {
/* columns rows colors chars-per-pixel */
"32 32 194 2",
"   c #0B0B0B",
".  c #0C0C0C",
"X  c gray5",
"o  c gray6",
"O  c #101010",
"+  c gray7",
"@  c #131313",
"#  c gray8",
"$  c #151515",
"%  c #161616",
"&  c gray9",
"*  c #181818",
"=  c #191919",
"-  c gray10",
";  c #1B1B1B",
":  c gray11",
">  c #1D1D1D",
",  c #1E1E1E",
"<  c gray12",
"1  c #202020",
"2  c gray13",
"3  c #222222",
"4  c #232323",
"5  c gray14",
"6  c #252525",
"7  c gray15",
"8  c #272727",
"9  c #282828",
"0  c gray16",
"q  c #2A2A2A",
"w  c gray17",
"e  c #2C2C2C",
"r  c #2D2D2D",
"t  c gray18",
"y  c #2F2F2F",
"u  c gray19",
"i  c #313131",
"p  c #323232",
"a  c gray20",
"s  c #343434",
"d  c #353535",
"f  c gray21",
"g  c #373737",
"h  c gray22",
"j  c #393939",
"k  c #3A3A3A",
"l  c gray23",
"z  c #3C3C3C",
"x  c gray24",
"c  c #3E3E3E",
"v  c #3F3F3F",
"b  c gray25",
"n  c #414141",
"m  c gray26",
"M  c #434343",
"N  c gray27",
"B  c #464646",
"V  c gray28",
"C  c #484848",
"Z  c #494949",
"A  c gray29",
"S  c #4B4B4B",
"D  c #4C4C4C",
"F  c gray30",
"G  c #4E4E4E",
"H  c gray31",
"J  c #505050",
"K  c #515151",
"L  c gray32",
"P  c #535353",
"I  c gray33",
"U  c #565656",
"Y  c gray34",
"T  c #585858",
"R  c gray35",
"E  c #5A5A5A",
"W  c #5B5B5B",
"Q  c gray36",
"!  c #5D5D5D",
"~  c gray37",
"^  c #5F5F5F",
"/  c #606060",
"(  c #626262",
")  c gray39",
"_  c #646464",
"`  c #656565",
"'  c gray40",
"]  c #676767",
"[  c #686868",
"{  c DimGray",
"}  c #6C6C6C",
"|  c #6D6D6D",
" . c gray43",
".. c #717171",
"X. c #727272",
"o. c gray45",
"O. c #747474",
"+. c gray46",
"@. c #767676",
"#. c gray47",
"$. c #797979",
"%. c gray48",
"&. c #7B7B7B",
"*. c gray49",
"=. c #7E7E7E",
"-. c #7F7F7F",
";. c #808080",
":. c #818181",
">. c gray51",
",. c #838383",
"<. c #848484",
"1. c gray52",
"2. c #868686",
"3. c gray53",
"4. c #888888",
"5. c gray54",
"6. c #8B8B8B",
"7. c gray55",
"8. c #8D8D8D",
"9. c #8E8E8E",
"0. c #909090",
"q. c gray57",
"w. c #929292",
"e. c #939393",
"r. c gray58",
"t. c #959595",
"y. c #979797",
"u. c #989898",
"i. c gray60",
"p. c #9A9A9A",
"a. c #9B9B9B",
"s. c gray61",
"d. c #9D9D9D",
"f. c gray62",
"g. c #A0A0A0",
"h. c gray63",
"j. c #A2A2A2",
"k. c gray64",
"l. c #A4A4A4",
"z. c #A5A5A5",
"x. c gray65",
"c. c #A7A7A7",
"v. c gray66",
"b. c #A9A9A9",
"n. c #AAAAAA",
"m. c gray67",
"M. c #ACACAC",
"N. c gray68",
"B. c #AEAEAE",
"V. c #AFAFAF",
"C. c gray69",
"Z. c #B1B1B1",
"A. c #B2B2B2",
"S. c gray70",
"D. c #B4B4B4",
"F. c gray71",
"G. c #B6B6B6",
"H. c #B7B7B7",
"J. c gray72",
"K. c #B9B9B9",
"L. c gray73",
"P. c #BBBBBB",
"I. c #BCBCBC",
"U. c gray",
"Y. c gray77",
"T. c #C6C6C6",
"R. c gray78",
"E. c #C8C8C8",
"W. c gray80",
"Q. c #CECECE",
"!. c #D0D0D0",
"~. c LightGray",
"^. c gray83",
"/. c #DADADA",
"(. c gray86",
"). c #DDDDDD",
"_. c gray87",
"`. c gray88",
"'. c #E1E1E1",
"]. c #E2E2E2",
"[. c gray89",
"{. c #E4E4E4",
"}. c #E6E6E6",
"|. c #E7E7E7",
" X c gray91",
".X c #EAEAEA",
"XX c gray92",
"oX c #ECECEC",
"OX c gray93",
"+X c gray95",
"@X c #F9F9F9",
"#X c #FDFDFD",
"$X c #FEFEFE",
"%X c gray100",
/* pixels */
"^ 8.0.q.e.t.y.u.a.s.d.g.h.k.z.x.v.b.m.M.B.V.Z.Z.S.D.F.G.H.J.K.Y.",
"n ( _ ] { }  ...#.h.E.z.=.-.:.<.2.4.5.7.9.0.w.r.t.y.i.p.s.d.f.K.",
"v / ( _ ] { }  .8.W.OX Xi.*.-.:.<.2.4.5.7.9.0.w.r.t.y.i.p.s.d.J.",
"x ! / ( _ ` ( ) 9.l.P._.D.&.*.-.:.<.2.4.5.7.9.0.w.r.t.y.i.p.s.H.",
"l W ! / / Y U ;.S.B.v.!.H.&.%.*.-.:.<.2.4.5.7.9.0.w.r.t.y.i.p.G.",
"k T W ! E B =.G.R.A.N.^.I.$.#.%.*.-.:.<.2.4.5.7.9.0.w.r.t.y.i.F.",
"h U T R J j [ r.h.x.l.Q._.7.@.#.%.*.-.:.<.2.4.5.7.9.0.w.r.t.y.D.",
"g P P A l 0 0 L +.e.j.V.].T.#.@.#.%.*.-.:.<.2.4.5.7.9.0.w.r.t.S.",
"d K D k 6 ; * * w H 5.d.I.XXB.o.@.#.%.*.-.:.<.2.4.5.7.9.0.w.r.Z.",
"a G S h 6 ; = * ; r L ,.f.R..Xd.o.@.#.%.*.-.:.<.2.4.5.7.9.0.w.Z.",
"p D D N h t 7 , - 1 h Y 2.h.~.}.r.o.@.#.%.*.-.:.<.2.4.5.7.9.0.V.",
"u A D D A N c u 3 ; 6 v W 4.c.).`.6.o.@.#.%.*.-.:.<.2.4.5.7.9.B.",
"y V A D G H G B s 4 > 0 M / 8.M.'.(.7.o.@.#.%.*.-.:.<.2.4.5.7.M.",
"r N V A D G K J Z d 4 , e B ' w.M.{.[.y.O.@.#.%.*.-.:.<.2.4.5.m.",
"w m N V A D G K J C s 3 , y Z | r.n.|..Xg.+.@.#.%.*.-.:.<.2.4.b.",
"q b m N V A D G K J B i 1 < u C X.r.N.|.+XC.7.e.4.%.*.-.:.<.2.v.",
"9 c b m N V A D G K H M t , , t B -.t.n.|.@X|.oX^.#.%.*.-.:.<.x.",
"8 z c b m N V A D G K F b q : > e B 1.e.n.^._./.`.@.#.%.*.-.:.z.",
"7 k z c b m N V A D G J D z 7 - ; 9 ! 1.u.G.U.F.n.o.@.#.%.*.-.k.",
"5 h k z c b m N V A D G J A g 3 = - F 3.t.H.z.8.#...o.@.#.%.*.h.",
"4 f h k z c b m N V A D G H N y : & a 5.p.B.-.{ }  ...o.@.#.%.g.",
"3 s f h k z c b m N V A D G A f < % - Z >.,._ ] { }  ...o.@.#.d.",
"- %X%X%X%X%Xz c b m N V A D Z j 2 % : w c K ~ _ ] { }  ...o.@.s.",
"o %X= - , q %Xz c b m N V A Z x 0 : 6 z K E / ( _ ] { }  ...o.a.",
"X %X5 6 1 , %Xf i %X%X%Xn k #X XL.y.a b @XW Y I %X~ I %X%X%X..u.",
"X %X%X%X%X%X%Xq %X, 4 u %X3 %X5 9 a |.p $XT A k %XZ %Xa l K %Xy.",
"  %X% & + @ %X, %Xw 6 4 %X> %Xd t w %X9 %XU m r %Xz i %X%XC ~ t.",
". %X1 2 - $ %X- %Xh w , %X1 %XN d 6 %X8 %XP b e %XB f g N %X( e.",
"X %X0 w 2 & %X= %Xf q > %X< %Xm s 4 %X7 %XD s %X%XA %Xm x S %Xq.",
"  %X%X%X%X%X> ; < %X%X%X2 , %Xb i 3 %X0 y %X%X< %Xz c %X%X%XY 0.",
". O @ # & 1 7 3 ; = > 9 q 5 i c s 0 s d 0 w e r c b i r s C Q 8.",
"O + @ @ % - > : = * : 2 3 2 6 9 8 7 q e 8 0 r t s s y e p l n ^ "
};
