/* XPM */
static char *Ninja_Rename_Icon[] = {
/* columns rows colors chars-per-pixel */
"32 32 167 2",
"   c #111111",
".  c gray7",
"X  c #131313",
"o  c gray8",
"O  c #151515",
"+  c #161616",
"@  c gray9",
"#  c #181818",
"$  c #191919",
"%  c gray10",
"&  c #1B1B1B",
"*  c gray11",
"=  c #1D1D1D",
"-  c #1E1E1E",
";  c gray12",
":  c #202020",
">  c gray13",
",  c #222222",
"<  c #232323",
"1  c gray14",
"2  c #252525",
"3  c gray15",
"4  c #272727",
"5  c #282828",
"6  c gray16",
"7  c #2A2A2A",
"8  c gray17",
"9  c #2C2C2C",
"0  c #2D2D2D",
"q  c gray18",
"w  c #2F2F2F",
"e  c gray19",
"r  c #313131",
"t  c #323232",
"y  c gray20",
"u  c #343434",
"i  c #353535",
"p  c gray21",
"a  c #373737",
"s  c gray22",
"d  c #393939",
"f  c #3A3A3A",
"g  c gray23",
"h  c #3C3C3C",
"j  c gray24",
"k  c #3E3E3E",
"l  c #3F3F3F",
"z  c gray25",
"x  c #414141",
"c  c gray26",
"v  c #434343",
"b  c #444444",
"n  c gray27",
"m  c #464646",
"M  c gray28",
"N  c #484848",
"B  c gray29",
"V  c #4B4B4B",
"C  c #4C4C4C",
"Z  c gray30",
"A  c #4E4E4E",
"S  c gray31",
"D  c #515151",
"F  c gray32",
"G  c #535353",
"H  c gray33",
"J  c #555555",
"K  c #565656",
"L  c gray34",
"P  c #585858",
"I  c #5A5A5A",
"U  c #5B5B5B",
"Y  c gray36",
"T  c #5D5D5D",
"R  c #5F5F5F",
"E  c #606060",
"W  c #626262",
"Q  c #646464",
"!  c #676767",
"~  c DimGray",
"^  c #6C6C6C",
"/  c gray43",
"(  c #717171",
")  c gray45",
"_  c #747474",
"`  c #767676",
"'  c gray47",
"]  c gray48",
"[  c gray49",
"{  c #7F7F7F",
"}  c #818181",
"|  c #848484",
" . c #868686",
".. c #888888",
"X. c gray54",
"o. c gray55",
"O. c #8D8D8D",
"+. c #8E8E8E",
"@. c #909090",
"#. c gray57",
"$. c #929292",
"%. c #939393",
"&. c gray58",
"*. c #959595",
"=. c gray59",
"-. c #979797",
";. c #989898",
":. c gray60",
">. c #9A9A9A",
",. c #9B9B9B",
"<. c gray61",
"1. c #9D9D9D",
"2. c gray62",
"3. c #A0A0A0",
"4. c gray63",
"5. c gray64",
"6. c #A5A5A5",
"7. c gray65",
"8. c #A7A7A7",
"9. c gray66",
"0. c #A9A9A9",
"q. c gray67",
"w. c #ACACAC",
"e. c #AEAEAE",
"r. c #AFAFAF",
"t. c #B1B1B1",
"y. c gray70",
"u. c #B4B4B4",
"i. c gray71",
"p. c #B6B6B6",
"a. c #B7B7B7",
"s. c gray72",
"d. c #B9B9B9",
"f. c gray73",
"g. c #BCBCBC",
"h. c #C3C3C3",
"j. c gray77",
"k. c #C5C5C5",
"l. c gray78",
"z. c #C8C8C8",
"x. c #CACACA",
"c. c gray81",
"v. c gray82",
"b. c LightGray",
"n. c gray84",
"m. c #D8D8D8",
"M. c gray86",
"N. c #DDDDDD",
"B. c #DFDFDF",
"V. c gray88",
"C. c #E1E1E1",
"Z. c #E2E2E2",
"A. c #E4E4E4",
"S. c gray90",
"D. c #E6E6E6",
"F. c #E7E7E7",
"G. c gray91",
"H. c #E9E9E9",
"J. c #EAEAEA",
"K. c gray92",
"L. c #ECECEC",
"P. c gray93",
"I. c #EEEEEE",
"U. c #EFEFEF",
"Y. c gray94",
"T. c #F1F1F1",
"R. c #FBFBFB",
/* pixels */
"R O.@.#.%.*.-.;.,.<.1.3.4.5.6.7.9.0.q.w.e.r.t.t.y.u.i.p.a.s.d.j.",
"x W Q ! ~ ^ / ( ) ` ' ] [ { } |  ...X.o.+.@.$.&.*.-.:.>.<.1.2.d.",
"l E W Q ! ~ ^ / ( ) ` ' ] [ { } |  ...X.o.+.@.$.&.*.-.:.>.<.1.s.",
"j T E W Q ! ~ ^ / ( ) ` ' ] [ { } |  ...X.o.+.@.$.&.*.-.:.>.<.a.",
"g U T E W Q ! ~ ^ / C.H.K.K.K.L.L.P.U. ...X.o.+.@.$.&.*.-.:.>.p.",
"f P U T E W Q ! ~ ^ y.A.F.S.A.S.S.F.K.U. ...X.o.+.@.$.&.*.-.:.i.",
"s K P U T E T K H J >.z.V.p.>.>.>.7.k.L.T. ...X.o.+.@.$.&.*.-.u.",
"a G K P U T F d 9 0 >.M.H.t y l Y _ 8.H.Y.|  ...X.o.+.@.$.&.*.y.",
"i D G K P U V 7 $ $ ,.S.L.* * , d Y <.G.Y.} |  ...X.o.+.@.$.&.t.",
"y A D G K P B 6 # = <.D.P.w 8 , , l f.G.I.{ } |  ...X.o.+.@.$.t.",
"t C A D G K M 5 @ 3 <.C.P.P.K.K.L.J.b.B.J.[ { } |  ...X.o.+.@.r.",
"e B C A D G m 4 @ 6 <.v.G.D.S.S.G.G.c.l.' ] [ { } |  ...X.o.+.e.",
"w M B C A D v 3 + 1 <.x.Z.a.-.<.m.G.Y ) ` ' ] [ { } |  ...X.o.w.",
"0 n M B C A c 1 + % 1.N.J.8 4 ..g.H.L.( ) ` ' ] [ { } |  ...X.q.",
"8 c n M B C l 1 O + 1.F.P.# = 4 =.h.H.I.( ) ` ' ] [ { } |  ...0.",
"7 z c n M B k , o $ 1.F.P.@ > d D 6.S.L./ ( ) ` ' ] [ { } |  .9.",
"5 k z c n M h > o : 1.F.P.& * w V o.g.H.I./ ( ) ` ' ] [ { } | 7.",
"4 h k z c n f > X , 1.M.J.8 & * y H 6.B.J.^ / ( ) ` ' ] [ { } 6.",
"3 f h k z c s ; X > &.i.C.k < @ 1 n $.y.n.D.^ / ( ) ` ' ] [ { 5.",
"1 s f h k z p - . > k A D M q % & t F W Q ! ~ ^ / ( ) ` ' ] [ 4.",
"< p s f h k u =   ; h C A Z h , + 1 v U W Q ! ~ ^ / ( ) ` ' ] 3.",
", u p s f h i 2 = 5 j B C A m e 3 8 j H E W Q ! ~ ^ / ( ) ` ' 1.",
": t r w R.f d t 0 R.c M B C B m v m C L T E W Q ! ~ ^ / ( ) ` <.",
"; e 6 = R.R.f r 4 R.c n M B C A D G K P U T E W Q ! ~ ^ / ( ) ,.",
"- q 1 X R.5 R.8 - R.h p R.R.R.M b R.v R.R.R.R.E Y D R.R.R./ ( ;.",
"= 9 , O R.= R.7 = R.q R.> 4 i R.8 R.R.; R.r b R.N R.t f S R./ -.",
"* 8 > @ R.* 1 R.* R.2 ; R.R.R.R.* R.4 - R.p r R.q R.R.R.R.R.^ *.",
"& 6 : + R.> * R.& R.1 R.; # $ R.; R.u 4 R.k 8 R., R.e 8 t H ~ %.",
"% 5 ; O R.2 & + R.R.; R.6 & R.R., R.a 3 R.j 6 R.4 R.m c v R.! #.",
"$ 3 - o R.6 , O X R.- < R.R.@ R.> R.i 2 R.f 5 R.e a R.R.R.K Q @.",
"# 2 ; $ > 8 6 : & 2 4 - ; > , 4 5 p s 9 h k r j k e 9 y m I W O.",
"o # @ @ $ * = * & - : * = > , < 2 5 7 6 0 w 0 t u 0 8 e d l x R "
};
