/* XPM */
static char *NinjaUV_AlignHorizontal[] = {
/* columns rows colors chars-per-pixel */
"75 24 127 2",
"   c black",
".  c #010101",
"X  c #020202",
"o  c #040404",
"O  c gray2",
"+  c #070707",
"@  c gray3",
"#  c #090909",
"$  c gray4",
"%  c #0B0B0B",
"&  c #0C0C0C",
"*  c gray5",
"=  c #0E0E0E",
"-  c gray6",
";  c #101010",
":  c #111111",
">  c gray7",
",  c #2C2C2C",
"<  c #2D2D2D",
"1  c gray18",
"2  c #2F2F2F",
"3  c gray19",
"4  c #313131",
"5  c #323232",
"6  c gray20",
"7  c #343434",
"8  c #353535",
"9  c gray21",
"0  c #373737",
"q  c gray22",
"w  c #393939",
"e  c #3A3A3A",
"r  c gray23",
"t  c #3C3C3C",
"y  c gray24",
"u  c #3E3E3E",
"i  c #3F3F3F",
"p  c gray25",
"a  c #414141",
"s  c gray26",
"d  c #434343",
"f  c #444444",
"g  c gray27",
"h  c #464646",
"j  c gray28",
"k  c #484848",
"l  c #494949",
"z  c gray29",
"x  c #4B4B4B",
"c  c #4C4C4C",
"v  c gray30",
"b  c #4E4E4E",
"n  c gray31",
"m  c #505050",
"M  c #515151",
"N  c gray32",
"B  c #535353",
"V  c gray33",
"C  c #555555",
"Z  c #565656",
"A  c gray34",
"S  c #585858",
"D  c gray35",
"F  c #5A5A5A",
"G  c #5B5B5B",
"H  c gray36",
"J  c #5D5D5D",
"K  c gray37",
"L  c #5F5F5F",
"P  c #606060",
"I  c gray38",
"U  c #626262",
"Y  c gray39",
"T  c #646464",
"R  c #656565",
"E  c gray40",
"W  c #676767",
"Q  c #686868",
"!  c DimGray",
"~  c #6A6A6A",
"^  c gray42",
"/  c #6C6C6C",
"(  c #6D6D6D",
")  c gray43",
"_  c #6F6F6F",
"`  c gray44",
"'  c #717171",
"]  c #727272",
"[  c gray45",
"{  c #767676",
"}  c gray47",
"|  c red",
" . c green",
".. c #838383",
"X. c gray52",
"o. c #898989",
"O. c gray55",
"+. c gray56",
"@. c #929292",
"#. c gray58",
"$. c #959595",
"%. c gray59",
"&. c #979797",
"*. c #989898",
"=. c gray60",
"-. c #9A9A9A",
";. c #9B9B9B",
":. c gray61",
">. c #9D9D9D",
",. c gray62",
"<. c #9F9F9F",
"1. c #A0A0A0",
"2. c gray63",
"3. c #A2A2A2",
"4. c gray64",
"5. c #A4A4A4",
"6. c #A5A5A5",
"7. c gray65",
"8. c #A7A7A7",
"9. c gray66",
"0. c #A9A9A9",
"q. c #AAAAAA",
"w. c gray67",
"e. c #ACACAC",
"r. c gray69",
"t. c gray99",
"y. c gray100",
/* pixels */
"> ..%.@.%.%.%.%.%.=.%.=.:.=.:.:.:.:.:.1.1.1.1.1.5.5.5.5.5.8.9.9.9.9.9.9.e.9.e.w.9.e.e.e.e.e.e.e.e.e.e.e.e.e.e.e.e.e.e.e.e.e.e.e.e.e.e.e.e.e.9.w.e.e.r.",
"= } W U W W W ~ ~ ~ _ ~ _ ~ _ _ _ _ _  ._ _ _ _ _ _ _ _ _ ' _ _ _ ' ' ' ' ' ' ' ' ' ' ' ' ' ' ' ' ' ' ' ' ' ' ' ' ' ' ' ' ' ' ' ' ' ' ' _ _ _ _ _ { 8.",
"> ' G V G V G J J J J J J J J J J J  . . .J J J P J J J J J J J J J P J J J J J J J J J U J J J J J J P J J U J J J U J U J J J J J J J H G G S G J 1.",
"> ' G B V V G J U J U U U U J U U      .t.U U U U J U U J U U J U J U J U U J U U J U U U J  .U U U J U U U J U U J J U  .J U U P P U L J G A A V Y 1.",
"= _ V B V G G J J U U U U U J U U t.    U t.U U U U J U U U U U U U U J U U U J U U U J U  . . .t.t.t.t.t.t.t.t.t.t.t. . . .U U U P U J J G G V V U 1.",
"= _ B B V V J J U U U U U U U U t.U U U   W t.U U U U U U U U U U U U U U U U U U U U U      .                           .U U U U U U P J G G G V U 1.",
"= ~ V B V V J U U U U U U U U t.U U U U U   U t.U U U U U U U U U U U U U W U U U U U U U   t.W W U U U W U U U W U Y   t.U U U U U U U P J G A V J 1.",
"= ~ B n V G G J U J U J U U t.U P U P U U U   U t.U U U U J U U J U U U U t.t.U U J U U U   t.U U U P U U U U U U U U   t.P U P P U P U J H G V V J 1.",
"= W n n B V G J J U U P P t.U U P P P P P P U   U t.P U P P P U U U U J   t.  t.U U U U U   t.U J U J U U U J U J U U   t.U U U P P P J J G V V B G :.",
"= U n x B V V G G J J J t.J J J J J J J J J J J   J t.J J J J J J t.t.t.t.t.=   t.J J J J   t.J J J J J J J J J J J J   t.J J J J J J H G V V B n G <.",
"$ U x x x n B V G G  .t.G H G G G G G G G G G J G   G t. .G H G   t.              t.G G G   t.G G G J G G G G G G G G   t.G G G G G G G S B B n n V :.",
"$ U h h x n B B B  . . .V V V V S V V V V V V V S V    . . .V V   t.                t.V G   t.G V V V V V V V V V V V   t.V V V V V V V B B n x x V :.",
"= J h h h x n n      .t.V B B B B B B B B B B B V B      .B B B   t.              t.B B B   t.V V B B B B B B B B B B   t.V V B B B B B n n x x h B =.",
"$ J s s s x x x n     B t.B n B m m m m m m m m B n |   B n n n   t.t.t.t.t.O   t.B n n B   t.n B B n n B n n n n n B   t.B n B B n n n x x x h d n =.",
"= J s y s s h x x n x   n t.x c c c c c c c c c c | n x n x x x           t.= t.n n x x x   t.n x x x n n x x x x n n   t.x x n c c n x x h h s s x %.",
"$ J y r y s s h h h h x   x t.k k k k k k k k k | h x h h h x x x x x h   t.t.x x h h x h   t.x x x h h h h x x h h x   t.x h h k k h h h s s i y x #.",
"$ J r 7 y y y s s s h s h   s t.h s h s f f f | s s f h s s f s d f s s     s s d f s s f   t.h s s s h f f s h s f h   t.f d d s s d f s y y r r j @.",
"$ J r 7 7 r r y y y y y y y   s t.y y y y y | y y y y y y y y y y y y y y y y y y y y y y    .y y y y y i y y y y y y    .i y y y y y y y t q r 7 d +.",
"= G r 3 3 7 7 r r r r r r r r   r t.r r r | r r r r r r r r r r r r r r r r r r r r r r r  . . .| | | | | | | | | | |  . . .r r r r q r 7 0 7 7 3 s O.",
"$ G 7 < 3 < 3 3 7 3 3 7 3 7 3 3   7 t. .| 7 3 3 7 3 3 7 7 3 3 7 6 3 6 6 7 3 6 7 6 3 6 6      .                           .6 7 3 6 7 3 7 6 3 3 2 3 y o.",
"$ G 7 < < , < < < < 3 < 3 < 3 < <    . . .< 3 3 < < 3 2 2 2 2 2 3 3 < 2 3 < 2 < 3 < 2 2 <   < < < 3 < 3 < 3 < < 3 < <   3 < 2 2 < < 3 < < , , , , 7 ..",
"$ ~ h y s s s s s s s s s s s s s      .s s s s s s s s s s f s s d d f s f h f f f f h h d h h h h h h h h h x h h x k k k j x x x x h x x k x x V @.",
"O x V V B B B B B B B B B B B B B B   B B B B B B B B B B B B B B V V V V V V V V V V G V G G G G G G G J J J J L L P P U U U Y U Y Y W W Y W W Q ^ _ ",
"  O O $ O $ O O $ O O $ $ O O $ O $ + $ O + $ O $ O O $ $ O O $ @ @ + $ @ $ $ $ $ $ @ $ $ $ $ $ $ $ $ $ $ = $ $ % % & & % & & = & = = & = = = = = $ = "
};
