/* XPM */
static char *NinjaMesh_PivMaxZ[] = {
/* columns rows colors chars-per-pixel */
"84 24 136 2",
"   c #1C0A0A",
".  c gray8",
"X  c #1E1E1E",
"o  c #3E0505",
"O  c #3E0D0D",
"+  c #251E1E",
"@  c #252525",
"#  c #2B2727",
"$  c #2C2C2C",
"%  c #332222",
"&  c #343434",
"*  c #3B3B3B",
"=  c #4A0505",
"-  c #4F1E1E",
";  c #660707",
":  c #7C0909",
">  c #751212",
",  c #522E2E",
"<  c #592E2E",
"1  c #453232",
"2  c #394242",
"3  c #3D4849",
"4  c #444444",
"5  c #4C4B4B",
"6  c #465051",
"7  c #4F5454",
"8  c #445759",
"9  c #4F5758",
"0  c #465C5E",
"q  c #525253",
"w  c #5B5B5B",
"e  c #6B4646",
"r  c #4C6466",
"t  c #4D6769",
"y  c #566162",
"u  c #5D6262",
"i  c #516769",
"p  c #537375",
"a  c #5A7476",
"s  c #547578",
"d  c #5A777A",
"f  c #5C7A7D",
"g  c #656565",
"h  c #666C6C",
"j  c #696969",
"k  c #637576",
"l  c #617678",
"z  c #637B7D",
"x  c #727373",
"c  c #7C7C7C",
"v  c #830404",
"b  c #8F0101",
"n  c #940000",
"m  c #9C0202",
"M  c #A70000",
"N  c #AB0202",
"B  c #A40909",
"V  c #B60202",
"C  c #BA0000",
"Z  c #B10C0C",
"A  c #9E2E2E",
"S  c #C40000",
"D  c #8D7070",
"F  c #827F7F",
"G  c #A37878",
"H  c #567D80",
"J  c #5D7F81",
"K  c #617E81",
"L  c #5B8285",
"P  c #638B8E",
"I  c #748586",
"U  c #738C8E",
"Y  c #798E8F",
"T  c #628F93",
"R  c #6C8F92",
"E  c #6B9295",
"W  c #619599",
"Q  c #6D979A",
"!  c #6C9B9F",
"~  c #759193",
"^  c #759A9D",
"/  c #7E9C9E",
"(  c #669EA4",
")  c #6A9EA2",
"_  c #779FA3",
"`  c #7B9FA2",
"'  c #6BA2A7",
"]  c #6DA6AA",
"[  c #76A2A6",
"{  c #7DA5A9",
"}  c #6DADB2",
"|  c #75ABB1",
" . c #7BACB1",
".. c #79B0B4",
"X. c #72B7BD",
"o. c #7BB4B9",
"O. c #75B9BE",
"+. c #7DB9BE",
"@. c #77BEC5",
"#. c #79BEC4",
"$. c #76C1C8",
"%. c #7BC4CA",
"&. c #7ECED6",
"*. c #848484",
"=. c #848D8E",
"-. c #8A8989",
";. c #949494",
":. c #9E9090",
">. c #9B9B9B",
",. c #81A7AB",
"<. c #85AAAD",
"1. c #81AFB3",
"2. c #88B0B4",
"3. c #8BB4B8",
"4. c #A6A6A6",
"5. c #ABABAB",
"6. c #B4B4B4",
"7. c #BEBEBE",
"8. c #85C1C7",
"9. c #86C5CB",
"0. c #8CC3C8",
"q. c #84C8CE",
"w. c #83CED4",
"e. c #8DCCD2",
"r. c #85D0D6",
"t. c #8BD1D7",
"y. c #84D4DC",
"u. c #8BD2D9",
"i. c #80D8DF",
"p. c #92D6DD",
"a. c #84D9E0",
"s. c #8BDAE2",
"d. c #92DDE4",
"f. c #C3C3C3",
"g. c gray79",
"h. c #DADADA",
/* pixels */
"X j *.*.*.*.-.*.*.*.*.*.*.*.*.*.*.*.*.*.*.*.x j *.*.*.-.*.*.*.*.*.-.*.-.*.*.*.*.*.*.-.*.*.*.*.*.*.*.-.*.*.-.*.*.*.*.-.*.*.*.*.-.-.*.*.*.*.*.*.*.*.*.*.*.-.*.*.*.*.-.;.4.",
"X $ j j j j j j j j j j j j j j j j j g u g g j g j j j g j j j j j j j j j j j j h j j j j j h j j j j j h j j j j j j j j j j j h j j j j j j j j j j j j j j j j *.;.",
"X * 4 4 4 4 4 5 4 4 4 5 4 4 4 4 4 4 4 4 * * j 5.4 4 4 4 4 5 4 4 4 4 4 4 4 5 4 4 4 4 4 4 4 4 4 4 4 4 4 4 4 4 4 4 4 4 4 4 4 4 4 4 4 4 4 4 4 4 5 4 4 5 4 4 4 4 4 4 4 4 j *.",
"X * 4 4 4 4 4 4 4 4 4 4 4 4 4 4 4 4 2 * & & ;.g.5 4 4 4 4 4 4 4 4 4 4 4 4 4 4 4 4 4 4 4 4 4 4 4 4 4 4 4 4 4 4 4 4 4 4 4 4 4 4 4 4 4 4 4 4 4 4 4 4 4 4 4 4 4 4 4 4 4 g *.",
"X & 4 4 4 4 4 4 4 4 4 4 4 4 4 4 4 4 1 & $ & 6.f.w 4 4 4 4 4 4 4 4 4 4 4 4 4 4 4 4 4 4 4 4 4 4 4 4 4 4 4 4 4 4 4 4 4 4 4 4 4 4 4 4 4 4 4 4 4 4 4 4 4 4 4 4 4 4 4 4 4 g F ",
"@ & 4 4 4 4 4 4 4 4 4 4 4 4 5 4 4 4 2 & @ 5 7.7.-.4 4 4 4 4 4 4 4 4 4 4 4 4 4 4 4 4 4 4 4 4 4 4 4 4 4 4 4 4 4 4 4 4 4 4 4 4 4 4 4 4 4 4 4 4 4 3 4 4 4 4 4 4 4 4 4 4 g F ",
"X & 4 4 4 4 4 4 4 4 4 4 4 4 4 4 4 4 * & @ q 6.7.*.4 4 4 4 4 4 4 4 4 4 4 4 4 4 4 4 w x *.x q q j *.c g 4 4 4 4 4 4 4 4 4 4 4 4 4 4 4 4 4 w j x x c *.j 4 4 4 4 4 4 4 g *.",
"X & 4 4 4 4 4 4 4 4 4 4 4 4 4 4 4 2 * $ X X w ;.4 4 4 4 4 4 4 4 4 4 4 4 4 4 4 4 4 r.i.r.*.5 L &.y.2.x 4 4 4 4 4 4 4 4 4 4 4 4 4 4 4 4 s s.p.s.p.s.y.x 4 4 4 5 4 4 4 g F ",
"X & 4 4 4 4 4 4 4 4 4 4 4 4 4 4 4 4 * # @ @ 5 c 4 4 4 4 4 4 4 4 4 4 4 4 4 * 4 4 4 &.y.i.*.4 ! y.&.<.x w u x c c j w j x j u x j 4 4 4 * 4 4 4 ) p. .u 4 4 4 4 4 4 4 j *.",
"X * 4 4 4 4 4 4 4 4 4 4 4 4 4 4 4 4 * & @ @ q *.4 4 4 4 4 4 4 4 4 4 4 4 4 2 * * * w.r.r.,.4 $.$.&.{ g d %.s.p.3.x R p.<.x e.p.x 5 * * * * * L p.$.q 5 4 4 5 4 4 4 4 g F ",
"X * 4 4 4 4 4 4 4 4 4 4 4 4 4 4 4 4 4 & $ $ q *.5 4 4 4 4 4 5 4 4 4 4 1 * * & * & r.o.8.` 9 9.! y.[ q $.P 4 | s.Y 4 q.e.U d.{ w 2 * * & * 6 r.r.y 5 4 4 4 4 4 4 4 4 g *.",
"X & 4 4 4 4 4 5 4 4 4 4 4 5 4 4 4 4 4 & & $ 7 =.4 4 4 4 4 4 4 4 4 4 4 2 * & & & & r...[ 1.d 8.f q._ 5 * T ] s.i.~ * a d.u.0.u 5 * & & & & +.i.f 5 4 4 4 4 4 4 4 4 4 g F ",
"X & 4 4 4 4 4 4 4 4 4 4 4 4 4 4 4 4 3 * & % e D 1 4 4 4 4 4 4 4 4 4 4 * & & $ $ $ r.o.d 0.[ o.i w.^ 7 $.$.L P y.~ * * q.p.{ c 4 * & & & ' p.P 4 4 4 4 4 4 4 4 4 4 4 g *.",
"X * 4 4 4 4 4 4 4 4 4 4 4 4 4 4 4 4 2 & # v V Z m - 4 4 4 4 4 4 4 2 2 * & $ $ $ @ u.#.8 e.e.Q t u.E s y.T & W y.I 4 L i.a.y.=.x * & & H a.o.u w 4 4 4 4 4 4 4 4 4 4 j F ",
"X & 4 4 4 4 4 4 4 4 4 4 4 4 4 4 4 1 * # ; V S S V m 1 4 4 4 4 4 4 4 * * & $ # @ @ u.3.@ t.p.s t p.L 0 i.} 2 %.&.z 3 &.$.K i.o.x 7 & & O.$.h x x x x j q 4 4 4 4 4 4 g *.",
"X * 4 4 4 4 4 4 4 4 4 4 4 4 4 4 4 * $ @ : N C C N B , 4 4 4 4 4 4 4 1 2 & # @ @ @ t.+.@ | p.2 t s.f $ ' s.&.' i.H } &.y 2 } i.f 4 $ & $.a.&.i.i.i.y.k q 4 4 4 4 4 4 g I ",
"X * 4 4 4 4 4 4 4 4 4 4 4 4 4 5 1 * & 5 :.A M M m G F 5 4 4 4 4 4 4 * * & $ # @ @ @ @ @ @ # $ $ $ $ @ $ $ $ $ $ $ $ & & 2 * * * & & & & & * 2 4 4 4 4 4 4 4 4 4 4 4 g *.",
"X & 4 4 4 4 4 4 4 4 4 4 4 * j 7.x w >.c 5 > n n b < u ;.-.w 6.>.4 4 4 * * $ $ # @ @ @ $ @ $ $ # @ $ $ $ $ $ $ $ $ $ & & * * * & & & & & * * * 4 4 4 4 4 4 4 4 4 4 4 g F ",
"X & 4 4 4 4 4 4 4 4 4 * & I f.g.h.I 1 X .   o = O # & & 5 5.7.7.6.j 2 * * & $ $ $ $ $ $ $ $ $ $ $ $ $ $ $ $ $ $ & & & * * * * & & & & * * * 2 4 4 4 4 4 4 4 4 4 4 4 g *.",
"X * 4 4 4 4 4 4 4 * * & >.f.5.4.4.& @ @ X . X + @ $ $ @ @ w >.4.g.g.j * * & & & & $ $ & & & & & & & $ & & & & & & & & * * * * * & & & * * * * 4 4 4 4 4 4 4 4 4 4 4 g *.",
"X & 4 4 4 4 4 4 2 * & j c g 5 4 & & $ $ @ $ $ $ & & $ @ X @ & 4 w j F w * * * * & & * * & * * & & & & & & * * & * * * * * 4 * * * & * 1 * * 4 4 4 4 4 4 4 4 4 4 4 4 g *.",
"X & 4 4 4 4 4 4 * & $ + X X @ $ & * * * & & & * * & $ @ X X X @ & & * 4 4 2 * * * * * * * * * * * 2 * * * * * * * * 4 2 4 * 4 * * * * * 4 * 2 4 * 4 4 4 4 4 4 4 4 4 g c ",
"X $ & * * & & & $ $ @ @ X X @ $ & & * & & & & & * & $ @ @ X X @ @ $ & & & & & & & & & & & & & & & & & & & & & & & & & & & & & & & & & & & & & & & * & & & & * & & & $ u ",
"X @ @ @ @ @ @ @ @ X X X X X X @ @ @ @ @ @ @ @ @ @ @ @ @ @ X X X X @ @ @ @ @ @ @ @ @ @ @ @ @ @ @ @ @ @ @ @ @ @ @ @ @ @ # @ @ @ @ @ @ @ @ @ @ @ @ # @ @ @ # @ @ @ # @ @ X "
};
