/* XPM */
static char *NinjaMesh_WeldTarget[] = {
/* columns rows colors chars-per-pixel */
"75 24 153 2",
"   c black",
".  c #010101",
"X  c gray1",
"o  c #040404",
"O  c gray2",
"+  c #060606",
"@  c #070707",
"#  c gray3",
"$  c #090909",
"%  c gray4",
"&  c #0B0B0B",
"*  c #0C0C0C",
"=  c gray5",
"-  c #0E0E0E",
";  c gray6",
":  c #101010",
">  c #111111",
",  c gray7",
"<  c #131313",
"1  c #2C2C2C",
"2  c #2D2D2D",
"3  c gray18",
"4  c #2F2F2F",
"5  c gray19",
"6  c #313131",
"7  c #323232",
"8  c gray20",
"9  c #343434",
"0  c #353535",
"q  c gray21",
"w  c #373737",
"e  c gray22",
"r  c #393939",
"t  c #3A3A3A",
"y  c gray23",
"u  c #3C3C3C",
"i  c gray24",
"p  c #3E3E3E",
"a  c #3F3F3F",
"s  c #305761",
"d  c #3B6D79",
"f  c gray25",
"g  c #414141",
"h  c gray26",
"j  c #434343",
"k  c #444444",
"l  c gray27",
"z  c #464646",
"x  c gray28",
"c  c #484848",
"v  c #494949",
"b  c gray29",
"n  c #4B4B4B",
"m  c #4C4C4C",
"M  c gray30",
"N  c #4E4E4E",
"B  c gray31",
"V  c #505050",
"C  c #515151",
"Z  c gray32",
"A  c #535353",
"S  c gray33",
"D  c #555555",
"F  c #565656",
"G  c gray34",
"H  c #585858",
"J  c gray35",
"K  c #5A5A5A",
"L  c #5B5B5B",
"P  c gray36",
"I  c #5D5D5D",
"U  c gray37",
"Y  c #5F5F5F",
"T  c #606060",
"R  c gray38",
"E  c #626262",
"W  c gray39",
"Q  c #646464",
"!  c #656565",
"~  c gray40",
"^  c #676767",
"/  c #686868",
"(  c DimGray",
")  c #6A6A6A",
"_  c gray42",
"`  c #6C6C6C",
"'  c #6D6D6D",
"]  c gray43",
"[  c #6F6F6F",
"{  c gray44",
"}  c #717171",
"|  c #727272",
" . c gray45",
".. c #777777",
"X. c gray47",
"o. c #EA0000",
"O. c #F10000",
"+. c #F80000",
"@. c #FD0000",
"#. c red",
"$. c #46808E",
"%. c #4C8D9C",
"&. c #5399AA",
"*. c #58A1B3",
"=. c #5EACBF",
"-. c #03B3DE",
";. c #61B3C6",
":. c #65BACE",
">. c #68BFD4",
",. c #73D3EA",
"<. c #76D9F1",
"1. c #7AE0F8",
"2. c #7BE2FB",
"3. c #7CE4FD",
"4. c #7DE6FF",
"5. c #838383",
"6. c #8B8B8B",
"7. c #909090",
"8. c #939393",
"9. c #959595",
"0. c gray59",
"q. c #979797",
"w. c #989898",
"e. c gray60",
"r. c #9A9A9A",
"t. c #9B9B9B",
"y. c gray61",
"u. c #9D9D9D",
"i. c gray62",
"p. c #9F9F9F",
"a. c #A0A0A0",
"s. c gray63",
"d. c #A2A2A2",
"f. c gray64",
"g. c #A4A4A4",
"h. c #A5A5A5",
"j. c gray65",
"k. c #A7A7A7",
"l. c gray66",
"z. c #A9A9A9",
"x. c #AAAAAA",
"c. c gray67",
"v. c #ACACAC",
"b. c gray68",
"n. c #AEAEAE",
"m. c gray69",
"M. c #B4B4B4",
"N. c #AFC4C9",
"B. c #B4CED4",
"V. c #C2E8F1",
"C. c #C8F2FC",
"Z. c #C9F5FF",
"A. c gray100",
/* pixels */
"< 5.q.8.q.q.q.q.w.w.w.u.u.u.u.a.u.a.a.a.a.g.g.g.g.g.g.z.g.z.z.z.z.z.z.z.b.z.b.b.b.b.b.b.b.m.b.m.b.b.m.b.m.b.b.m.b.b.b.b.b.b.m.b.b.b.b.b.b.b.b.b.b.m.M.",
"- X.^ E ^ ^ ^ ^ / ] ] / ] / ] ] ] ] ] ] ] ] ] ] ] ] ] ] } } } ] } } } } } } } } } } } } } } } } } } } } } } } } } } } } } } } } } } } } ] } ] / ] ..z.",
"< } L S S L L L I I I L I L I I L I I I I I I I I I I E I I I I I I I I I I I I I I I I I I I I I I I E I I I I E I I I I I I E I I I I I L L L L I g.",
"- } L A S S X X X X X X X X X X X X X X X X I E E E I E I E E I E I E E E I E E E I E E E E E I E E I E I E E I E I E E E E I E E E E I I L L S S ^ g.",
"< ] S A S L X 4.4.4.3.X 3.4.4.4.X 3.3.4.3.X E E E E E I E E E E I E E E E E E E E E I E E E E E E E E I E E E E E I E E E E I E E I E I I L L L S E g.",
"- ] S A S S - 4.4.3.3.X 4.4.4.4.X 3.3.4.3.X E E E E E E E E E E E E E E E E E E E E E E E E E E E E E E E E E E E E E E E E E E E E E E I L L S S E g.",
"< / S B S S < 4.4.4.3.X 4.4.4.4.X 3.4.3.3.X E E E E E E E E E E E E E E E E E E E E E E E E E E E E E E E E E E E E E E E E E E E E E E I I L L S E g.",
"- / A A S L - 4.4.4.3.X 4.4.4.4.X 4.4.3.3.X E E I E E E E E I E E E E I -.-.-.-.-.-.-.E E I I E I E E E E E I E E E E E I E E E E E E I -.I L S S I g.",
"& ^ B B A S X X X X X X X X X X X X X X X X E I E I E I I E E I I E E X X X X -.X X I E I I E E E E I E E I E I I E I E E I E I I E I X -.L S S A I g.",
"- ^ B b B A X 4.3.3.3.X 3.C.A.C.X 4.3.3.3.X I I I I I I I I I I I I I L I I X -.L L I I -.-.-.I I I -.I -.I I -.-.I -.L I I -.-.-.L I -.-.-.S A B I a.",
"- E m b B B - 3.3.4.3.X <.A.X A.q.3.4.3.3.X H L L L L L L L L L L L L L L L X -.L L L -.X X L -.L X -.-.L L -.X L -.-.L L -.X X L -.X X -.A A B B S g.",
"$ E c k b m < 4.4.Z.A.A.A.A.$ X A.Z.4.3.3.X S S S S L S S S S S S S S S S A X -.S S X S S A X -.A X -.S A X -.S X X -.A X -.S S X -.A X -.B B b b S a.",
"- I k k x b #.1.,.A.X X X X X X X A.C.3.4.#.A A S A A A A A A A S A A A A A X -.A A A A -.-.-.-.A X -.A A X -.A A X -.A X -.-.-.-.-.A X -.B B b k A a.",
"$ I k j k #.+.o.X A.X X X X X X X X A.X #.#.#.B A B A B B B B A B A B A A B X -.A B B -.X X X -.B X -.B B X -.B B X -.B X -.X X X B B X -.B k k k A u.",
"- I j p 6 8 o.>.&.A.X X X X X X X A.Z.=.=.#.B b b B b b B B B B b B B b b B X -.b B X -.b b -.-.b X -.b b X -.b b -.-.B X -.b b B -.b X -.k j j j B u.",
"& I p y p 5 & :.%.N.A.A.A.A.X X A.C.4.3.=.X b k b b k b k b k k b k k b k b X -.k b X k -.-.X -.k X -.k b X k -.-.X -.k X k -.-.-.b k X -.-.j p p b u.",
"- I y q y p - >.&.$.d X s A.+ A.q.1.4.4.4.X j j j j j j j j j j j j j j j j X j j j j X X j X j k X j j j j X X j X -.j j X X X j j j X X p y p y k w.",
"& L y 9 q e < ,.>.;.*.X $.B.A.V.X 4.4.3.4.X p y p p p p p p p p p p p p p p p p p p y p p p y p p p p p p p -.-.-.-.p p p p p y p p p p y y y y q j q.",
"- I e 5 6 q X X X X X X X X X X X X X X X X y q y y y y y y y y q y y y q y y q y q y y q y y y y y y q y X X X X y q y y y y q y q y y q q q 6 6 j 8.",
"$ L q 3 3 3 6 3 6 6 6 3 1 3 3 6 6 6 6 6 6 6 q 6 6 6 6 6 6 6 6 6 6 6 6 q 6 6 q 6 q 6 6 q 6 6 q 6 6 6 q 6 6 6 6 6 6 6 6 q 6 q 6 6 q 6 6 6 6 6 3 3 3 p 8.",
"$ L q 3 1 3 3 3 3 3 5 3 3 3 3 3 3 3 3 3 3 3 3 3 3 3 3 3 6 3 3 3 6 3 6 3 3 3 6 3 3 3 3 6 6 6 3 6 3 3 6 6 3 6 6 3 3 6 3 6 3 3 6 3 6 3 6 6 3 3 1 1 1 q 6.",
"- ^ j p j p j p p j j j j j j j j j j j j j j j j j j j j j j j j j j j j k k k k k k k k k k k k k k k k k k b k k b k k b k b k b b k b k b b b S q.",
"+ b S A A A A A A A A A A A A A A A A A A A A A A A A A A A A A A S S S A S S S S S S L L S L L I I L I I I I I E I I E E E ^ E E ^ ^ ^ ^ ^ ^ ^ / ] ] ",
"X + $ + + $ + + $ $ + + + + + + + + $ + + $ + + + $ + $ + + + $ $ + $ $ $ $ - $ $ $ $ $ $ $ $ $ $ $ $ $ - $ - $ $ - - - $ - $ - - $ - $ - - - - - $ - "
};
