/* XPM */
static char *NinjaDojo_SplashScreen[] = {
/* columns rows colors chars-per-pixel */
"400 300 256 2",
"   c #020202",
".  c #020B0B",
"X  c #0B0B0B",
"o  c #060607",
"O  c #160808",
"+  c #060E11",
"@  c #031213",
"#  c #0C1313",
"$  c #0C1A1A",
"%  c #04171B",
"&  c #131313",
"*  c #141B1B",
"=  c #1B1B1B",
"-  c #181616",
";  c #0D100F",
":  c #290909",
">  c #380809",
",  c #261718",
"<  c #371617",
"1  c #320F10",
"2  c #18201F",
"3  c #011C23",
"4  c #1C1F20",
"5  c #01232C",
"6  c #0C2122",
"7  c #1C2424",
"8  c #192626",
"9  c #012A35",
"0  c #04323D",
"q  c #232424",
"w  c #242B2B",
"e  c #2B2C2C",
"r  c #292525",
"t  c #352829",
"y  c #2B3434",
"u  c #333333",
"i  c #3B3B3B",
"p  c #363939",
"a  c #2D2F30",
"s  c #291F20",
"d  c #460708",
"f  c #481718",
"g  c #581416",
"h  c #550C0E",
"j  c #671517",
"k  c #781719",
"l  c #6E0B0E",
"z  c #4E3031",
"x  c #722D2F",
"c  c #6B1E21",
"v  c #38403F",
"b  c #023C4B",
"n  c #013644",
"m  c #003F50",
"M  c #3E3F40",
"N  c #573F40",
"B  c #024758",
"V  c #01404F",
"C  c #3A4443",
"Z  c #2F4645",
"A  c #025469",
"S  c #025C73",
"D  c #034E62",
"F  c #02637B",
"G  c #434343",
"H  c #4B4B4B",
"J  c #454949",
"K  c #4B5554",
"L  c #535353",
"P  c #5B5B5B",
"I  c #555A5A",
"U  c #544C4C",
"Y  c #6F5152",
"T  c #5B6363",
"R  c #476260",
"E  c #636363",
"W  c #6B6C6C",
"Q  c #656A6A",
"!  c #6C7473",
"~  c #737474",
"^  c #7B7B7B",
"/  c #767979",
"(  c #736C6C",
")  c #5D605F",
"_  c #41413F",
"`  c #86181A",
"'  c #97161A",
"]  c #900B0F",
"[  c #A9171C",
"{  c #B7161C",
"}  c #B20C13",
"|  c #AB1C21",
" . c #B41E24",
".. c #882425",
"X. c #972728",
"o. c #953335",
"O. c #A83536",
"+. c #B02A2D",
"@. c #941D22",
"#. c #D7141B",
"$. c #D01018",
"%. c #EB030C",
"&. c #EB0007",
"*. c #EC0D15",
"=. c #ED0F18",
"-. c #E80A13",
";. c #F30C15",
":. c #F40E18",
">. c #FA0F19",
",. c #F70A14",
"<. c #ED131C",
"1. c #E8141B",
"2. c #F3121B",
"3. c #FA121C",
"4. c #F4161D",
"5. c #F4050E",
"6. c #D91B23",
"7. c #C81C22",
"8. c #ED1720",
"9. c #EE1C25",
"0. c #E41B23",
"q. c #F31B23",
"w. c #FB1B24",
"e. c #F91721",
"r. c #DC232A",
"t. c #C42D33",
"y. c #C73439",
"u. c #D12B30",
"i. c #EC242A",
"p. c #F6252C",
"a. c #ED2D33",
"s. c #E12C33",
"d. c #F62C32",
"f. c #ED353A",
"g. c #F7343A",
"h. c #983E41",
"j. c #ED3D42",
"k. c #F73D44",
"l. c #C93940",
"z. c #8D4B4E",
"x. c #B74D4E",
"c. c #8B7272",
"v. c #AD6B6E",
"b. c #AD5E61",
"n. c #CD5051",
"m. c #EC4449",
"M. c #F4464A",
"N. c #EE4D51",
"B. c #ED565A",
"V. c #F45458",
"C. c #F44D52",
"Z. c #F05E61",
"A. c #D76A69",
"S. c #F36A6D",
"D. c #F36467",
"F. c #E97778",
"G. c #F47578",
"H. c #ED6A6D",
"J. c #C65E61",
"K. c #84807F",
"L. c #F1807F",
"P. c #026B86",
"I. c #03728E",
"U. c #037A98",
"Y. c #7E7F80",
"T. c #8D7F80",
"R. c #F27E80",
"E. c #0387A8",
"W. c #038EB2",
"Q. c #0395BB",
"!. c #0498BE",
"~. c #0492B6",
"^. c #0B819E",
"/. c #7D8383",
"(. c #049CC3",
"). c #099DC3",
"_. c #139FC2",
"`. c #04A2CA",
"'. c #04A0C7",
"]. c #04A9D3",
"[. c #17A3C5",
"{. c #2EAACA",
"}. c #60C2DA",
"|. c #838383",
" X c #8B8B8B",
".X c #888788",
"XX c #958989",
"oX c #8D9697",
"OX c #939393",
"+X c #939B9D",
"@X c #9C9D9D",
"#X c #979696",
"$X c #919090",
"%X c #A58A8C",
"&X c #969EA1",
"*X c #8F9FA1",
"=X c #99A4A4",
"-X c #8FA4A5",
";X c #A6A8A8",
":X c #ACB2B2",
">X c #BABCBC",
",X c #B4B6B6",
"<X c #AEAFB0",
"1X c #9DA09F",
"2X c #F68788",
"3X c #F49394",
"4X c #F59B9C",
"5X c #FA9899",
"6X c #F08C8D",
"7X c #EEAAAB",
"8X c #F4ACAC",
"9X c #F9A6A6",
"0X c #FCBBBB",
"qX c #F9B5B5",
"wX c #F6AFB0",
"eX c #E3A0A1",
"rX c #F9C0BF",
"tX c #B5BFC1",
"yX c #BAC2C2",
"uX c #BFD0CF",
"iX c #A0E3F1",
"pX c #C2C4C4",
"aX c #CBCCCD",
"sX c #C5C9C9",
"dX c #CDD3D3",
"fX c #D2D4D4",
"gX c #DADCDC",
"hX c #D4DADA",
"jX c #CFCFD0",
"kX c #FCC4C4",
"lX c #FCCCCB",
"zX c #F8C6C6",
"xX c #FDD4D4",
"cX c #FDDCDB",
"vX c #FCD8D8",
"bX c #F7D0CF",
"nX c #FCE1DF",
"mX c #DCE3E3",
"MX c #D0F7FD",
"NX c #E3E4E4",
"BX c #EBECEC",
"VX c #E4EAEA",
"CX c #FDE4E3",
"ZX c #FEECEB",
"AX c #FDE7E6",
"SX c #ECF4F4",
"DX c #EAFAFA",
"FX c #F3F4F4",
"GX c #FEF4F3",
"HX c #F5FCFC",
"JX c #FFFFFF",
"KX c #FDF8F7",
"LX c #F7F0EF",
"PX c #E0DFE0",
"IX c #EDBFC0",
"UX c #79807F",
/* pixels */
"= X & & X X & X X & X X & X X & X X & X X & X X & X X & X X & X X & X X & X X & X & X & X X X & X X & & X & X & X & X & X & X & X & X & X & X & X & X & X & X & & & X & & X & & X & X & & & X & & X & & - & & X & & & # ; & O & & & & O & & - & & & & ; & & & & & & & & & & & & & - & & & & & - & & & & - & & & & - & & & - & - - & & - & & & & - - & & - & & - & & & & - - & & ; - - - & - & - - - & & - - - - & & - & - & & & & - & & & - - - & & & - - - ; & - - - - - & - & & & & - & & & & & - & & & & & & - & & & - & & & & & & & & & O & & & & & & & & & & & & & & & & & & & & & & & & & O - & & - & & & ; & & ; & ; ; & & ; ; & ; ; ; ; O & & & X & X & & & X X & & X & X & X & X & X & X X & & X & X X & X X & X & X & X & X X & X X & X X & X X X & X X & X X & X X & X X & X X & X X & X X & X X & X X & X X & X X q ",
"X                                                                                                                                                                                                                               o                                   o     o             o         o o     o o o       o o o     o o o       o o o     o o o o   o o o o     o o o X     o     X   o o o o     o o o o o o o o o o o o o X o   o o o X o   o X         o o o     o o o o o o o o o o     o o o       o         o o o       o o o       o o       o                                                                                                                                                                                                                                                             o ",
"X                                                                                                                                                                                                                                   o                     o   o             o   o       o   o     o o o o   o o     o o   o   o o   o o o o o   o o o o   o o o o o o o o o o o   o   X o   o   o   o o       X o o o   o o X o o o o o o o o o o     o X o   X o o o   o o o o o o   o o o o o o o o o o   o o o   o o   o o o o o o     o   o   o o     o o       o         o o                                                                                                                                                                                                                                             X ",
"X                                                                                                                                                                                                                                             o o           o     o o   o     o o o     o o o o       o o o     o o o o o o o o   o   o o o o o o o o o o o o o o o o o o o o o   X o o   o X o X X   o X   X   o   X o X     o o o o     o o o o o o o o o     o o X       o o o o   o o o o     o o o o     o o o   o o   o o     o o o     o o o       o   o       o o o         o                       o                                                                                                                                                                                                                 & ",
"&                                                                                                                                                                                                                             o o                     o       o   o         o o     o o o     o o o o     o o o     o o o o   o o o o o o o o o O     o o o o o   O o o o o o o X       o X o     o   X o     X o o       o X   o   o o   X   X X o O     X X o X       X X     o o o o o     X o o o   o o o o   o o o o     o o o     o o o o     o o         o           o   o     o   o         o                                                                                                                                                                                                                         X ",
"X                                                                                                                                                                                                               o               o           o   o         o o       o   o     o   o o o o o   o o o o o o o   o o o o o o o   o o   o o o o o o o o o o o o o o o o o o o o o o   X X   o   X   o o X o o   X o X o o X X o   X o   X o o   X o o o o o o o o   o   X X   o o o o o   o o   X   o o o o o o o o o o o   o o   o   o o o   o     o o o   o o o   o   o o   o o             o                                                                                                                                                                                                                                   X ",
"X                                                                                                                                                                                                                       o           o   o   o           o o o     o o o       o o o   o   o o o     o o o o o   o o o o   o o o o o o o o o o   o o o o o o o o X   o o o o O   X o   X o     X o o     o X X o     X   o     X X o X     X o o o o o o X o X X o X X o     o X o o o o o X o   o o o o   o o o o o   o o o o o   o o o o     o o o       o   o       o o o     o   o     o   o       o               o                                                                                                                                                                                                       X ",
"&                                                                                                                                                                                                                               o         o o     o o o       o   o   o o o o     o o o o     o o o o o   o o o o o o o o o o o o o o o   o o o o o o o o o o o o o o o o   o o o o     X X X o   X X o X o     X X o   X X o o o   o o X o     o o o o       o o     X o X o   o X o o     o X o o o o o o o o   o o o o   o o o o     o o o o     o o   o   o o o o       o           o                                                                                                                                                                                                                                     & ",
"X                                                                                                                                                                                                                     o               o     o   o         o o o o o o   o   o o o o   o o   o o o o o     o   X o o o o o o o o o X   o o X X   o o o X o     X o X   o o X X   X X   X o   o o X     X X   o o   X     o o   X   o X X   X   X o X   X X o   X o X   X o o o o o o o o X   o   X   o o o o o o o o o   o o o o   o o o o     o   o o   o o   o   o o   o     o o   o           o     o     o                   o                                                                                                                                                                                             X ",
"X                                                                                                                                                                                                     o                   o       o   o       o   o     o   o       o o o   o o o o o   o o o o     o   o       o o o     o o o       o X o   o o o X o   X o o X     o o o X     o   X o X X X X X X   X o X X     X X X X o   X X o     o X X     o X X o     X   o   o   o o o o o o o o X     O o o     o o O o o   o o o o o   o o o o   o o o o     o o o       o   o     o   o       o o         o       o     o                                                                                                                                                                                                       X ",
"&                                                                                                                                                                                                         o     o   o       o         o o o         o o       o o o     o   o o   o o o o o   o X   X   X     X     o   o o o o   X   X   o X o o o   o X X     o X X X     X   X o     X o o o     X X       X o o X     o X X   o o X o X     X X X     X   X o   X X X o o     X O X X   X   X   o o o o X     o o o o   o o o o     o o o     o o o o       o o o     o   o     o     o     o           o                                                                                                                                                                                                                 X ",
"X                                                                                                                                                                                                                           o   o           o     o   o   o       o o o o   o o o   o o o o o o o o     X o X o o o o O o o o o X   X   X o o o o o   X o o X   o o o o X   X X X o X o o o O o o o o   X X o o o X X X X X   X o o X o o o X X X   o   X   X X X   X   o o X o X X   o     X X   X o o o o o     o o o o o o o o o o X o o o o o o o o o o o o     o o   o o o o o   o o   o   o     o                                                                                                                                                                                                                       & ",
"X                                                                                                                                                                                                   o                 X   o       o   o     o   o     o X   o     o o o o   o o o o   o o o o o     X   o X     o o o o   o X o     X X o X     o o O o     o X o o   X X o o X   X X X     X o X X X   X X o X o X X o o   o X X X X   o X o X o     X o X X o X X X   o X X o X   X X X   X     X   X   o o X o o o o o o O       o o o o o o o o o o   o o o o   o o o o     o o o     o o o       o o         o                                                                                                                                                                                                           X ",
"&                                                                                                                                                                                                                           o   o       o   o     o o o       X o o   o o o o o     o o o o o o X o o       X   o o o o o O o   X   X   o o o X o o X o X X o X o o o X o     X X X o o X X X o   o X o X o   X X X o o X X o X o   o X X o   o X X X o   o X   X   X o o X X   X o o o X     X X X     X o X   o o o o o o o o O o o   o o o o     o o o     o o o o     o o o       o   o     o   o       o o         o                                                                                                                                                                                                     X ",
"X                                                                                                                                                                                                                         X   o o o o     o   o   o   o   o       o o o o o o o o o o o o o o o o o X     X   X o o o o o X o o X X X   X X X   X   X o X   X o o o o o X o X X o X o   o o X o o X o X X   o X o X o o o X o o X o o o X o X X X X o X X o o X   X   X o o o     X   X     X X X   o o X   X   o o o o o o o o o o     o o o o o o o o o o   o o   o o   o   o o     o o o     o     o o     o o     o                                                                                                                                                                                                       X ",
"X                                                                                                                                                                                                   X       X o                   o   o     o o o o     o o o     o o o o     o o o o o o o o o     o X X o     X O o   o o o X o     X   X X   o X X o X   X o O o X X X o X     X X X X o o o X X   X o X X X o   X X O o o o X O o o X o o X     o X X X     o X X o   X X X o X   o X X       X X X o   o O o o o o o o o o   o o   O o o o o o o   o o o o   o o o o o     o o o       o o o         o           o                                                                                                                                                                                                       & ",
"&                                                                                                                                                                                             o       o           o   o     o o         o o o     o o         X   o   o o o o o     o o o o o o X o o     o X o o o o O o X     X X X     o X o o o   X X   X   X X X X o o o X X o X   X X X o   X X o X   X X X X o   X X X X o o X o X X   X X o X     X o X o     X o   X   o X o X     X X o X   X o o O   o X o X o   o X X o     o X   X     X   o o   o o o o     o   o o     o   o     o o o o     o o         o   o                           o                                                                                                                                                                     X ",
"X                                                                                                                                                                                                         o     o   o       o     o o o   o o       X     X   X o o o o o o o   X X o   o o o o o o o o   X o X o o o o X o o X X     X X X X o X o X o X o X   X o   o X o X o X   X X X o X o   X X . X X   X o X o X o X o X o X X X X o X   X o X X X o X X X   X X X X X   X X X o o   X X o o   X o o o X o o   X X     X   X X   o o X X   X o   o o o o o o o o o o o o     o o o o o o o       o   o   o     o                   o                                                                                                                                                                                   & ",
"X                                                                                                                                                                             o         o           o       o   o     o o o     o o o o     o o X       X o X     o o o o     X   o     o o o o o o o X o X     o X o o   X X o o X   X X o   X o o o X   X o X o X X X X X X o   X X X o X o X X O o o X X X X o X X X X o o o X X o X X X o X o o X X X X X   X X X X X   X X X     X X X     X X X X o o o o o o     X o o X o o o o X     o X o X   o o o o o   o o o o   o o o o     o o o o     o o o       o   o         o                                                                                                                                                                                             X ",
"&                                                                                                                                                                                             o o     o   o       o       o   o o     o o o o       X         o o o o   o X o o   X X O o o o o o o o o X o o X o X o o o X   o o X o X   X X o O o o X X X X   o o X o o X X X X X   X X o X . o o X X o   X X X X o o o O X X o o X X X X   X X X X o o o X X o X   X X X X X X o X o   X X X X o     X o X o X X X o X     X O o o o   X o o       X o o   o o o o   o o o o o   o o   o       o o o     o   o     o o   o       o         o                                                                                                                                                                               X ",
"X                                                                                                                                                                                     o               o           o   o o   o o o     o o o o o       X     o o o o o o o o o   X X   X o X o o o o X X   o X X   X   X o X   X X   o o   X X X X o o X o X X X X o o X o X X o X X X   X X X X X X X X X X X X X X X X X ; o X X X X X X X X X X o X X X X o X X X o X   X X o o o o X X X X o X   X o X   X   X o X o X X   X o o X o X o   X o X o o X     o o o o   o o o o o o o o   o o   o o   o o   o   o           o           o                                                                                                                                                                                     & ",
"X                                                                                                                                                                                         o     o o       o o o o     o o o     o o o o     o o X X   o o   X     o o o     X X   o       X X o o o o o X o     X X o   X X X X X   X X X X   X o X X o o o o X X X X X X O X o X X X X o o o O o X   X X X X o o o X X X o o X X o X     X X o o o o X X X o o X X X X X X o X X X o o X o   X   X X o o o X X X X     X   o     X o o o         X     X o X o o o o o o o     o o o o o o o o o     o o o o     o o o     o   o       o   o       o                                                                                                                                                                         X ",
"&                                                                                                                                                                                   o         o       o   o       o   o     o   o     o o o o     o     X     X o o o o   X   X     o o X o   X o o X   X   X X X   X X o X     X X o o   X X X X o o X X X o X o X X X o o X o X X o X X X X o o X X X X   X X X X X o X X X X   X X X X X X o X X X o o X X X X o   X X o X   X . X X X o X o X X   X X X X o   X   X o   X X o X o o X o X X   o X X o   o o o o O     o o o     o o o o       o o o     o   o       o         o   o       o                                                                                                                                                                               X ",
"X                                                                                                                                                                         o         o                 o   o   o   o o o   o o o o o   o o o o o     X X o     X o o o o X   X   X X X o o   o o O X X   X X X o   X X X X X o o X X X X X o X X X X X o X X X X X X X X o X X X X o o X X X X X o X X X X X X X X X X o X X X X X X X X X X X X X X O X o X X X o o X X   X X X X X X O X o o X X X o o o X X   X o X X X o   X o o o   X X X o X   X   X   o o o o o   o o o o o     O o o o o o o o o o   o o o   o o   o o     o   o         o             o                                                                                                                                                               & ",
"X                                                                                                                                                                         o           o o       o o         o o o     o o o       o o o o   o o o o o o o o o o o o o o o o o o o X X   o X o X o   X X X   o   o X X o o X X X o o o X X X o o X X X X o o X X X o o X X X X o o X ; ; o o X X X X   . . . . . o . + . X   X o X X X o o X X & o o o ; X X o o O X ; o X X X o X X   o X X X X X o X X X     X X X o o o o o o     X o o X   o o o X   X o X X o o o X X       o o o o   o o o o     o o o       o o o   o   o o       o   o       o                                                                                                                                                                         X ",
"&                                                                                                                                                                   o           o             o       o   o   o o     o   o o o o o   o o o o o o o o o o o o O o O o   o o X O   o X   X X   X X o X o X X X X   X X o X X o   X X X X X X X X X X o X X X X o X X X X o o X X X X o o . . . o o X O ; - : : 1 : : : : O O o o     . . . X o X X X X X X X X X X o o X X X X X X X X X o X X o X X   X X X X X   X X X o X o O X X X     X X       X X X       o o o     X X o o o o o o o o   o o o o   o o o o     o   o o     o   o           o                                                                                                                                                                           X ",
"X                                                                                                                                                         o             o                     o     o     o o   o o o o   o o o o o o o o o o o o o o o o o o o   X o o o X X   X   X   X X X X X o   o   X X X o X o X o X X X X X X o o o X X X o o X X X X X X o X X X o X .   o X O 1 h l ] } $.$.$.-.-.-.=.=.-.1.-.$.$.$.} ] l h < O . o o . X X X X X X X X X o X X X X X X X X X X . X X X X X o o X X   X X o o o o X o o X X o o o X X o X o X   X X o o o o     X X   o o o o o o o o o o o o o   o o o     o o   o     o   o                 o                                                                                                                                                                     & ",
"X                                                                                                                                                                           o         o   o     o o o       o o o     o o o o   o o o o   o o o O o o o o o o o   o X o o o   X X o o     o X   o   X X X X o   X X X X o X X X X o o X X X o o X ; X X o o X X X X o o . X - > h ] } $.4.d.M.V.D.S.G.2X4X9X9X9X8X7X4X3X2XG.D.Z.M.g.p.2.-.{ ] l f O o . . ; o o ; X ; X X   X X X   X X o O X o   X X X X o X X X X   o X X X o X   X X X X   X X o o     X X o o o o O X o o   o o o o   o o o o o o o o o o     o o o     o   o       o   o       o         o                                                                                                                                                               X ",
"&                                                                                                                                                                                             o       o   o o   o     o   o o o o o o o o o o o     O o     o o o o X   X X X     X X X X o o X X o X   X X X X o   X X o X X o X X X X o X X X X o o ; X X X o o . . : l } $.=.d.C.G.9XzXAXJXJXKXJXJXJXJXJXJXJXJXJXJXJXJXJXJXJXJXGXvXqX3XD.k.p.;.#.{ k : o   . X . X X X X X   X X X X o o O X X X X X X X X X X X X o X X o o o X X o o X o X   o X o o X     o X o o   o o X o   o o o o o o o o o o o   o o o o   o o o o     o o o       o o o                                                                                                                                                                           X ",
"X                                                                                                                                                                   o         o     o     o       o   o   o   o o o o o o   o o o o o o O o o o o o o o   X o X X o     X   o X o X X o X o X o X X o X o o X X X   X X X X X o X X X X o X X X X o X X X X o . : k } *.p.C.2XqXZXJXJXJXJXJXFXhXyX;X#X|.~ E ) E ) ) Q / .X#X<XpXNXHXJXJXJXJXKXvX4XD.g.3.-.7.k < .   . ; X X X X X X X X X X X o X o o X X X o X o X X X o X o X X o X   X X o o X o X o o o X o X o O o o X o o o X o o   X     o o o o o o o o o o   o o o o o   o       o o           o                                                                                                                                                                     & ",
"X                                                                                                                                                       o       o             o       o o o     o o o     o o o o     o o o   o o o o o     o o o o o o X X X   X   X o X     X o X   X   X o O o o X X X X X   X X X X   X o O X o o ; ; X o o X X O .   o f } 1.p.V.4XnXKXKXKXJXNX,X XT i = o           . . . o o   o         o , G Q #XpXBXJXJXJXKXrXG.g.3.*.{ j &     . X ; ; X o X ; X X o X X X X X X X X X X X o X X X X X o o X X o   X X O o o   X o X     o o o o     o o X   o o o o o o o o o o o     o o o       o o       o o o     o   o       o                                                                                                                                                               X ",
"&                                                                                                                                                                     o         o   o     o o o     o o o o o   o o o o o o o o o o o o   o o o o o o o o o   X o X X   X   X X   X X X o o o X X X o o   X X X X X X X X X X . X X X X o X ; X X o . 1 l $.q.C.3XvXJXJXJXhX;X^ i ;             3 5 9 b b B D A S P.U.U.E.U.P.D n 5 @       - J .X:XNXJXJXKXrXG.g.,.-.` < .   X ; X X X o X X X X X o X X X o o X X X X X o o X X X o X X o X X o o o o X X   X X o o o o X X o o   o X o o X   o o o o o o o o o o   o o o       o o o       o o             o                                                                                                                                                               X ",
"X                                                                                                                                                           o                       o     o o   o   o o o o   o o o o o o   o o X o o   o o o o   X X X X o   X X X   o X o X o o X o o X X X X o X X o X X X X X . X X X X X X X X X X X X X . . 1 ' -.d.G.xXJXJXJXaX|.p o                 o % 0 n B B A S S P.I.I.U.E.(.(.).`.`.(.!.E.P.n %       X J #XmXJXJXGXwXV.e.2.{ d . o ; X X X X # X X X X X X X X o o X X X o o X X o X o o X X X o o o X X X X   X X   X X   X   X X   X X   X X   o o   O o o o o o   o o o o o o   o o o       o         o     o     o         o                                                                                                                                               & ",
"X                                                                                                                                                                 o     o     o       o o o     o o o     o o o o     o o X         X O o o o o o o     o o o     X X o o o X o o X o X X X X X o o X X X X o o X O ; o o X ; X X X X X X ; o 1 [ ;.g.2XAXJXJXVXoXi o           o 3 n D P.E.Q.(.(.(.).`.`.`.(.).(.).(.(.(.Q.(.!.(.Q.E.U.U.E.E.U.D 9 .     X H ;XHXKXJXlXZ.q.2.{ <   o . ; ; X o o ; X X X o X ; ; X o o ; X X X o o O X o X   X X X o o   X o X X   o o X X     X o X       o o X     o o o o o o o o o     o o o o     o o o     o o o       o o                                                                                                                                                             X ",
"&                                                                                                                                                             o           o   o   o o     o   o       o   o o   o o o o   o o o o   o o o o o o X o X   X   X X o X X   X o o X o o X X X     o X X X o o X X X X X X X X X X o X X o X   O ] -.d.6XZXJXJXpXQ -         . 9 D I.W.(.(.(.E.U.P.P.W.(.!.!.!.!.!.Q.(.(.!.!.Q.(.!.!.Q.!.Q.W.U.F B b m V V 5         w UXhXJXJXlXD.q.:.[ 1 o   o ; X X X o X X X ; o o X X X X o X X X X X o X o X X o o X X X X   X X X X     X o o     o o o       X o o o   o o o o   o     o o     o   o       o o       o               o                                                                                                                                                     X ",
"X                                                                                                                                                       o           o   o       o   o     o   o   o o o o o   o o o o o o o o X X o o o o o o o   X X o   X   X X o   X X o X X o X X o X X X X X X X o X X X X o X X X X X o X ; X . O k $.d.2XZXJXHX<XH       o 5 B F U.E.I.S D n 3 @ % n A E.(.Q.!.!.!.!.!.!.(.Q.!.(.Q.Q.!.!.Q.(.(.(.(.(.).W.I.B n %             X P >XJXJXzXZ.e.1.` : . X X ; X X X ; X X o o O X X X o X X X X o o X X X X o X X o o o X X X   X     X X X X   X X X X X   o o o o o   o o o o   o o o o     o   o o o o o   o     o   o       o         o                                                                                                                                               & ",
"X                                                                                                                                                       o                 o         o o o       o o o o   o o o o     o X o   o   X X o o   o X o     X X X X X   X X X X   o O X X X X o X X X o o X O O o o o X X ; o o ; ; ; .   d $.w.G.CXJXHX;Xu       @ n S S B n %           0 S W.`.).(.Q.Q.Q.Q.!.!.!.!.Q.!.!.!.!.!.!.!.!.!.!.(.(.(.(.(.).(.`.W.P.n @             G >XJXJX0XN.>.#.j .   X ; ; ; o o X & ; X o o O ; ; o X X X X X o X X X O X o X o X X     X X X X   o X o X X o o o o o o o o X o o   o o o o     o o o       o o o     o o o o     o o o       o                                                                                                                                                   X ",
"&                                                                                                                                                   o               o     o     o   o   o o o o o   o o o o o o o o o o     o o o o   o o o X o X X   X X     o X X o   o X o X X   X X X X X X X X X o X ; X X X o X X X X X   ; ' ;.k.zXJXJX>Xp           % % o             5 S E.(.`.(.(.(.Q.(.(.!.(.!.!.!.!.Q.(.!.!.!.!.!.!.!.!.!.W.E.E.U.W.Q.Q.Q.`.`.].(.I.b @           H dXJXJX3Xp.3.[ 1 o X o X ; X X X o ; X ; X o X X X X X o X X X X o o X o X X   o X X X o o o X X X     o o o o o o o o o   o o o o o o o X   o   o o o o o   o o o         o                                                                                                                                                                   X ",
"X                                                                                                                                                         o   o o   o   o   o   o o o     o o o o   o o o o   o o o o o   X X o X   o o X X o   o X X X X   X X X X X X X X X o   X X o X X X X X X X X o ; X ; X X X ; ; X . 1 $.3.L.GXJXgX)                           3 B U.`.].].`.(.(.(.Q.Q.W.W.Q.(.!.!.!.!.Q.!.!.!.!.!.!.!.!.Q.!.W.U.I.S D n 5 5 5 5 n b D S S V %         X / BXJXxXN.>.#.g . o X ; ; ; o X X ; O X . X ; X X X X X X X X o o X X X X   X X o X     X o X   X   X o O o o O o o o o o O o o o o o o o     o o o o o     o   o o   o     o       o o                                                                                                                                                     & ",
"X                                                                                                                                                               o         o   o       o o o     o o o o o o o o o o o o   X     o X o X   o X X X o     X X o     o o X X o o X X X X   X X X X o o ; X ; X o X O X ; X   ; k -.M.rXJXHX|.*                       % m I.`.].`.~.U.P.A B 0 5 5 9 B I.~.(.!.!.!.!.!.!.!.!.!.!.!.!.!.!.Q.(.(.(.(.(.Q.E.U.S m 9 @       o               e @XJXJX4Xi.2.' & . X o X O X ; o o ; O ; o o X X X X o o X ; X X o X X X X o o X X X X o   X X X X   o o X X o o o o o   o o o o o X   o X o o     o o o     o o o o     o   o       o   o                                                                                                                                               X ",
"&                                                                                                                                                         o           o o     o o o o     o o o o   o o o o o o o o o X       X o o   X o X o o X X o X o   X o X X X X X X X X X X X X X o o X o X X o X X ; ; X o X o : { 3.G.KXJXpXp                       n I.(.].W.P.B 9 .       + n A U.E.(.(.!.!.!.!.!.!.!.!.!.!.!.!.!.!.!.!.!.!.!.!.!.!.!.(.(.`.`.(.Q.^.A 0 @                   L hXJXvXM.>.6.1 + X ; X o ; X X X o X ; X O o o X X X X o X X X X o o X X o X X X X   X X     o o X   o   X X       o X o X   X     o     o o o o   o o o o   o   o o         o o                                                                                                                                                     X ",
"X                                                                                                                                             o                     o   o   o   o   o   o o o o   o o o o o o o o X X     o X X o o o o X o X o o X X o o X X X X X   o X X X X X   X X X X X X & X ; X o & X X X X . < $.w.4XJXJX Xo                   3 A E.W.I.V 3 o       @ n S U.(.(.(.).(.!.(.!.!.!.!.!.!.!.!.!.!.!.!.!.!.!.!.!.(.(.!.(.(.!.!.(.!.(.(.).'.`.`.W.I.m %               * ;XJXGXH.:.0.g . X o X ; ; ; X X o ; X ; X X X ; X X X o X X X X o X X X X o   X o X o X o X o X o o   X X X X     X o   X   o o o   o o o o   o o     o     o o         o   o                 o                                                                                                                                   & ",
"X                                                                                                                                       o   o         o       o   o o     o o o     o o o o     o o o o   o o o o     O o X X   o o O X     o X O .   X X X X     X X X X   X X o X X X X X X X X o X O & X o X ; . f -.g.zXJXBXL                   5 A P.A 9         @ n S U.~.`.`.`.).(.(.(.(.!.!.!.!.!.!.!.!.!.!.!.!.!.!.!.!.!.!.!.E.E.E.E.U.E.E.E.W.Q.(.(.`.`.`.`.].`.Q.I.b .             Q HXJX4X4.<.j . @ O ; o o ; ; & X o X ; X ; X o X + X X o o O X X o o o O X X   X X X X o   X X X X     o X X o     X o o X   X X o o o   o o o     o o o o     o o o         o           o                                                                                                                                     X ",
"&                                                                                                                                 o         o   o   o     o       o     o     o o o o o o o o o o o o o o o o o o o X o o o X   o o o X o X X   o o o X X   X X o X X o X o X X X X X X X X X X X X X o X X ; X . j *.N.CXJX>Xe                   @ 9 %       3 m A U.(.].].`.(.W.E.U.P.I.I.E.Q.!.!.!.!.!.!.!.!.!.!.!.!.!.!.!.!.!.(.!.~.~.W.U.I.P.A A B b n n b B A F I.E.Q.`.].Q.P.n o         G fXHX0Xp.3.' O . ; O ; X . O X X X X X X X X X X X X X X X o X X X X o X X X X X X X X o X o o X   o X   o o X   X   X   o o   o o o o o   o o o o   o   o   o     o     o           o   o                                                                                                                                   X ",
"X                                                                                                                                             o   o     o   o o   o o o o       o o o   o o o o o o o o o O     o o o o o   X o X o   X X o X X X X X X o o X X X X o X X X ; o X o ; X ; X . X # ; X X o & X o ` >.D.GXJX Xo                         % b P.E.(.(.(.E.P.A n 9 3 % 9 B S U.E.~.Q.!.!.!.!.!.!.!.!.!.!.!.!.!.!.!.!.!.!.!.!.!.(.).(.'.(.(.(.W.E.P.A 0 3       . 5 n A U.W.E.D %       & ;XJXvXf.3.[ X + ; ; X X X ; X ; X X X X ; X o o O X X X o X X X X o o X X o   X X X X o X   o o o o o   o o X       o o o o o o o o o     o o o     o o o   o       o       o         o                                                                                                                                   X ",
"X                                                                                                                                       o o           o           o       o o o     o o o o   o o   O o o o o o o o o o X X X   o X X X X   X X X       X X X o X X X o X . X X X ; o . X O O ; o o ; ; & .   ` >.S.KXJX~                     @ n S U.E.E.P.A n 3 o       3 b P.E.(.`.(.(.(.(.(.!.!.!.!.!.!.!.!.!.!.!.!.!.!.!.!.!.!.!.!.!.!.!.!.!.(.(.(.(.(.).`.`.Q.E.P.B 3           5 B A n          XJXCXm.>.[ X o X ; & ; X X X ; X ; X o X X ; X o X X X ; o o o X X X X o X X X X   o X o O o o X X X X o o X X X o o o o o o   o O   o o   o o o       o o o o     o   o       o                                                                                                                                       & ",
"&                                                                                                                                           o     o       o   o o o o   o o   o o o   o   o o o o   o o o o o o o o o o   X X   X     o X o   X X X X X X o X X X X X o X X X X o O X X X X . ; X O X X X . ` >.G.JXJX~                 3 m A S A B 5 @           3 b F E.(.`.(.(.(.(.Q.(.(.Q.Q.!.!.!.!.!.!.!.!.!.!.!.!.!.!.!.!.!.!.!.!.!.!.!.!.~.E.W.~.Q.!.(.`.`.`.`.].].(.E.P.n %         @           .XJXZXN.3.[ X . ; X X O X X X X O + X ; o X ; X X X o X X X X o X X X o X   o X X X   o o X o o o o o o X   o o o o X   o o o o o o o   o o   o o   o     o   o   o                                                                                                                                                   X ",
"X                                                                                                                                 o   o           o     o   o       o o o   o   o o o o o o o o o o o o o o o o X o X X o   X o X X X X X o X   X o X o o X X X X O o X X X X X X X O X ; X X X ; ; ; . o ` 3.G.JXBXI                 % n 3 @             3 b S U.(.].].].`.`.`.`.(.(.Q.~.Q.(.Q.!.!.!.!.!.!.!.!.!.Q.!.!.!.!.!.!.!.!.!.!.!.!.!.!.~.E.U.U.I.F A B A F I.E.Q.(.`.].].(.I.A 5                 ~ HXZXC.>.{ & X X o & ; ; X o ; O X X X X ; X ; o X X X X X X o X X X   X o X X X X   X o X X o X o o O o o o o o o     O o o     o o o o o   o o o     o o   o     o   o     o   o                                                                                                                                 X ",
"X                                                                                                                               o           o       o o o     o o o       o   o     X o X   o   o o o o o o X X o o o o o O o o o X X X X   X X X   o X ; X O . o X X ; X o X X ; ; X o O & ; O X o X @ ` >.G.JXBXG                               @ 9 A E.(.].].(.~.E.U.I.F A B b b B A U.(.Q.(.!.Q.(.Q.(.Q.!.(.Q.Q.(.Q.!.!.!.!.(.Q.Q.Q.(.Q.(.Q.(.).(.(.Q.Q.W.U.A m 5 @ % 3 n D P.U.Q.`.`.E.A 5             P HXZXN.>.[ ; # & o o X & ; ; X o ; ; ; X o X X O X o X X X ; X   X X o X o     X X X o   X o X X   X X X X   o o o X       o o       o X   o     o o o o     o             o         o o                                                                                                                         X ",
"&                                                                                                                                             o               o   o   o o o   o X o       X o   o o o o o   o   X o o o o o o X X o o X o o X X X X X X X o X X X X X X X X X X o X X X X X o ; X X . j >.D.JXFXG                           @ 0 F E.E.E.P.A b 9 3 @         @ 9 A I.W.(.(.(.(.Q.Q.Q.Q.Q.!.!.Q.Q.Q.Q.Q.(.Q.!.!.Q.Q.(.(.Q.(.Q.Q.).Q.Q.).Q.(.Q.(.(.(.(.(.U.S n +       . 3 n A U.E.P.b @         P JXAXj.>.` o X ; X ; ; o ; X X ; o X X X X X X X o X X X X X o X X X o X X X X   X o X X   X o o X o   o o o o o   X X     X X   X       o   o o     o   o o   o o   o                                                                                                                                         X ",
"X                                                                                                                                     o o       o o     o o   o   o o o o     o   X o o   o X o o o o o X X   X o X X X o   o o X o o o X X X X X o X X o o X X ; X o o ; ; ; O X X ; ; ; o o ; & . f =.C.KXJXE                         @ n B B n 3 .               . 9 A U.~.(.(.(.Q.~.~.~.(.Q.(.)._.[.[.[.{.{.{.[.[.[.[.!.(.!.Q.Q.Q.~.~.Q.Q.Q.~.Q.~.Q.Q.Q.W.Q.(.].`.].].(.(.I.B 3           o 5 V B 0         ^ JXcXa.3.j . & & O X X O ; ; O X X ; O ; X o X ; O X X X X X X X X o X X X X X X X X o   X X o o   o X o O o o   X o o   X   X o     X o o o o o   o o o     o o o           o                     o                                                                                                         X ",
"X                                                                                                                                         o o       o o o     o o o o   o o o o         X o o   o o o o o o o o X     o o X X X o X X X X o o X X X X   ; X X X o X ; ; X o X ; ; ; X o X & & ; o 1 #.g.AXJXW                           o .           o     @ n A I.W.(.].[.{.}.}.}.iXiXiXiXiXMXMXMXDXDXDXDXHXHXHXHXDXDXHXMXMXMXMXiXiXiXiX}.}.}.{.{.[.).Q.W.U.I.A B A P.U.Q.(.].].`.E.S n .           .           |.JXbXq.8.g . o X & ; ; X o ; ; ; X . X ; ; ; X o X X X X o X X X X X X o X o X X   X X X X   o X o X X o o o O o o o o o X       X   o o   o o o   o   o o       o o o           o                                                                                                                         & ",
"&                                                                                                                                           o       o     o   o   o o o o   o o   o X   o o o o O   X   X   X   X     X X X X   X o o X X o O o X X X X X X X X X ; X o X X X O X X ; O ; X X . O $.q.xXJX^                                           0 D ^.{.}.iXiXiXMXDXHXJXGXZXcXlX0X9X9X5X2XG.G.G.S.S.D.D.S.D.S.S.S.G.G.G.2X3X5X9XqXkXxXCXZXKXJXDXMXMXiXiX}.{.^.A w   o 3 n A P.E.Q.`.Q.P.b .                   OXJX8X<.8.1 . ; ; X ; ; ; X X X O X X X X X X X X o X X X X X   X o X X o X X     X o X X   X o   X o o X   o o o o o o o X o X   o X     o   o o   o     o   o       o                                                                                                                                   X ",
"X                                                                                                                                 o o           o o       o o o o   o   o o o   o o o   o o o O X o X o X o     X X X X X   o X O o o X X X o o X X X ; o X o ; X O o X ; ; ; X o X ; ; ; X X + | 3.8XJX=X                                    & p ! -XiXDXHXJXKXBXlXqX5XG.Z.m.f.i.9.8.<.:.=.=.:.=.<.=.<.:.:.=.<.=.=.=.=.;.;.=.=.*.=.:.<.<.9.i.f.j.V.S.2X9X0XvXGXJXJXDXMX:X/ H r         5 V F U.U.S 0 .               ,XJX2X>.7.; + X X ; ; ; ; X X ; ; ; X o X ; ; X X X X X X X X X ; X X o X X X X X X   X X X X   o X o o   o o o o o   o o X       o o o o o   o o o o   o o o o     o   o   o     o                                                                                                                     X ",
"X                                                                                                                     o       o o       o   o       o o o     o o o o     o o o o   o X o o     o X X       o X     o X X X X   o X X ; o o X X X X   o X X ; X o ; ; ; ; o X ; & & X o X & . j >.G.JXhXX                           # p Q &XuXSXJXJXGXlX9XR.Z.j.0.8.=.=.=.=.8.8.9.9.9.9.9.9.9.9.9.9.9.9.9.9.9.9.9.9.9.9.9.9.q.9.9.q.9.9.9.9.9.q.8.=.=.=.:.8.9.a.m.S.3X0XAXJXJXHXmX,X|.L =       . 9 m B 9             - VXJXB.,.` . ; ; ; o X ; ; ; ; o X ; ; ; X X ; ; ; X o o X X X o o o O o o o o X X X o X   o X X X   X X X o     X o         X X o     o o o o   o o o o     o   o       o   o                                                                                                                         X ",
"&                                                                                                                                 o     o   o     o o   o   o o   o o o o o o o o o o   o o o o o     X X X X X X X   X o X X o X X o X o X X X X X o X X X O X X X X X X X X ; X X ; X ; . 1 -.V.KXBXu                     q P $X:XVXHXJXAX0X6XS.m.a.<.=.=.<.q.9.9.9.9.9.9.q.9.9.9.9.9.9.9.9.9.9.9.9.9.9.9.9.9.9.9.9.9.9.9.9.9.9.9.9.9.9.9.9.9.9.9.9.9.9.9.9.8.2.=.*.<.9.j.B.R.9XxXJXHXHXdX&X^ M O                     J FXAXg.3.g . O & ; O ; X O ; X ; ; X X X X X X X ; X X ; X X O X X . X X X X X   o X o o X   o X   X o o X o X o   X   o X     o o o o   o   o o   o     o o   o     o                                                                                                                               & ",
"X                                                                                                                         o         o o       o o o   o o o o   o   o o o o   o X   X     o o X   X   X   X   X X X X X   X o X X o X o X X X o o O X X o X X ; ; X o X & X & X X X & ; # X 7.p.nXJXP               & J  XaXHXHXJXCXwXG.m.9.1.=.=.<.8.9.9.9.9.9.9.9.9.9.9.9.9.9.9.9.9.9.9.9.9.9.9.9.9.9.9.9.9.9.9.9.9.9.9.9.9.9.9.9.9.9.9.9.9.9.9.9.9.9.9.9.9.9.9.9.9.9.9.8.=.=.<.<.a.B.3XkXKXJXJXVX:X! e                 ~ JXzX4.0.: o # ; ; ; X X ; & ; X o X O X ; o X ; X ; X o . ; X O o X X X X o X X X o X X o o o X X     X   o o o X X   X   X o   X   o   o o o o     o o o     o   o o     o o                                                                                                                     X ",
"X                                                                                                                             o o o     o o o       o o o     o o o o   o o o o o     X o o o o o o o X   X X o o   o X X X X o o X X X X o X X ; X o X ; + O X X X ; ; ; o o & ; ; X X . k ,.6XJX=X          - P ;XVXJXJXGX0X2Xm.0.=.-.<.9.9.q.9.9.9.9.9.9.9.9.9.9.9.9.9.9.9.9.9.9.9.9.9.9.i.q.9.9.9.9.9.9.9.9.9.9.9.9.9.9.9.9.i.9.9.9.9.9.9.9.9.9.9.9.9.9.9.9.9.9.9.9.9.9.9.9.9.9.8.<.=.8.a.Z.9XvXJXJXHXaX.XM             :XJXH.,.| @ & o X ; & O ; o X & ; ; X . X ; ; X o o ; O ; o X . X X X X X   X X X   X X o X X   X X X X     o X o       X o o     X o o o     o o o       o o         o           o                                                                                                               X ",
"&                                                                                                                 o       o           o     o   o   o     o   o o o o o o o o o     o X o o   o o X X   X X X   o X o X o X X X X X X X X X X X X + X X X X X X X X O X X X X ; X & O . < :.M.KXmX&     & I ;XSXJXJXZX9XZ.a.<.=.<.8.q.9.9.9.q.9.9.9.9.9.9.9.9.9.9.9.9.9.9.9.9.9.9.9.9.9.9.9.9.9.9.9.9.9.9.9.9.9.9.9.9.9.9.9.9.9.9.9.9.9.9.9.9.9.9.9.9.9.9.9.9.9.9.9.9.9.9.9.9.9.9.9.9.9.9.9.<.<.-.9.m.R.lXJXJXJXdX.Xp       = BXAXf.2.j @ ; ; ; X X X X ; ; o & X X O X X ; O X X X X X X X X   X X X X   o X   X X   X o o o o X o X X X   o   o o     o o X     o o   o o   o o   o   o   o   o       o                                                                                                                     X ",
"X                                                                                                                                   o   o     o   o     o   o o   o o o o o o o X   X   X X X o X   X o   X o X X o X X o   X X X X o X X X X o o ; X ; X o X ; X ; X X & X & X X o # ; { q.xXHXi   L #XVXJXJXvX3XB.i.=.=.8.9.9.9.9.9.9.9.9.9.9.9.9.9.9.9.9.9.9.9.9.9.9.9.9.9.9.9.9.9.9.9.9.9.9.9.9.9.9.9.9.9.9.9.9.9.9.9.9.9.9.9.9.9.9.9.9.9.9.9.9.9.9.9.9.p.9.9.9.9.9.9.9.9.9.9.9.9.9.9.9.q.9.9.8.<.<.1.j.G.wXKXJXHXsX/ e   L JXqX4.6.& X ; O X X & # O X X o ; ; ; X o X ; ; X o X ; o X X X X X X X X X X X X   o X o o X o   X o o X   X X o o X     X   X o o o o o   o   o o o     o   o     o                                                                                                                         & ",
"X                                                                                                                 o o         o o         o o o   o o o o     o o o o   o o o O o o o O o o   o X o X X   X o o X   X X X o X o o O + X o o X ; ; X o X ; O # X X X ; ; ; X X & ; & o g ,.2XJX>XW dXJXJXZX9XN.9.*.=.8.9.9.9.9.9.9.9.9.i.9.9.9.9.9.9.9.9.9.9.9.9.9.9.9.9.9.9.9.9.9.9.9.9.9.9.9.9.9.9.9.9.9.9.9.9.9.9.9.9.q.9.9.9.9.9.9.9.9.9.9.9.9.9.9.9.9.9.9.9.9.9.9.9.9.9.9.9.9.9.9.9.9.9.i.9.9.9.9.9.9.8.*.=.f.F.lXJXJXHX<XC ,XJXH.>.k o X ; & & # o X & X & X X ; ; ; ; X o ; X ; X X o X X X   X o X X X X o X X X o o o O X X   o X X X   X X o o o     o o o o   o o o o       o o         o         o                                                                                                                 X ",
"&                                                                                                                           o     o o o o       o   o   o o o   o o o o o o     o o o o o X o o o   o X X X o X o o X o X X X o X X X X X X X X X O X X X X ; X X ; X O ; X X & X X ; $.g.FXHXSXJXJXlXF.i.-.<.9.9.9.9.9.9.9.9.9.9.9.9.9.9.9.9.9.9.9.9.9.9.9.9.9.9.9.9.9.9.9.9.9.9.9.9.9.i.9.9.9.9.9.9.9.9.9.9.9.9.9.9.9.i.9.9.9.9.9.9.9.9.p.9.9.9.9.9.9.9.9.9.9.9.9.9.9.9.9.9.9.9.9.9.9.9.9.9.9.9.9.9.9.9.9.9.9.8.*.<.m.9XGXJXHXgXHXAXi.8.1 X ; X X ; ; X & X & X X ; ; X ; X O X X X X o X X X X X o X X X o X X X o o o X X X X o X       X X o o o o     X   o o o o o o o o o   o o   o o   o   o           o         o                                                                                                   X ",
"X                                                                                                                         o         o o   o   o o o   o o o o o o   o o o o   o o o o o o o X X o     X o X o   X X X X o o O X ; o o X ; O X o o ; ; ; X o O ; ; ; X X ; O & X X o l >.wXHXJXJXqXB.<.*.8.9.9.9.9.9.9.9.9.9.9.9.q.9.9.9.9.9.9.9.9.9.9.9.9.9.9.9.9.9.9.9.9.9.9.9.9.9.9.9.9.9.9.9.9.9.9.p.9.i.9.9.9.9.9.9.9.9.9.9.9.9.9.9.9.9.9.9.9.9.9.9.9.9.9.9.9.9.9.9.9.9.9.9.q.9.9.9.9.9.9.9.9.9.9.9.9.q.9.9.9.9.9.1.*.f.2XcXJXHXHX6X,.' + ; X X & O & X X X & ; ; o X ; ; ; X X X ; ; X X X X ; ; X X o X X X o o X X o o o   o X X o   o o o o o o X X X o   o o o o     o o o o     o   o         o           o       o                                                                                                 ; ",
"X                                                                                                       o         o o o       o o         o o     o   o o       O o o o o o o o o o o X o o o o o X X X   X X X X X o X X ; X o X X ; # o o ; O ; ; o X ; ; ; X o ; & ; ; X X & o : A.kXJXLX4Xm.1.=.9.9.9.9.9.9.9.9.9.9.9.9.9.9.9.9.9.9.9.9.9.9.9.9.9.9.9.9.9.9.9.9.9.9.9.9.9.9.9.9.9.9.9.9.9.9.9.9.9.9.9.9.9.9.9.q.9.9.9.9.9.9.9.9.9.9.9.9.9.9.9.9.9.9.9.9.9.9.9.9.9.9.9.9.9.9.9.9.9.9.9.9.9.9.9.9.9.9.9.9.9.9.9.9.9.9.9.<.*.i.G.zXJXJX5Xd.d . & & # X X & O ; X X O ; ; ; o X ; O ; o X X X ; X o o O X X o X X X X X o o o X X X   X o X O o o o o o o       o o o   o o o o     o o o o     o   o o   o   o                                                                                                               & ",
"&                                                                                                                 o   o       o     o   o   o     o o   o o o o o o o o o o o o o o X   X X X   o X X o o X X   X . X X X X X o X X . X X X X X X X X X O X ; X X ; O X ; X X   a >XJXHX4Xf.=.8.9.9.9.9.9.9.9.9.9.9.9.9.9.9.9.9.9.9.9.9.9.9.9.9.9.9.9.9.9.9.9.9.9.9.9.9.9.9.9.9.9.9.9.9.9.9.9.9.9.9.9.9.9.9.9.9.9.9.9.9.9.9.9.9.9.9.9.9.9.9.9.9.9.9.9.9.9.9.9.9.9.9.9.9.9.9.9.9.9.9.9.9.9.9.9.i.9.9.9.9.9.9.9.9.9.9.9.9.9.9.9.9.=.8.D.bXHXZXb.X o ; O ; ; # X ; ; O & X X X X X X X X X X X X X X X X X o X X o X X o X o o X o X X   X X   X X   X   o   o o X o o o o o o o o o   o   o   o   o     o         o                                                                                                             X ",
"X                                                                                                                         o o     o   o o     o o o   o o o o o o   O o o o   o o o o     o X o   X   X X X X   o O X X X . X o X X o X ; O ; . X ; ; & X X X & & & o X & ;   I BXJXzXN.-.8.9.9.9.9.9.9.9.9.9.9.9.9.9.9.9.9.9.9.9.9.9.9.9.9.9.9.9.9.9.9.9.9.9.9.i.9.9.9.9.9.9.9.9.9.9.9.9.9.9.9.9.9.9.9.9.9.9.9.9.9.9.9.9.9.9.9.9.9.9.9.9.9.9.9.9.9.9.9.9.9.9.p.9.9.9.9.9.9.9.9.9.9.9.9.9.9.9.9.9.9.9.9.9.9.9.9.9.9.9.9.9.9.9.9.9.9.=.9.2XKXJX>X=   & & & X X X & # O o X & X & X X X & & X o X X ; X X X o O + ; o o X O X X o   X o X o o o o o X o   X X X   o o o o o o   o o o o   o o o       o o o o                                                                                                                   X ",
"&                                                                                                                 o           o   o     o o o o   o o o o     o o o     o o o o o o O X X X   X X X X o X X X X X o o X o O X X X ; O ; o . X ; ; ; o X ; ; ; X X X ; & X   /.JXZXG.8.=.9.9.9.9.9.9.9.9.9.9.9.9.9.9.9.9.9.9.9.9.9.9.9.9.9.9.9.9.9.9.9.9.9.9.9.9.9.9.9.9.9.9.9.9.9.9.9.9.9.9.9.9.9.9.9.9.9.9.9.p.9.9.9.9.9.9.9.9.9.9.9.9.9.9.9.9.9.9.9.9.9.9.9.9.9.9.9.9.9.9.9.9.9.9.9.9.9.9.9.9.9.9.9.9.9.9.9.p.9.9.9.9.9.9.9.9.9.9.q.9.=.j.0XJXgXp   o X & ; & X o & ; X & o X ; X ; X X X O X X o o ; X + X o X X X X o o X X X X   X o X X     X X X       X o o o   o o o o     o o o o   o o             o       o                                                                                                       & ",
"X                                                                                                                 o         o     o   o o   o o   o o o o o o o o o o   o X o X o o X     X   X o o X o o X   X X X X X o X X X X X X X X X O X X ; ; O ; X X X X ; ; o - ;XJXqXf.*.q.9.9.9.9.9.9.9.9.9.9.9.9.9.9.9.9.9.9.9.9.9.9.9.9.9.9.9.9.9.9.9.9.9.9.9.9.9.9.9.9.9.9.9.9.9.9.9.9.9.9.9.9.9.9.9.9.9.9.9.9.9.9.9.9.9.9.9.9.9.9.s.q.9.9.9.9.9.9.9.9.9.9.9.9.9.9.9.9.9.9.9.9.9.9.9.9.9.9.9.9.9.9.9.9.9.9.9.9.9.9.9.9.9.9.9.9.9.9.9.9.9.9.1.1.H.GXSXP   ; & O ; X ; ; ; X & X X ; X ; X X X ; X ; X X X o X X X o X o X X X X o X o o o X X   X   o X   X o o o o o o o o o o o o o o o       o o o o     o o                 o                                                                                               X ",
"X                                                                                                   o                     o o       o o       o o o o o o o o o o   o X X     o o X X     X X X o o o O X X o o o X X X X X X X ; . X X ; ; X o X ; ; ; X o X & & &   o ,XJX2X<.<.9.9.9.9.9.9.9.9.9.9.9.9.9.9.9.9.9.9.9.9.9.9.9.9.9.9.9.9.9.9.9.9.9.9.9.9.9.9.9.9.9.9.9.9.9.9.9.9.9.9.9.9.9.9.9.9.9.9.9.9.9.9.9.9.9.9.9.9.9.9.9.9.9.9.9.9.9.9.9.9.9.9.9.9.9.9.9.9.9.9.9.9.9.9.9.9.9.9.9.9.9.9.9.9.9.9.9.9.9.9.9.9.9.9.9.9.9.9.9.9.9.9.9.9.9.9.=.j.vXHX)   ; X X & - & o X X & & X X X & ; ; o X O ; ; X X o O X ; o o X o o X X X X X X o o o X X o   o X o o X o o O   o o   o o o o     o o o     o o o       o   o                                                                                                         X ",
"&                                                                                                                 o o o       o o o     o o o o     o o o o o o o o o   X o X o o   X o X o   o X X X o   X X X X X X X X X X X X O X ; X X ; ; ; ; o X & ; & X X X    XJXS.-.8.8.9.9.9.9.9.9.9.9.p.9.9.9.9.9.9.9.9.9.9.q.9.9.9.9.9.9.9.9.p.9.9.9.9.9.9.9.9.9.9.9.9.9.9.9.9.9.9.9.9.9.p.9.9.9.9.9.9.9.9.9.9.9.9.9.9.9.9.i.9.9.9.9.9.9.9.9.9.9.9.9.9.9.9.9.9.9.9.9.9.9.9.9.9.9.i.9.9.9.9.9.9.9.9.9.9.9.9.9.9.9.9.9.9.9.9.9.9.9.9.9.9.9.9.9.9.9.9.<.i.kXHXu o ; & X o X & & & o o ; ; ; X o ; ; O ; o o O X ; X o X X X X X o X X o o   o o o X o   X X o o   o O o o     o o o o     o o o o     o   o       o         o                                                                                                       & ",
"X                                                                                                                       o   o     o     o o o   o o o o o o o o o o o   o X   X o o o X o   X X o X X o X X X X X o X X X X X X X X X ; X X O ; ; X X O ; X & X X   I JXD.-.9.9.9.9.9.q.9.9.9.9.9.9.9.9.9.9.9.9.9.9.9.9.9.9.9.9.9.9.9.9.9.9.9.9.9.9.9.9.9.9.9.9.9.9.9.9.9.9.9.9.9.9.9.9.9.9.9.9.9.9.9.9.9.9.9.9.i.9.9.9.9.9.9.9.9.9.i.9.9.9.9.9.9.9.9.9.9.9.9.9.9.9.9.9.9.9.9.9.9.9.9.9.9.9.9.9.9.9.9.9.9.9.9.9.9.9.9.9.i.9.9.9.9.9.9.9.9.9.9.9.9.<.9.lXdX# . & X ; O & ; ; ; ; ; X O X X X X X ; X X ; X X X o X X X X o o o o X X o X X o X o X o o X X o o o o o o o o o o o o o o   o       o o   o   o o             o                                                                                                   X ",
"X                                                                                                           o   o       o o o     o o o   o   o o o   o o o o o o   o O X     o X o X o o X X X X o o X X X o X X X ; X X   ; X ; X . O ; ; ; o X ; & ; X X X & X q NX2X*.9.9.9.9.9.9.9.9.9.9.9.9.9.9.9.9.9.9.9.9.9.9.i.9.9.9.9.9.9.i.9.9.9.9.9.9.9.9.9.9.9.9.9.9.9.9.9.9.9.9.9.9.9.9.9.9.9.9.9.9.9.9.9.9.9.9.9.9.9.9.9.9.9.9.9.9.9.9.9.9.q.9.9.9.9.9.9.9.9.9.9.9.9.9.9.9.9.9.9.q.i.9.9.9.9.9.9.9.9.9.9.9.9.9.9.9.9.9.9.q.9.9.9.9.9.9.9.9.9.9.9.9.9.<.i.CX X  X - & & o X & ; & X X X & & ; X X ; ; X X o X ; ; O o o o # O ; o o X X O o o o X X o   o o o o o   o o o o o   o o o o   o o o o       o o       o o o       o                                                                                                 X ",
"&                                                                                                       o           o         o o o     o o o o   o o o o o o o o o X   o o o X o o X o X X   X X X X X o o X X ; o o ; X ; X o X ; ; ; X o ; & & & o X & ; & X   oX0X=.q.9.9.9.9.9.9.9.9.9.9.9.9.9.9.9.9.9.9.9.9.9.9.9.9.9.9.9.9.9.9.9.9.9.9.9.9.9.9.9.9.9.9.9.9.9.9.9.9.9.9.9.9.9.9.9.8.9.9.9.9.9.8.q.8.9.9.9.9.q.9.9.9.9.9.9.9.9.9.9.9.9.8.9.9.9.9.9.9.9.9.9.9.9.9.9.9.9.9.9.9.9.9.9.9.9.9.9.9.9.9.9.9.9.9.9.9.9.9.9.9.9.9.9.9.9.9.9.9.9.9.9.9.9.9.=.N.LXa X o X & & & ; X X ; ; ; O X X ; ; ; o o ; X ; X o X X ; X X o X X X X X   X X X X   X o o o   o o O o o   X X o o     o o o o   o o o         o         o   o                                                                                                   & ",
"X                                                                                           o   o             o   o   o     o     o   o o o o   o o o o o o o o o o o o o X X o X o o X X o X o X o X o o X X o X o X ; X X X X X O o ; X X O X X X ; X ; ; O X = gXj.<.9.9.9.9.9.9.9.9.9.9.9.9.9.9.9.9.9.9.9.9.9.9.9.9.9.9.9.9.9.9.9.9.9.9.9.9.9.9.9.9.9.8.9.8.8.9.=.=.=.=.=.=.*.*.*.1.=.1.1.<.<.1.<.<.1.8.8.4.8.9.0.8.=.8.8.=.=.1.=.=.=.-.=.1.=.-.=.=.=.<.8.8.9.q.9.q.9.9.9.9.q.9.9.9.9.9.9.9.9.9.9.9.9.9.9.9.9.i.9.9.9.9.9.9.9.9.9.9.9.9.9.9.9.9.9.9.*.qXoX  ; X ; ; ; ; O X ; ; ; ; X X ; X ; X X X X X X X X X o X X o X X X o o X X o o o o O o o X o o X X o o o   o o o o o o o o o o o o o o o   o   o o     o                                                                                                       X ",
"X                                                                                                 o         o   o       o o       o o o o     o   O   o o o o o o o X o X       o o O     X o X X o o X X o o X X ; O X o X O ; ; X X X ; & ; o o & & & X X ;   Q 0X;.9.9.9.9.9.9.9.9.9.9.9.9.9.9.9.9.9.9.9.9.i.9.9.9.9.9.9.9.9.9.9.8.8.=.=.:.=.=.1.8.8.9.9.i.a.j.j.N.B.Z.G.R.R.5X4X9XwXqXqX0XkXlXlXxXxXxXxXxXxXxXxXxXlXxXlXlXkX0X0X0XwX9X4X5X6XR.G.S.Z.V.m.j.f.a.9.9.9.<.<.=.1.=.=.=.<.<.8.9.9.9.9.9.9.9.9.9.9.9.9.9.9.9.9.9.9.9.9.9.9.9.9.9.9.9.9.9.9.<.C.fX# & & & X X & & & X X X & ; ; X o ; & ; O o X O ; ; o o X ; O X o X X X X o   X X X o o o X X X o   X X o o o   o o o o     o o o       o   o   o o           o                                                                                                 X ",
"&                                                                                                                   o o     o o o o     o o o o   o o o o o   o o o o o o X X o o o X X X X o X X X X X X O X ; O o o ; X ; X X X ; O ; X X ; & ; & o X ; & &   ;X3X-.8.9.9.9.9.9.9.9.9.9.9.9.9.9.9.9.9.q.9.9.9.9.9.<.<.=.=.=.=.9.i.a.j.B.D.R.3X9XqXlXxXcXCXZXJXKXJXJXJXHXDXSXmXhXhXsXyXyX,X:X=X;X=X=X=X;X=X=X=X=X;X=X;X;X=X=X;X:X:X,XyXuXuXhXmXVXSXSXHXJXJXJXKXGXZXnXvXxX0X8X4X6XH.Z.N.f.a.9.<.=.=.=.<.<.8.9.9.q.9.9.9.9.9.9.9.9.9.9.9.9.9.9.9.9.9.9.9.q.i.nXC   X ; & ; # X X ; ; ; ; X ; ; ; O X X ; ; ; X o X X ; X o o X X X o   X X X X o X o X X o     X o o     o o X o o o o o o o   o o o o       o   o     o   o                                                                                                   & ",
"X                                                                                               o         o         o       o o o o   o o   o o     o o o o   X o o o o X o   X o   X X X X o X X o X X o X + X + o X ; X ; X X X ; X & X X X ; ; ; X X & X & o sXG.1.9.9.9.9.9.9.9.9.9.9.q.9.9.9.9.q.8.8.=.=.=.8.i.f.N.H.2X9XqXbXZXJXHXJXJXJXHXDXVXhXyX:X+X.X! T L G u w = & +                                                             o   # - 7 a p H I Q UXoX=X,XsXmXSXHXJXJXJXJXJXGXcXzX8X3XG.B.m.a.9.<.=.=.=.<.9.9.q.9.9.9.9.9.9.9.9.9.9.9.9.9.8.9.cXQ   ; ; ; ; O ; X ; ; ; O + ; ; O X o X ; X ; X X X X X X X X X X X X   X X X X   X X o X X o o X X o X   o o o o o o o o o o   o o   o o o o   o o             o                                                                                               X ",
"X                                                                                                           o o o       o o       o o o   o o o o o   o   O X o o o O o X   o X o X X     X X X X o o X O ; o o X ; ; X o o ; & ; X o O ; # & o X & & & X X o - fXD.=.8.9.9.9.9.9.9.9.9.9.8.<.=.=.1.9.a.N.S.6XwXxXZXHXJXJXJXHXHXmXsX;X$X~ P J a = X o                                                                                                                     o # q i H Q ^ &X,XdXVXHXJXJXJXJXKXvX0X4XR.B.j.a.<.=.=.<.8.q.9.9.9.9.q.9.9.q.9.q.9.vX! o & & X X & & & O X X & & ; X X # & ; ; X o ; ; ; X o X ; X X o X X X X     X X X o     X o X o     o o o o o o o o o o o o o o     o o o           o o     o                                                                                                 X ",
"&                                                                                                     o   o       o         o o o o     o o o o   o o o X   o o X X X   X o o o X   X o X X o X X X X X o + X O X o X O ; ; ; o X ; ; ; X X ; O ; ; o X & & & & dXS.<.q.9.9.q.9.<.=.*.<.8.i.m.H.3X0XcXJXJXJXJXHXmXaX;X.XQ H a - o                                                                                                                                                             X q i I / #X,XhXSXHXJXJXJXZXlX9XR.B.a.i.<.=.=.<.8.9.9.9.9.9.9.vX~   X # & & ; X X & ; ; ; o ; ; ; O X X ; X ; ; o X O X ; X o X X X X X o X o X X o X X o o   X X o X X   X O o o o   o o o o   o o o o     o o o o     o                                                                                                       & ",
"X                                                                                               o                 o   o o     o   o o o o o o o o o o o   o X o X o o   X X o X   X X X o X   X X o X X X X X X ; X X + X ; X O X ; X & X X ; ; O & X & & X ; ; fXS.=.9.<.1.=.8.f.B.2XqXvXKXJXJXDXmXtX#XQ H i w X                                                                   o - q p J L E ! ^ |.OX@X@X@X@X@X+X XT./ Q P L C e q &                                                                   o * a M I ^ ;XuXSXHXJXJXCXlX4XS.m.i.=.=.<.9.9.9.cX!   O & ; # & O ; & X & X O ; ; X & X X ; X ; X X X ; X X o X X X X X X X X o X o X X o X X X   o o X X     o o o o o o o o o o o o   o     o o   o       o                                                                                                     X ",
"X                                                                                                 o           o o       o o o     o o o o o   o   o     X o X o   X X X o X   o X o X X   X X X o o X X O ; o X ; ; ; ; o X ; ; & X X X & & & X X & & & ; X X - hXG.%.8.f.Z.4XlXJXJXHXVXyX+XQ J = o                                                                 X w J E ^ #X:XsXgXBXFXJXJXJXJXJXJXJXJXJXJXJXJXJXJXJXJXJXJXJXJXJXKXFXNXfX>X;X X! L p - o                                                                 X a I ^ ;XdXDXJXJXZXqXF.m.i.=.8.CX! X & & X X & & & ; X X & & & X X X & & X o X & X ; X X X X ; ; o o ; X O . o o X o X X   o o X     X X   X     X   o       X   o     o o o o     o o o       o   o                                                                                             X ",
"&                                                                                                       o   o     o o       o o o o     o o o o     X X o     o   o o   o o X X o X X o X X X o X X X X o X X X O o o ; X ; ; o X O X & X X ; ; O & X X & ; ; ; fXvX8XvXGXJXDXyX XI a X                                                                 X e L / ;XpXNXFXJXJXJXJXJXJXJXJXJXJXJXJXJXJXJXJXJXJXJXJXJXJXJXJXJXJXJXJXJXJXJXJXJXJXJXJXJXJXJXJXBXhX,XOXE G = o                                                                 = G W =XhXHXHXCXIXwXJXQ o X & & & & X X & ; & ; X ; ; ; & o X O & X ; o X X X ; o o X X X X o X X X X X   X X X o X X X o X X     X X     X X   X       o o o     o   o o         o                                                                                                   & ",
"X                                                                                       o       o   o                 o   o o o o o   o o o o o o X o X X   o X o X o   X X o o X   X X X X X o X X ; o X X X ; O X X ; X O X X X ; X ; X X ; ; ; ; X & & ; - o T mXSXzXCXHXE                                                                   4 U |.:XNXFXJXJXJXJXJXJXJXJXJXJXJXJXJXJXJXJXJXJXJXJXJXJXJXJXJXJXJXJXJXJXJXJXJXJXJXJXJXJXJXJXJXJXJXJXJXJXJXJXJXJXJXJXSXaX@XQ p #                                                                 o W JXLXCXHX,Xr o ; & & & & & X & ; & O X X ; ; ; X X ; X ; X X X O X ; X X X X X X o o X X X o X X X o X X X o X X   X X     X   o X X   X X   o o o o   o o o o   o               o                                                                                         X ",
"X                                                                                               o           o o o       o o o     o o o o   o o X     o   X O o   X o X O o o o X X X   o X X X X o X ; X ; o o ; ; ; X X X & ; & X X X & & ; X X & & & X X ; - X $ k q.xXJXC                                                           q E ;XaXSXJXJXJXJXJXJXJXJXJXJXJXJXJXJXJXJXJXJXJXJXJXJXJXJXJXJXJXJXJXJXJXJXJXJXJXJXJXJXJXJXJXJXJXJXJXJXJXJXJXJXJXJXJXJXJXJXJXJXJXJXJXKXNX>X.XJ X                                                           i JXvXw.X.. X - - & X X & & & X X X & & & X X ; & ; ; X X ; & & o X X ; ; O o X X X ; o o o X X X o   X o X       X o X o   o o X       o o     o   o o       o o o   o     o                                                                                               X ",
"&                                                                                                 o       o     o o   o   o o o o o   o o o o o   o X   o o o o o X o   X X o X X   X o X X X X ; X X X o X ; ; ; o X ; X ; ; X ; ; ; & X X & ; & & X ; & & & X X @ ` p.ZXHXe                                                     e ~ >XHXJXJXJXJXJXJXJXJXJXJXJXJXJXJXJXJXJXJXJXJXJXJXJXJXJXJXJXJXJXJXJXJXJXJXJXJXJXJXJXJXJXJXJXJXJXJXJXJXJXJXJXJXJXJXJXJXJXJXJXJXJXJXJXJXJXJXJXJXJXJXNX@XL -                                                     w HXAXp.{ # & ; + & & & & X X & & & X X ; & & ; X X ; ; ; X X X ; X ; X o X ; X X o X X X X o X o X X X   o o o X o o X o o o o o X   o     X o o o     o   o     o   o       o         o                                                                                   & ",
"X                                                                                                     o             o o o     o   o   o o o X     o   X o o o o X o X o   X X X X X X X X o   X ; X ; o X X X ; ; X X ; X ; X X X ; ; & X X & O ; ; X ; & & & + ; + [ g.KXFX-                                               = Q pXHXJXJXJXJXJXJXJXJXJXJXJXJXJXJXJXJXJXJXJXJXJXJXJXJXJXJXJXJXJXJXJXJXJXJXJXJXJXJXJXJXJXJXJXJXJXJXJXJXJXJXJXJXJXJXJXJXJXJXJXJXJXJXJXJXJXJXJXJXJXJXJXJXJXJXJXJXNX=XG                                                 - SXZXd.$.& & O ; & & & & X & & ; & ; X O ; ; ; X X ; O # X X X ; X ; X o ; X ; + o X ; X X X   X X X o o X X X o o   o o X o     o X o X     o o o o o o o o o     o o o           o     o                                                                                 X ",
"X                                                                                                             o         o o o     o o o o   o X   X o   o o o X   o X X X o   o X X X   X X X X o o X ; X ; X o X ; & O X X & ; & X X X & & ; X X & & & X X & & & # [ g.JXNX#                                           G @XBXJXKXJXJXJXJXJXJXJXJXJXJXJXJXJXJXJXJXJXJXJXJXJXJXJXJXJXJXJXJXJXJXJXJXJXJXJXJXJXJXJXJXJXJXJXJXJXJXJXJXJXJXJXJXJXJXJXJXJXJXJXJXJXJXJXJXJXJXJXJXJXJXJXJXJXJXJXJXJXJXJXJXaX~ 7                                           ; mXKXg.#.& X - & & X & & & & ; X X & & & X X & ; & ; X X & ; ; X X X ; ; ; o X X X O X o o O X X     X X O o o   X X o o o o X o     X o X   o   o o o o     o   o       o o o                                                                                             X ",
"X                                                                                               o     o o   o   o o   o o     o o o o o o o o o   o X o X o o o X o X   X o X X X   X X X X X o O X X X o X X X ; o X ; ; ; X X X ; ; & X X & & & & X ; & & & & X & $.m.JXhXo                                     X W sXJXJXJXJXJXJXJXJXJXJXJXJXJXJXJXJXJXJXJXJXJXJXJXJXJXJXJXJXJXJXJXJXJXJXJXJXJXJXJXJXJXJXJXJXJXJXJXJXJXJXJXJXJXJXJXJXJXJXJXJXJXJXJXJXJXJXJXJXJXJXJXJXJXJXJXJXJXJXJXJXJXJXJXJXJXJXJXBX;Xi                                         hXJXm.#., & ; ; & & & & X X & ; & & X & ; & & X X ; O ; X X ; O X X X X O X O X o X X X + o X X X X X X o o X X o o o o O X   o X o o o     o o o o     o   o   o     o     o             o                                                                               & ",
"&                                                                                                       o   o   o o   o       o o o o   o o o o X   X o o X   X o o X X   X o o   X X X X X X X X X X X o O ; O X X X ; X & X X X & ; & X X & & & ; X & & & & ; ; # $.C.JXdX                                  o W gXJXJXJXJXJXyX^ L G C I Y.pXJXJXJXJXJXJXJXJXJXJXJXJXJXJXJXJXJXJXJXJXJXJXJXJXJXJXJXJXJXJXJXJXJXJXJXJXJXJXJXJXJXJXJXJXJXJXJXJXJXJXJXJXJXJXJXJXJXJXJXJXJXJXJXJXHX,X~ H C G P |.sXJXJXJXJXJXJX:Xi                                   o jXJXN.1.1 3 ; ; & & & & ; X & # & ; X ; ; ; ; X X & ; ; X O + ; O ; X X X X ; X X X X X X X X X X o X o o X X X X   o o o o o o O o X   o   o o o   o o o o o     o     o   o                                                                                             X ",
"X                                                                                         o       o o         o o     o o o o o   o o o o o   O o X     X o X o X   X o o X X   X o X X   X X X X o X ; ; ; X o & ; ; ; X X & ; & X X X & & & X X & & - X X ; - & & $.V.JXaX                                G pXJXJXJXJXJX;Xp                 i <XKXJXJXJXJXJXJXJXJXJXJXJXJXJXJXJXJXJXJXJXJXJXJXJXJXJXJXJXJXJXJXJXJXJXJXJXJXJXJXJXJXJXJXJXJXJXJXJXJXJXJXJXJXJXJXJXJXJXJXJXBX#Xp                 J >XJXJXJXJXJXKX X-                                 sXJXV.=.1 + - - - + X - - & O X ; & & & X X & & & O X X ; ; ; X o + ; ; X X o ; X X o X X X X X o o X X X o     X X O o o o o o o o   o X X o o o o o       o o o o     o         o o                                                                                     X ",
"&                                                                                   o         o o o   o   o o     o   o o   o o o o   o o o   o   o X   X o o X X o X   o X X X o o o X X X X X X X X ; o ; ; X X X X ; X & & X O ; & ; X X & ; & & X & & & & & ; - $.V.JXpX                            - @XJXJXJXJXJXgXH                         u @XSXJXJXJXJXJXJXJXJXJXJXJXJXJXJXJXJXJXJXJXJXJXJXJXJXJXJXJXJXJXJXJXJXJXJXJXJXJXJXJXJXJXJXJXJXJXJXJXJXJXJXJXJXJXJXJXBX.Xq                         Q VXJXJXJXJXJXgXI                               yXJXB.1.< # & O - & & - ; ; & & & ; X & ; & & X X ; ; O O X ; ; ; ; X X ; X X X X X X X X X o X X X X o o X o X o o X o o o o o o o X       o o o o o o o o o     o o   o   o             o                                                                               & ",
"&                                                                                                       o   o     o o o   o   o o o o o o o o o     X X o o o X o X o X X X X X X X X X X X o X X X ; X X X X ; X X X ; ; O ; X ; & ; & & X & & & & X ; & & - ; X , #.B.JXsX                          J mXJXJXJXJXJX<X-                               q  XBXJXJXJXJXJXJXJXJXJXJXJXJXJXJXJXJXJXJXJXJXJXJXJXJXJXJXJXJXJXJXJXJXJXJXJXJXJXJXJXJXJXJXJXJXJXJXJXJXJXJXJXgX~ =                               q aXJXJXJXJXJXJX;X#                           yXHXZ.=.< & ; & & & & & ; ; - ; & ; O # & ; ; ; X ; ; ; + X X ; O ; X X ; X ; X o X X X X X o X X X X X o X X X X X o o X o o o o o   X o   o o o     o o o o     o   o     o       o                                                                                     X ",
"X                                                                                       o         o o         o o       o o o o   o o X o   o o o X o o o o X o   o X o X   X   X X X X o O X ; X o X ; ; ; X o & ; ; ; X X & & & X X ; & - & X X & - - & ; ; - $ , $.B.JXaXo                       E FXJXJXJXJXKX|.                                      7 .XNXJXJXJXJXJXJXJXJXJXJXJXJXJXJXJXJXJXJXJXJXJXJXJXJXJXJXJXJXJXJXJXJXJXJXJXJXJXJXJXJXJXJXJXJXJXJXJXgXW #                       o o           ; ;XKXJXJXJXJXJXpX,                         sXJXZ.1.: + - - - ; O - - & ; X ; - & & X X & & & ; X X & & & X X X ; ; ; o X X ; ; X o X X X X o o X X X o   X X o X o   X o X X o   X X o o   o o o o     o o o     o   o           o                                                                                   X ",
"&                                                                     o                         o     o   o o   o o o o     o o o o   o o o o o   o X   X o o O X o X X X X X X X o X X X X o X X O X X X ; X ; ; O X ; ; X ; X ; & ; & X X & & & & X & & & & & X = $.V.JXfX                      Q JXJXJXJXJXJXNXoX=X,X>XyXsXaXfXsX>X;X.XT a o               = .XmXJXJXJXJXJXJXJXJXJXJXJXJXJXJXJXJXJXJXJXJXJXJXJXJXJXJXJXJXJXJXJXJXJXJXJXJXJXJXJXJXJXJXJXfX! &               o p Q  X;XyXaXfXaXsX>X>X<X@X@XSXJXJXJXJXJXJXjX-                       dXJXB.1., $ & ; - & & & # # & & & & X & & & & X O & ; ; ; X + O ; ; X X ; X ; X o X X X X X o X X X X o X o o X o   X o X o   X     o o     o o o o o o o o o   o o   o     o   o   o                                                                                     & ",
"X                                                                                           o           o o       o o o o   o o o o   o o X O     o o X o o o o o o o o o X X X o o X X X X X X X X X X X X ; ; X X X & & & X X X & & & X X & & & & X & & & - & # # $.V.JXfX                    J KXJXJXJXJXJXJXJXJXJXJXJXJXJXJXJXJXJXJXJXJXKXfX XG o             - W sXKXJXJXJXJXJXJXJXJXJXJXJXJXJXJXJXJXJXJXJXJXJXJXJXJXJXJXJXJXJXJXJXJXJXJXJXJXJXFX>XI o             X L @XgXJXJXJXJXJXJXJXJXJXJXJXJXJXJXJXJXJXJXJXJXJXJXyXo                   o fXJXV.=.< & & ; & - - & ; ; - & - ; ; ; & & & X X & ; & ; X ; ; ; ; X X ; O ; X X X X X X X o X X o X o o X o X X o o X X X o   X X X o X   o o o o o o o o   o   o o         o   o     o                                                                                 X ",
"&                                                                                     o o         o o       o o o o   o o o o     o X o     X o X X   X X X o X o o X X X X   X X X X   X ; X ; X X X & ; ; X X O & & ; X X - & - X X & - - & X ; - - & & X & - - & $.V.JXmXX                 & NXJXJXJXJXJXJXJXJXJXJXKXJXJXJXJXJXJXJXJXJXJXJXJXJXJXgXOXp X             p |.aXJXJXJXJXJXJXJXJXJXJXJXJXJXJXJXJXJXJXJXJXJXJXJXJXJXJXJXJXJXJXJXJXKXpX~ e               G @XNXJXJXJXJXJXJXJXJXJXJXJXJXJXJXJXJXJXJXJXJXJXJXJXJXJXJX X                  X gXJXC.#., + = - - ; ; - - - # O ; - & & X X & & & ; X X & & & X X O ; ; ; X X ; O ; X o X X O X o o X X ; X   X X X X     X o X o       X X o o o o o o   o o o o       o o o         o                                                                                   & ",
"X                                                                                               o     o   o o   o o o o o o o o o o o o o o o o o O o o X   X X o O o o X X X X o X X X X ; o O X X ; ; X ; O ; ; X O # ; ; & X & & & & O ; - & & & ; & - & - & X * { M.JXBX-                 Q JXJXJXJXJXJXJXJXJXJXJXJXJXJXJXJXJXJXJXJXJXJXJXJXJXJXJXJXgXP                   p Y.>XVXKXJXJXHXJXJXJXJXJXJXJXJXJXJXJXHXJXJXJXJXJXJXJXJXKXmX<X~ u               e ^ aXJXJXJXJXJXJXJXJXJXJXJXJXJXJXJXJXJXJXJXJXJXJXJXJXJXJXJXJXJXBX&                 & BXJXm.#., - & # - # & - ; & - & & & ; & # & - X X & ; & & X O X ; & X X & ; O ; o X X X X X X X X X X o o X X X X   o X X X   X   X   X   X     X     o o o o   o o   o       o   o         o                                                                             X ",
"&                                                                                             o     o     o   o   o o o   o o o o o   o o o o o X   X o X X   o o X X o o X X X X o X X X X X X X ; & X X X # ; ; O X & & & ; X ; & ; - X ; & & & & ; ; - & * ; # # } k.KXHXq                 >XJXJXJXJXJXJXJXJXJXJXJXJXJXJXJXJXJXJXJXJXJXJXJXJXJXJXBX/ &                           - p P / .X X.X~ I fXJXJXJXJXJXJXJXaXI / .X X.X! I u X               # C ) E E H P .XgXJXJXJXJXJXJXJXJXJXJXJXJXJXJXJXJXJXJXJXJXJXJXJXJXJXJXJXL                 7 HXKXk.$.- - & ; - - * - ; ; - & * ; ; ; - & & X ; & & & X X ; & & & X X X X ; X X X ; X ; X o X X X X o o X X X X   o X   X X   o X X       o X o   o o o o   o   o o o   o o o o       o                                                                                 & ",
"X                                                                                       o         o   o     o o o       o o o o o o o o o o   X X o X     X X X o o X X X o o X O X X X X ; ; ; O X X ; ; ; O X ; ; & ; X O & & & ; X & - & & X ; - - - ; ; & - - $ ' k.KXHXu               X BXJXJXJXJXJXJXJXJXJXJXJXJXJXJXJXJXJXJXJXJXJXJXJXJXJXfXp                                               #XJXJXJXJXJXJXJXJXKX~                           q / |.p o           o Q NXJXJXJXJXJXJXJXJXJXJXJXJXJXJXJXJXJXJXJXJXJXJXJXJXJX|.                u JXGXg.$.X & - - - ; ; - - - & X & - - & ; X & - & & X X & & & X X X & & ; X X ; ; ; X o X ; ; X o o ; X X X   o X X X o   o o X       o o X o   X   o o     o o o     o o           o         o                                                                           X ",
"&                                                                                         o     o       o   o   o o o o o o o o o o o o o o o o   o X   o X   X o X X o X X X X X X X X X X X X X X ; ; X ; ; ; & X X & ; ; & ; ; & & & ; ; - & & & ; & - & - & ; # ] g.GXJXH               - BXJXJXJXJXJXJXJXJXJXJXJXJXJXJXJXJXJXJXJXJXJXJXJXJXhX=                 = r     w e                 ) gXJXJXJXJXJXJXJXJXJXJXJXpXH                 w ~ yXKX|.X               - = 4 sXJXJXJXJXJXJXJXJXJXJXJXJXJXJXJXJXJXJXJXJXJXJXJXJXOX                H HXAXd.[ $ * & & - - & - ; & - & & & O & & & & ; X & ; & & X ; & X & X X & X X ; o ; ; O X X X X X X O o X X X o X X X X X o X o o X X   X o o o o o   o o o o   o o   o   o o   o o     o                                                                                 & ",
"X                                                                                     o         o     o o o o     o o o   o o o o o     o o o X X o X X X o o X X X o o o ; X X o o O ; X X X X ; ; ; O X ; & ; ; X X & & & ; X O & & & ; ; & & - & ; ; - - - & ; @ k d.AXJXE               X NXJXJXJXJXJXJXJXJXJXJXJXJXJXJXJXJXJXJXJXJXJXJXJXJXG                 E BXFX.X  q gX>X XE K L E $XfXJXJXJXJXJXJXJXJXJXJXJXJXJXJXJXaX.XP L K Q OXpXFXJXJX X                L BXHXOXq NXJXJXJXJXJXJXJXJXJXJXJXJXJXJXJXJXJXJXJXJXJXJXJX^                 T JXcXp.' $ - & & & - - & & # - & - ; ; ; - & & X ; & & & ; X ; & & & X X ; ; ; ; X X ; X ; X X ; X ; X o o + X o o   X X X X     o o o o o   X   o o   o o o o     o o o     o   o       o   o                                                                             X ",
"X                                                                                         o       o o       o o o     o o o o o   o o X X o o o o o   X X X X X o o X X O o o X X ; ; o o & ; ; X X X & ; & X X ; & & & X ; & & - X X # - - & ; ; - - - & X & * - $ h q.lXJX|.                >XJXJXJXJXJXJXJXJXJXJXJXJXJXJXJXJXJXJXJXJXJXJXJXsX                - SXJXJXJXp   |.JXJXJXJXJXJXJXJXJXJXJXJXJXJXJXJXJXJXJXJXJXJXJXJXJXJXJXJXJXJXJXJXJXaXo                 fXJXJXJXG P JXJXJXJXJXJXJXJXJXJXJXJXJXJXJXJXJXJXJXJXJXJXJXL                 |.JXxXw.` . - - - * ; ; - - - & X # - - & + X & & - & X X & & & X X X & & ; X X ; O ; X o X ; X X o o X X O X o X X X X   o   X X o X o X o X o   o o o o   o o o o     o o o         o           o                                                                         X ",
"&                                                                                           o   o           o   o o o o o o o o o O   X o X o o o o o o X X o o o X X X X X X ; X X ; X X ; X X X O ; ; X ; ; ; & X X & ; & & ; & & & & ; ; & & & - ; & & & - - & - f 1.qXJX;X                / JXJXJXJXJXJXJXJXJXJXJXJXJXJXJXJXJXJXJXJXJXJXJX/                 7 KXJXJXJXJ   e HXJXJXJXJXJXJXJXJXJXJXJXJXJXJXJXJXJXJXJXJXJXJXJXJXJXJXJXJXJXJXJXJXP                 X mXJXJXJXP   fXJXJXJXJXJXJXJXJXJXJXJXJXJXJXJXJXJXJXJXJXJXFX=                 =XJXqX3.j $ - - & - - - - & & - & & - ; - & & & ; X & & & & O & ; ; ; ; X & ; ; ; ; X O X X + X X X X ; X X X X o o X X X X X o o O o o o o o X o o o o o o o o o o o   o o o   o   o     o                                                                                 & ",
"X                                                                                 o   o       o o     o o o o     o o o o   o o o o o   X   X o o o o o X o X X X X X o X + X X X o X ; ; X X X & ; # X X ; & ; & X X & & & ; ; ; & & - ; ; - & - & ; & = - * & ; $ , -.4XJXsX                q KXJXJXJXJXJXJXJXJXJXJXJXJXJXJXJXJXJXJXJXJXJXJXi                   / KXJX@X    & NXJXJXJXJXJXJXJXJXJXJXJXJXJXJXJXJXJXJXJXJXJXJXJXJXJXJXJXJXJXJXJXNXX                   E FXJX,X&   |.JXJXJXJXJXJXJXJXJXJXJXJXJXJXJXJXJXJXJXJXJX,X                  pXJX4X:.f $ = & & - - * - ; ; * - - # O & - - & & X - & & & X X & & & ; X O ; & ; X X & ; ; X X O ; ; X o X X X O X o o X o X X o X o o o   o o o o o   o o o o   o o o o     o   o o     o   o           o                                                                 X ",
"X                                                                             o       o o o     o o         o o o o     o o o o   X X o X     X O X   o X o X X o o X X ; X o X X ; ; X o ; ; ; X X X & X & X X & & & & X X & & & ; X & - - & ; X - - * & X - - - * ; $.G.JXBX-                 <XJXJXJXJXJXJXJXJXJXJXJXJXJXJXJXJXJXJXJXJXJXHXe                     a M         fXJXJXJXJXJXJXJXJXJXJXJXJXJXJXJXJXJXJXJXJXJXJXJXJXJXJXJXJXJXJXJX>X                      a M       L JXJXJXJXJXJXJXJXJXJXJXJXJXJXJXJXJXJXJXJXJXG                 & VXJXG.1.1 + - - = = # ; * - = & ; ; - - - ; X & - & & X X & & & X X X & & & X X ; & ; X X X ; X & X o O X X X . X X X X X   X X X       X X o o o o o o o     o o o       o o o       o         o   o                                                                       X ",
"&                                                                                           o     o   o   o o   o o o o o   X   o o   X o o o X o X X X X o X X X X X X X X + O X X X X O ; X X ; ; X ; X & ; X & X X & & O & ; & & & & ; # - & - - ; - - & - * & = # } V.JXJXp                 q BXJXJXJXJXJXJXJXJXJXJXJXJXJXJXJXJXJXJXJXJXKXe                                 hXJXJXJXJXJXJXJXJXJXJXJXJXJXJXJXJXJXJXJXJXJXJXJXJXJXJXJXJXJXJXJX=X                                i HXJXJXJXJXJXJXJXJXJXJXJXJXJXJXJXJXJXJXJX#X                  u JXJXV.$.* @ 6 & & - - - = & & & & & - # - & ; & & & & & ; & & & & ; & X X & X O ; X ; ; X O X X ; X X X X X X X X X X X X X X   X X o o X   X o o o o o o o   o o o o o o o   o   o     o                                                                                   & ",
"X                                                                                             o         o o o     o o o o o o X X o   o o X X X o o X X o X o o X X X o o + X ; X X X ; ; ; X X & X & X X O - & & X X & & & & ; # - - - ; ; - - - - & & * - - & # & $ ` g.GXJXE                   L FXJXJXJXJXJXJXJXJXJXJXJXJXJXJXJXJXJXJXJXJXJ                               - BXJXJXJXJXJXJXJXJXJXJXJXJXJXJXJXJXJXJXJXJXJXJXJXJXJXJXJXJXJXJXJX;X                                G JXJXJXJXJXJXJXJXJXJXJXJXJXJXJXJXJXJXJXpXX                   T JXKXf.#.[ k f & @ & = - - ; & - - = ; ; & - - & & X & & - + X X & & & X X ; ; & X X X ; ; ; X X X ; ; X o X X X X   X X o X o X   X o X       O o o o   o o O o o   o o o       o o       o o o                                                                             X ",
"&                                                                               o     o o o       o o o o   o o o   o o o o o X   o o X X o   X X X o   X X X X o o ; X O X o X ; X ; X o ; O & X X X & & & X X & & & & O ; & & & ; ; & - - - ; ; * - - & ; - = - - @ g q.lXJX@X                    I FXJXJXJXJXJXJXJXJXJXJXJXJXJXJXJXJXJXJXJX|.                              p KXJXJXJXJXJXJXJXJXJXJXJXJXJXJXJXJXJXJXJXJXJXJXJXJXJXJXJXJXJXJXJXsX                                E JXJXJXJXJXJXJXJXJXJXJXJXJXJXJXJXJXJX>X&                     #XJXbX4.i.g.3.:.7.k , @ & = - - - ; & - - - ; ; - & - & X X - & - X X X - & & X X & ; ; X X X & ; X X o ; X ; X X X X X X o X o X X X X X X o X X   o o X o o o o o o o     o o o o   o o         o   o                                                                       & ",
"X                                                                                         o         o o o o     o o o o X   X o o o o o o X X X o X X o X X X X X X X X X X X X X X X X X ; X X ; X ; & X & & X & & ; & ; & - ; & & & - & # - - - * & - - & * - & - # < <.9XJXsX                      G BXJXJXJXJXJXJXJXJXJXJXJXJXJXJXFXJXJXJXfX                               XJXJXJXJXJXJXJXJXJXJXJXJXJXJXJXJXJXJXJXJXJXJXJXJXJXJXJXJXJXJXJXJXFXw                               ;XJXJXFXJXJXJXJXJXJXJXJXJXJXJXJXJXJX,XX                       sXJX9X%.2XGXwXS.w.>.#.j $ * ; & - - - - & - & & & & & & & & & ; & & ; & ; X ; ; X ; X X X X ; ; X ; X X X X X X X X O . X X X X   o X o X X o X o   X   o o o o o o o o o o o o o   o                     o                                                                   X ",
"&                                                                         o         o       o o o     o o o o     o   O   X   o o X o o X o X       X X X X   X O X X o X ; X ; X X X & & X X X & & & X X X & & & X X - - * ; ; & - - - ; ; - - - - ; & = = = & & - * , #.G.JXBX&             . 5       u pXJXJXJXJXJXJXJXJXJXJXJXJXJXfX|.,XFXJXQ                           e FXJXJXJXJXJXJXJXJXJXJXJXJXJXJXJXJXJXJXJXJXJXJXJXJXJXJXJXJXJXJXJXJXJX|.                            e VXsX/.>XJXJXJXJXJXJXJXJXJXJXJXJXKX|.                        = FXJXG.%.6XJXHXJXvXR.p.>.@.& @ # * - - & ; @ # # & ; ; - & - & ; & - & & X X & & & & X X ; ; & X X X ; ; X X X X X X o   X X X X o o X o X X o   X X o   o o o o o o   o o o o     o o   o   o o                                                                               & ",
"X                                                               o               o     o   o     o o o o       X X     X o o X o   o o O X     X X X X X X X X X o X X X X X o ; ; ; O X X & ; ; X X X & & & X X & & & & X ; - & - ; ; & & - - ; ; - - - & X - = = = # # } M.JXJXi               B A       o ^ VXJXJXJXJXJXJXJXJXJXJXJXJXpXJ e E &X-                       - sXJXJXJXJXJXJXJXJXJXJXJXJXJXJXJXJXJXJXJXJXJXJXJXJXJXJXJXJXJXJXJXJXJXJXFXe                           w p i <XJXJXJXJXJXJXJXJXJXJXJXJXyXz         % 9               i HXJXm.1.i.j.6XvXJXJXvXB.>.7.f - @ + @ $ & f ` ` < $ & & X ; - & & X X ; & & & X X & & & X X X & ; ; o X ; X ; X X o X X X X o o X X X     o X X X   o X   o o o o o o o   o o   o     o   o       o o                                                                         X ",
"X                                                                                     o       o   o   o o o X     X o       X   X X   X X o   X X X o   X X X X X X ; X X X X X X X ; X X & X ; & X ; & X & & ; & X ; & & & & ; - & & & & & - & - * & - - - * = - = - $ ` w.xXJX.X                A E.9       -  XBXJXJXJXJXJXJXJXJXJXJXJXJX,Xi                         p fXJXFXNXyXgXJXJXJXJXJXJXJXJXJXJXJXJXJXJXJXJXJXJXJXJXJXJXJXJXJXJXBXyXgXFXJXfXq                         u ;XKXJXJXJXJXJXJXJXJXJXJXJXpXK           B A @               |.JXvX9.8.9.<.=.i.H.nXJXJXG.>.2. .g f < c { ;.p.d.8.` ; - & & & X & & & & & X & O X & X X ; & X X X ; O X ; X X X X X X X X X X X X X X X X X   X X   X X   O o o o o o o o o o o o   o o         o                                                                             & ",
"&                                                                   o             o         o o o     o o o o o   o X o X     X o o     X o X o X X o o X X X X X X X X X X ; ; X X X & X ; X X & & & X X ; & & & X X & & - & ; & - - - & ; & - = & & & = - = & & * = * f ;.4XJXpX                  D `.A .       4 ^ hXJXJXJXJXJXJXJXJXJXJXJXJX,XE =                   u G y a J OXBXJXJXJXJXJXJXJXJXJXJXJXJXJXJXJXJXJXJXJXJXJXJXJXJXJXJXFX;XL a a G =                     L ;XKXJXJXJXJXJXJXJXJXJXJXJX<XH           % I.S o                 pXJX9X*.9.9.i.9.4.=.i.3XKXJX8Xm.2.;.=.=.,.M.9XZXCXk.<.: 3 & - & ; ; & & & ; X & & ; ; X X & ; & X X X & X X X X ; X X X X X X X X o o X X o X o o o X   X o o o o o o X o         o o   o       o                                                                               & ",
"X                                                                             o       o o o o   o o o o o o o o X       X X X o   X X X o o X X o X X o o X X X X X X X X X o O X & & X X & & ; X X X - - & X X & - - & X & - & & ; ; & * - - & & = * - - & - = - = & & s #.Z.JXHXe                   b `.W.b         X P <XFXJXJXJXJXJXJXJXJXJXJXJXBX,X|.L p r * - = e M P  XpXFXJXJXJXJXJXJXJXJXJXJXJXJXJXJXJXJXJXJXJXJXJXJXJXJXJXJXJXJXJXJXJXaX#XE J a 7 &         o H >XJXJXJXJXJXJXJXJXJXJXJXhX Xp           o A ~.B                   r HXJXZ.=.9.9.9.9.9.9.<.=.B.nXJXKX0XR.Z.D.8XJXLX4XJX4X>.f ; X ; - & - ; X & & & & X O & ; & X X X X & X X X X X O X X X X X X X X o X X o o o X o o   X X   o o o o O o o     X   X o     o o o o     o   o       o                                                               X ",
"&                                                                             o   o   o o o o o o o o o o o o o   X o o     o   X X o o   X X X X X X X X X X X X X X X ; X ; X ; X ; X X & ; ; ; X & & X & & & & & & & & & - & - & & - - & * & - - * - - * - - - = * - * ' d.AXJX~                     5 E.].E.n .         = E ;XhXFXJXJXJXJXJXJXJXJXJXJXJXJXFXBXBXSXKXJXJXJXJXJXJXJXJXJXJXJXJXJXJXJXJXJXJXJXJXJXJXJXJXJXJXJXJXJXJXJXJXJXJXJXJXJXJXJXJXKXFXBXpX@X@X;XgXJXJXJXJXJXJXJXJXJXBXpX$XG o           @ B ~.E.9                     ! JXAXa.8.9.9.9.9.9.9.9.9.1.a.9XKXJXJXJXJXCX3X<.j.JXS.*.< & & & & & & & ; & & ; & & & & & & ; X ; & ; O X X & X X X X X o X X X   X X X X o o O X X X o X   o o o o X X     X o X     o o o   o   o   o   o                                                                       & ",
"X                                                                     o o       o   o       o     o   o o o o     X X O   X X X X     X X X X   o o X X X o X X o X X X X ; ; ; X X ; & & O X X & & & X X & & & & + # - & - & ; & = - = & & - = = - & & = = q & - = 7 , * f 2.9XJXaX                        B Q.].E.B %           o e E @XaXFXJXJXJXJXJXJXJXJXJXJXJXJXJXJXJXJXJXJXJXJXJXJXJXJXJXJXJXJXJXJXJXJXJXJXJXJXJXJXJXJXJXJXJXJXJXJXJXJXJXJXJXJXJXJXJXJXJXJXJXJXJXJXJXJXJXKXNX,X.XJ -               3 S !.(.B                         pXJX7X=.9.9.9.q.9.9.9.q.9.9.<.=.j.G.F.S.m.<.%.H.JX4Xe.| + = - * & ; & - & & X X & & & X X X & & & X X X & & X X X & X X X X X X X X o X X X X o     X o X   o X o X     o X   o     o o o o   o o   o         o                                                                   X ",
"X                                                               o         o   o       o o     o o o o o o o o o o o o o o X X o   o o X X X   X X X o o X X X X X o ; X ; X o ; ; ; ; X X & ; ; X X X & - & X X & - - & X # - & - & ; - - * - & & = = = - & - 4 = = - & 7 , $.V.JXJXi                         % P.`.].~.S 5                 4 G ~ #X,XgXBXHXJXJXJXJXJXJXJXJXJXJXJXJXJXJXJXJXJXJXJXJXJXHXBXsX#XE ~ <XgXFXJXJXJXJXKXJXJXJXJXJXJXJXJXJXJXJXJXJXJXJXJXJXFXVXsX;X X) u ;                 . n I.(.].P.%                         p KXJXB.<.9.9.9.9.9.9.9.9.9.9.9.9.<.=.2.=.%.9.wXZXS.>.{ = & * ; ; - & & ; X & - & & X X & & & ; o ; & ; ; X X ; X X X X X ; O ; X X X X X X X X X o X X   o X X X o o o X X o     o o o o   o o o o       o                                                                         & ",
"&                                                                           o   o   o o   o o o o o o o o o o o o o o o o o o X X X o X X   o X o X X o X X X ; X X ; X O ; X X ; O ; ; O & ; ; & & & & & & & & & & & & & - - & * & & & - - * - - - - = - - * = - 4 - = , $ ' g.ZXJX$X                            5 P.(.].(.U.b @                       = p H T / $X@X;X,X>XsXaXfXfXaXsX>X,X;X@X.X! L p - o         o q J E / $X;X:X,XpXaXdXfXfXaXyX>X<X;X#X|.W I G e &                         9 S E.`.].I.5                             $XJXZXa.8.9.9.9.9.9.9.9.9.9.9.9.9.9.9.<.=.B.vXzXf.:.` * & - - & & - & - & & & & & & X X & & X ; ; ; ; X ; X X & ; & X o X X X X X X X o X X X X o X o   X o   o o o X o   o o X   o X o o o o o o     o o   o   o                                                                   X ",
"X                                                             o       o   o     o   o     o o o o o o o o o o o o o o o o   o X X o   o X o X o o o X ; O o o ; X ; X X X ; ; ; X X ; ; ; ; X X & & & ; X & - & & ; & - & - & & & - - = & & - = = * & & 4 = , - - = 7 4 = # f *.8XJXNX-                               5 F W.].].~.P.n 3                                     o     o                                                       o                                           o 5 n S E.`.].(.I.9           @ .                 & NXJX8X=.9.9.q.9.9.9.9.9.9.9.9.8.9.1.1.m.0XGX3X8.$.f $ - & ; - - - & ; & - & - ; X & & & & X X & ; & X X X & ; X X X X ; ; X . X X X X X o X X o X     X X X X   o X o o o   X   X     o o o o   o o o         o o                                                                   & ",
"X                                                               o   o       o o o     o o o     o o o o o   o o o o o o X o o     X X X X X o X X X X o X ; X X X X ; X ; X X O & ; ; X X & & & ; X & & & & & X - - & & ; & * - = & & & = = - & & = = = - & = 4 = = - - 7 = = 7.C.JXJX!                   % 3             . b I.'.].].(.U.S n %                                                                                                                               % 9 B P.E.(.`.].`.E.A 3             n n                   ! JXKXB.=.9.9.i.9.9.9.9.9.9.9.9.=.<.N.0XJXzXg.-.j 2 # # * - - - ; & - - & & X & - - & X & & & & ; X O ; & ; X X & X & X o X ; X X X o X X X X   X X X X X     o X X     o o o X     o X o o   o o o     o o o         o                                                               X ",
"&                                                         o   o       o   o   o o o   o o o o o o o o o o o o o o   o o X   X   X X o X X X o X X o X X X X X X X X ; X O X ; ; ; ; & ; O & ; & & ; & & ; & & & & & & - & & = & - - - - = - = - - = - = - = = 4 - q = - q = * c 3.zXJXdX                    n A @               5 A E.(.].].`.Q.U.S V 5 @                                               . 3 n A n 3 .                                         o . 3 9 b A P.U.Q.(.`.`.].`.~.I.n o             % S n                     fXJXlX1.9.9.9.9.9.9.9.9.9.<.*.i.D.kXJXGXG.2.' < 3 - - - = & - - & & - & - & & & & & & & ; - O ; & ; ; & X ; ; X & O ; X O ; O X X X o X X X X o X X X X X o X X   X o o o X o o o     o o o   o o o o o o       o             o                                                       & ",
"&                                                                 o   o   o       o o     o o o o o   o o o o o o O o o o X X X X o o o X X X X X X X X ; o X X X O ; X X & ; ; O X ; & & ; ; X & & - X ; & - - - ; & * - = & & - 4 = 4 & & = 4 4 - & - 4 4 4 - & = 4 s = - & t 1.S.JXJXC                     0 E.B .                 5 A E.(.`.].].`.(.W.U.P.A V 0 9 3 @ . @ o   o . . @ % 5 9 n B S U.W.(.`.`.(.(.W.E.I.F S B D V n b n n b n n D B A S P.U.E.W.Q.(.`.`.`.`.`.`.`.Q.I.V %                 B I.5                     i JXJXS.=.9.9.9.9.9.9.8.1.i.N.3XcXHXJX9Xg.$.f * # - - 4 - = # & = = = - ; & - - - ; ; & & & & + ; & & - ; X ; & & X X o ; ; ; X X X ; X ; X X X X X X o   X X o     o X X o o o o O X     o o o o   o o o o o     o   o         o                                                       X ",
"X                                                       o         o       o o o o   o o o o o o o o o o o o o o o o o o   o X X o o X X o o X X X X X X O ; X ; o X ; X ; X X ; & ; ; ; X & & & & X & - & - ; ; & * - - & & - = 4 & ; - = = = - & 4 4 4 = & - q 4 4 * - 4 4 q 2 [ p.vXJX<X                      3 U.W.D @                   5 B I.E.(.`.`.`.`.`.`.(.(.(.~.E.W.E.E.U.E.W.W.Q.Q.(.`.`.`.(.(.(.!.!.(.!.(.(.(.`.`.`.).`.`.(.`.`.`.`.`.`.`.`.`.(.(.(.(.(.(.'.`.(.W.U.S n %                   n U.P.%                       <XJXvXi.8.9.9.9.9.9.8.m.0XCXJXJXJX0XM.$.k = + - = = = - & - = * - & & - - * & ; & - & & X ; - & & ; X ; & & ; X X ; ; ; ; X X X ; ; o o ; X X X     X X X   o X X X X X o o o o o   X o X o o o o o o   o   o o o       o                                                               & ",
"&                                                           o   o   o     o         o o   o     o o o o o o o o O o o o X o X o o X o o X X o X X X X o X ; X X X X ; X ; ; ; X ; ; # O ; & # & & & & - & - & & - - & - & - = & = & - = = - = - = 4 - = - = = 4 = q = = q = 4 2 < =.S.HXJXJ                         n ~.(.S 5                       3 b P.E.Q.`.`.'.(.(.(.(.(.(.(.(.(.(.(.Q.(.(.Q.(.!.!.!.!.!.!.!.!.!.!.(.!.(.!.!.!.(.!.(.!.Q.!.Q.(.(.Q.(.(.`.).(.Q.E.P.B 0 @                       n E.E.0                         G JXJXS.=.9.9.9.9.9.9.8.a.ZXJXvX6Xg.$.k = $ - = = = * = - - = - - = & & * & - - & & - & - & ; - ; & & O ; ; ; & ; O ; ; ; # X X ; X ; X X X X X X o X X X X X X X o   X o o o o o o     X   o o o o o o o     o   o o   o     o         o                                                 X ",
"X                                                           o       o   o o   o o   o o   o o o o o o o o o o o   o X X       o O X X X o X X X X o X X X X X X ; & X X ; & & & X X ; & - & ; O & & - ; ; & - - - & & - * = & & & = = = - & = 4 4 = & - q 4 4 - - = q q 4 - * q 8 | w.xXJXpX                          @ F `.].I.0 o                 .       @ 0 A P.E.~.Q.Q.(.Q.!.!.!.!.!.!.!.!.(.!.!.!.!.!.!.!.!.!.!.!.Q.!.!.!.!.!.!.!.!.!.!.!.(.!.!.(.~.U.S B 0 %         o                 % D W.`.F o                           >XJXxX9.9.9.9.9.9.9.9.9.=.4XJXS.5.[ 4 $ - - 4 4 4 - & - 4 = = & & = = = & & & = - * ; ; - - - & X ; - & & ; X ; & & ; X X O ; ; X o X ; ; X X X X X X X   X X X X   o X o o X     X o X     o o o o o   o o o     o o   o     o   o o     o   o                                           & ",
"&                                                       o       o   o         o o     o o o o o o o o o o o o o X X   X X o X X o X X X X X X X X X X X X X X ; X X ; ; & X o ; & & & ; X & & & & X & - - - & & - * * - & & = = = - ; = = = = & - = = 4 = & , 4 4 q = - q s q 4 * < =.D.JXJXP                             5 P.`.].E.A 5             5 A P.F A V 0 b V A I.W.!.(.!.!.!.!.!.!.!.!.!.!.!.!.!.!.!.!.!.!.!.!.!.!.!.!.!.!.!.!.!.!.!.!.Q.!.!.!.Q.E.U.U.P.I.U.U.P.n @           . 0 P.(.].U.5                             P JXJXD.=.9.9.9.9.9.9.9.9.<.N.JXqX>.' @ q = = = & = = = = - & = = = - & & = - - & ; & - - - ; ; - & & ; X ; ; & & X X & ; ; ; X ; ; X O X o X X X X X X X X X   X o o X o o o o X o o   X o   o   o o o o o     o   o o     o o                                                             X ",
"X                                                                   o   o   o   o   o o o o o o o o o o o   o o X   X   X o X X o X X o o X X X X X X X ; X ; ; X O ; X ; X ; O & ; & ; ; & & & & & & - & - & & - - = - & - = - = - - = 4 = 4 = = 4 4 q = = 4 q 4 q = 4 q q q s = 2 ' w.xXJXgX*                               5 P.(.].`.I.B 9 .       o 5 A U.Q.].].`.(.!.Q.Q.!.!.!.!.!.!.!.!.!.!.!.!.!.!.!.!.!.!.!.!.!.!.!.!.!.!.!.!.!.!.!.Q.(.Q.(.!.!.(.(.`.].`.W.I.B @       o 5 n F W.].].U.0                               & hXJXxX8.9.9.9.9.9.9.9.9.9.9.8.lXJXM.#., 7 = q = = = 4 = 4 = - 4 = * - - - * - - - - - - & & & & - & & & ; & & & & O ; & X & X O X ; ; ; X X ; X X X X X X X X   X X X O X o X X o X     X o o o o o o o o   o o o o o     o o   o                                                           & ",
"&                                                           o   o   o     o     o o o       o o o o o o o O o o   X X X X   o X X o X o o X X X X X X X ; O X X ; & ; X ; & & & O + & - - & ; & - - - & & & * = - & & = = 4 - & - 4 4 4 - & = 4 s = - - q q q - - s q q 4 = = q r q t #.V.JXJXOX                                  % A E.].].`.E.S n %         . n F E.(.`.(.).(.!.!.!.!.!.!.!.!.!.!.!.!.!.!.!.!.!.!.Q.!.!.!.!.!.!.!.!.!.!.!.!.Q.(.(.(.).(.Q.U.A 3       . 5 B F E.(.].].(.I.0                                   #XJXHXB.=.9.9.9.9.9.9.9.9.9.9.2.B.HXwX;.X.* * - s 4 4 - - = 4 = = & & = = = - & & 4 - = & ; - * - & ; ; - - - X ; ; & & & X o & ; & X X X ; O ; X X X X o X   X X X X X o o o o o o   X X o   X o o o o o   o o o o     o o         o   o     o                                               X ",
"X                                                               o     o     o   o     o o o o o   X o   X   X X X o   X X o X o o X X X X X X X X X X X X X X & X X & ; & ; ; ; & & & ; ; - & - & ; & - - - & & - * = - & - = = = - - = 4 = , * - 7 , 7 4 - q q q q = = q q q q = q 8 k 3.8XJXHXe                                     o b I.!.].].`.~.U.A n 3 o       3 V P.E.Q.(.!.(.!.!.!.!.!.!.!.!.!.!.!.!.!.!.!.!.!.!.!.!.!.!.!.!.!.!.Q.!.!.W.E.I.S V 5 5 5 n B F U.~.(.`.`.(.`.(.P.5                                     e HXJX8X<.8.9.i.q.9.9.9.9.9.9.9.9.1.kXJXV.;.c 6 7 = - = 4 = 4 - - = = = = & - = = - & ; - - - - ; ; - - - & X & - ; ; O ; & ; ; O X ; ; ; ; X X O ; X X X o X X X . o X X X o o o o o X o o o X o o o o o o o o   o o   o o     o   o o   o                                                     & ",
"&                                                 o       o         o   o o   o     o o o o o o o   X X     X o o o X   X X X o o X o X X X X X X X X X X & X X X X & ; ; ; ; O & & & ; ; & & - & & - = * - & - - - - = - - = = = - * = = = 7 - - q 7 q , = = q = q 4 7 r q r q 2 q w s #.g.AXJX>X                                          3 B U.(.`.].].`.(.E.I.S B n 5 9 5 0 A U.~.!.!.!.!.!.!.!.!.!.!.!.!.!.!.!.!.!.!.!.!.!.!.!.!.!.!.!.(.W.E.U.I.I.U.E.~.).`.`.`.(.(.`.`.'.E.A 3                                         ,XJXZXa.<.9.9.9.9.9.9.9.9.9.9.9.9.<.m.JXzX2.0.g $ = * = q = 4 = = = = = = - - = - * - * - - - * & & - & & & & ; & & - ; ; & # ; ; ; X ; X & X X X X X X X X ; X X X o o X X o o o o X o o o o o o o o o o   o o o   o o       o               o             o                                   X ",
"X                                                 o       o   o       o   o     o o o o   o o o X     X X o     o o o O o   o X X O o X X X X X X X X & & X X & & & ; X ; & & & ; X & & - & ; # - - - & ; - * - = & & = = 2 = & - 4 4 s - - 4 q q = * - q 7 q = = q q r q = = e r e 7 * c 2.H.JXJX^                                               5 B I.E.(.`.].`.`.`.`.(.(.Q.W.~.~.!.!.!.!.!.!.!.!.!.!.Q.!.!.!.!.!.!.!.!.!.!.!.!.!.!.!.!.!.!.!.(.(.`.(.(.).(.!.(.(.`.`.Q.U.S n                                             / JXJXS.=.9.9.9.9.9.9.9.9.9.9.9.9.9.9.=.2XJXG.;.i.j 8 7 r - - = 4 4 4 * - = = 4 - & - = = - & ; - = - - ; ; & & * ; X & & & & X X & ; & X X ; ; ; ; o X O X O X o X X X X o o X X X o o o O o o o o o o o o o   o o o     o o o o o     o o o         o                                           & ",
"&                             o           o   o     o         o   o       o o     o o o o o o o   X X o     X   o X o o X X X o o X X X X X X ; ; O X X X & ; ; X X & & & O X & & & - ; ; - & - & ; & * - - & & = = = = & - = = 4 = - 4 4 4 q - = q , q 7 = q q q q = = r q q q = q r e 8 | ,.4XJXKXJ                                                   . 9 D I.W.(.`.`.(.(.(.(.!.!.!.!.!.!.!.!.!.!.!.!.!.!.!.!.!.!.!.!.!.!.!.!.!.!.!.!.!.!.!.!.!.!.!.(.(.(.`.'.(.E.P.B 3                                                 J KXJX4X*.9.9.9.9.9.9.9.9.9.9.9.9.9.9.9.8.1.qXJXH.:.8.| , $ 6 2 4 - - , = = = & - = = = & & - = - - ; & - * - & ; & - & - X ; & & & O O ; # ; ; X X X ; X ; o X X X X X o X X X o o o X o o o o o o o o o o o o o o o o o   o         o             o o                                             X ",
"X                                                 o             o o o       o o o o   o o o o o o o o X o   o X X o o o X X X X X X X X X X X X X ; X ; ; ; ; & ; ; & ; & ; & ; & & & & # - - - - - - - - = - - = = = = - = 2 = 4 = = = q = q - = q = q q = q r q q 4 q e q e q q q e r w t #.p.CXJXNX4                                         o .             . 5 V F U.W.(.(.(.).!.!.!.!.!.!.!.!.!.!.!.!.!.!.!.!.!.!.!.!.!.!.!.!.!.!.!.!.!.!.!.Q.~.W.U.P.A n 3         o 3 5 o                                       = PXJXCXi.8.9.9.9.9.9.9.9.9.9.9.9.9.9.9.9.9.<.a.nXHXwXN.3.-.' c t s - $ 7 = = = = - = = = - - - = - - & & = & - & ; & - - & ; & & O & ; ; ; ; ; ; X O ; ; X X X X X X X X X X X o X o o X o X X o o X o o o o o o o o o o o   o o     o   o     o     o                                               & ",
"&                                       o           o     o           o o o   o o o o o   o o o o o   o X O X X o X X X o o X X X X X o X X & X X X ; ; & X X ; & & # O ; - & - ; ; - - - - ; & * - = & & - = = = & - = = q = - = q 4 q - - q q e q = = r q w = = r r e r 2 2 e e e q 2 r a z =.B.JXJX>X                                        % B F S A b b 9 9 5 % % 5 9 m A I.E.!.!.!.!.Q.!.!.!.!.!.!.!.!.!.!.!.!.!.!.!.!.!.!.!.!.!.!.!.!.(.~.U.I.F A B B V D S S I.U.U.S 5                                         ,XJXKXB.=.9.9.9.9.9.9.9.9.9.9.9.9.9.9.9.9.9.9.<.f.vXJXJXqXS.g.3.-.$.$.' s # - s 4 4 = & - 2 = = & & * = = & ; & = - - ; X & - & & ; ; & & & X O ; & ; ; X o ; & ; X X X X X O o o X X X o     o O X     o o o o   o o o o     o o o o       o         o   o       o                                   X ",
"X                                                     o o     o o   o     o o o o o o o o o o o o o X o o o X o X o o X o X X o o X X X X X X X ; X X X ; ; & ; O ; & ; ; ; ; & - & - ; # - - - - & & 2 = = - - = 2 = = - = = q q = - s 4 q q 7 q q q q q = q q r r q 2 q e r e 7 r e e e q 2 ..>.L.JXJX|.                                          5 A U.(.].`.(.(.Q.!.Q.~.~.W.W.~.!.!.!.!.!.!.!.!.!.!.!.!.!.!.!.!.!.!.!.!.!.!.!.!.!.!.!.!.!.!.!.(.!.(.(.`.`.`.].].(.U.D %                                           ^ JXHX2X-.9.-.<.q.9.9.9.9.9.9.9.9.9.q.9.9.9.q.9.9.<.a.3XvXJXJXJXbX4XG.D.M.#.f 2 4 - = = = 2 - & = = - - - & = - - & ; - - - & ; & & & # & ; & & ; ; X X ; ; ; X X X X X X o o X X X X o o X o X     o X X o o o o o o o   o o o     o   o o     o o         o                                           & ",
"&                                 o       o               o     o   o o   o o   o o o o o o o o o o o X o o o o X o X o X X X X X X ; X & X X & X & X ; O & ; & ; ; & & - & ; & & & - & & - - - & - - = - = * - = = = = - - q = q = = = q 7 q , = q q q 7 q q r q w q q e r e e r r e e a r w w  .>.3XJXJX~                                               % b I.Q.].`.).!.!.!.(.!.!.!.!.!.!.!.!.!.!.!.!.!.!.!.!.!.!.!.!.!.!.!.!.!.!.!.!.!.!.!.!.!.!.!.!.(.'.`.!.U.B %                                               ~ JXJX4X=.4XlXR.N.i.<.=.=.<.8.9.9.9.9.9.9.9.9.9.9.8.9.<.=.i.N.F.4XqXlXcXJXGXV.{ 6 4 = = 4 = = = - = = = * - - * & - & - & * & * ; ; - & & ; O ; & ; & + O ; ; ; O X X ; X X X X X X X X X o X X X o X o X   X o o O o o o o o o o o o   o o o         o       o     o                                     X ",
"X                                                         o   o       o o o     o o o o o o o o o o X X X X   o o X X X X o X + X X X o ; ; ; X X + ; & # X X & & & & ; ; - & - ; ; - * - - & & 2 = = - & * = = = - - 4 q q = - = q q q = = q q r q = 4 e q e q q q e e r q q e e e r q r u a y t #.4.qXJXJXP                         V F V 5 @                 3 V I.W.`.`.(.(.Q.!.!.!.!.!.!.!.!.!.!.!.!.!.!.!.!.!.!.!.!.!.!.Q.Q.!.!.!.!.!.!.!.(.(.`.`.Q.I.B 3                                                   P JXJXqX*.j.cXJXJXJXAX0X3XS.N.f.i.9.<.=.*.=.=.1.=.=.1.1.<.=.=.%.%.%.%.%.=.8XJX3X} - = q q = - = = 2 = - & = = 2 - & & - - - ; ; - - & & ; ; & & & ; X X & & X X X & X & X X X X X X X o X X X o X X X o X     o o X X   o o o o o   o o o o     o           o   o           o                               & ",
"&                                           o     o o   o     o   o o o   o o o o o o o o o o   o o o X   X X X X X o o X X o X X ; ; O X X O ; O ; ; O & ; ; ; X ; & & & & ; & & - - & & - * - - & - = = = - = = = = 2 = = = q q 4 = q 2 q q 4 7 q q q q 4 q e r e q q e e e e q e e e a r r a w z <.p.vXJXFXI                         B ~.`.Q.U.F B 0 % o           . n F E.(.).(.!.!.!.!.!.!.!.!.!.!.!.!.!.!.!.!.!.!.!.!.!.!.!.!.!.!.).(.`.).(.E.P.b %                                                       L FXHXvXi.4.q.p.V.3XzXGXJXHXJXJXHXLXxX0X8X3X2XG.S.Z.B.V.V.V.V.Z.Z.G.R.3X8XkXGXbXg.' 2 4 - = = = = = - = = - = - - = - = - ; - - & & & ; & & & & ; ; & ; & X X & & X & X X X X X X X X X X X X o X X X X   X X X X o   o o o o o o o o o o   o   o     o o                                                     X ",
"&                                                   o           o   o o o o o o o o o o o o o o o o o o X   o X X o o X X X X X X X ; ; O X X ; ; ; O ; ; & # & & & & ; - & & & - - - & & - - = - - - = = = = - q = = = = , q 2 q = q q q q r 4 q r r r r q r e r e r w a e e e r e u e u e e a u y x #.f.vXJXSXJ                         o B U.].].`.`.Q.E.U.P.D B n 9 3 % 3 n F E.!.(.!.!.!.!.!.!.!.!.!.!.!.!.!.!.!.!.!.!.!.!.!.!.!.Q.E.I.S B 9 o     . 3 9 3                                               J SXJXvXg.8...x | #.,.3.g.C.G.3X9XqXzXcXAXKXHXJXJXJXKXJXGXGXZXAXcXxXzX0XwX9X5XS.p.#.< 2 q = = q = q - - = = = = & - = - * - - - - - - & & - & & & ; ; & & & X X & & X X X X & X & X X X X X X o o X X X o   X   o X     o o o o o o o o o o   o o o   o   o               o     o                               & ",
"X                                                 o       o o o   o o o o o o   o o o o o o O   O o o X X X X   o X X X X X X O X ; X o # ; ; ; X ; # & & O ; & & & & ; & - - - # & - - = * - & 2 = = = - = = q 2 - , q q q = = 4 r q r q = r r e q 7 q e e e q q e a a e q q u u u w r t p u u e w y x 2.d.xXJXFXP                             n U.(.`.(.(.(.`.(.`.`.`.!.Q.~.E.E.Q.!.Q.!.!.!.!.!.!.Q.!.!.!.!.!.!.!.!.!.!.!.!.!.Q.!.!.W.I.F A S P.I.U.U.I.S 0                 .                             I FXJXxXa.:.o.y y w t z X. .#.#.,.;.2.4.w.p.p.g.g.k.k.g.k.k.g.d.d.w.q.8.<.#.#.$.{ k r 2 = q q q = - = q = q - - = = = - & & = * * & & - * - & ; ; - - - ; O & & & X X X & & & X X X ; X X X o X X X X     X o X o X o X X X o o o o o o o o o o o o   o o     o   o   o                                           X ",
"X                                           o       o o o   o     o o o   o   o o o o o o o o o   X o o   X X   X X o o ; X X X X X X ; ; X ; ; ; ; ; ; & & & & ; # & - & & & - * - - & & = - * = - = = = = = = = 4 4 4 = = q q q 4 = q q q r 7 q r r w r q w e e e r w a a e a q a u a u e e u u u u 8 x 2.d.xXJXKXQ                               5 F ~.`.(.(.(.Q.Q.!.(.!.(.(.(.!.!.!.!.!.!.!.!.!.!.!.!.!.!.!.!.!.!.!.!.!.!.!.!.!.!.!.(.(.`.`.(.`.(.I.B 9 9 9 9 9 n n B F P.9                           E KXJXxXa.3.X.y e a p u y a 8 u u z x k x X.@.X.[ [ | | [ @.' @...x c c f f t r w 2 $ 7 q q q = = q 4 4 = = = = 2 = - - = = - - & - - - * & & - & & & ; & & ; & ; X & & X X X X & ; X X X X ; X X X X X o o X X X X o o o X   o o o o o o o o o o o   o o   o o         o   o                                       X ",
"&                                             o o         o     o o   o o o o o o o o o o X o o X X X   X o o X X X X X X X ; X X X & ; ; X X & ; ; O ; ; & & & & & - & - & & & - - - * - = = = = - - 4 = q = = q q q q q = q q r q q q r e r q q e e e w r r u e a r e u a u e e e u u p e e u u p u u y ..;.d.vXJXJX^                                 % B U.(.`.(.(.(.!.!.Q.(.!.!.!.!.!.!.!.!.!.!.!.!.!.!.!.!.!.!.!.!.!.!.!.!.!.!.!.!.(.!.!.!.(.Q.!.Q.(.(.(.(.(.(.`.`.].E.5                           / JXJXbXa.>.+.y y a u u u u e a u a w a w w y a y 8 8 w y 8 w 8 8 8 8 w 8 8 7 w w r q 4 q q q q q = q = q = = = 4 = = - - = = = * - - = - - & & - - - & & ; & & & ; & ; & & & X ; O X ; X X X X X X X o X X X X X   X X X o o X O o o o o o o o   o o o o o     o o o                                                 & ",
"X                                             o   o o     o o o   o o   o o o   o o o o o o o o X     X X o X X X X X ; X X X O & X X X ; ; & O O ; & & & ; ; & & - # ; # - - = & & - - = = - - = = q = = = 4 q q - - q q q q = q q q e 7 7 e e e e q q a e e r r e u a a r e u u u a e u p u p t a p i v y x 1.p.qXJXJXOX&                                   5 A U.Q.`.(.!.!.!.!.!.!.!.!.!.!.!.!.!.!.!.!.!.!.!.!.!.!.!.!.!.!.!.!.!.!.!.!.!.!.!.!.!.(.Q.!.(.(.Q.(.(.`.W.B                           X OXJXJX0Xd.2.X.y a z p i u a u p u u t e u u p e q r u u u w q e e e e q q w e e q 4 q w r r = - q r q = = = q = q * - 4 4 = = & - = - = & & - - - - ; & - & - ; ; & & & & X X & ; ; X X X ; X ; X X X X X o X o O X o   o o o o X     o o o o o o o o o     o   o         o o       o                                   & ",
"&                                   o     o     o     o   o   o o o o o o o o o o o o o o o X X o o X X X X X o X X o X X X ; X X X X ; ; ; ; ; & ; & ; & & & & ; & - - - - & - - - = * - = = = = - = 4 = = = = q 2 q q = q r q q q 7 r r r r q q e e e e q e e e u e e u t u u e u u u u u t p p u i a p p y x 1.4.3XJXJXaXa                                       3 D U.(.`.(.(.!.!.!.!.!.!.!.Q.!.!.!.!.Q.!.!.!.!.!.!.!.!.!.!.!.!.!.!.!.!.!.!.!.!.!.!.!.!.Q.(.`.Q.A %                           a sXJXJX3X<.2.x p p i p a u u u u u e p u u u e e u u u e r e e e a w r a w e w q q r r r q 4 r q q q = = q 4 q 4 = q = , 4 = = = * = = & - * - * & & & & * & ; & & & & X X & & X & X ; X & X X X ; O X X X o X X X o o o X o O o o o o o o o o o o o o o o o o o   o o   o o                                               & ",
"&                                     o   o   o o   o   o o       o o   o o o o o o o o o O X   o X X X o X X X X X X X ; X ; X X ; ; ; & X X & & & & X & & & & & & - * - & - - * * = - - = = = = = = q = q = = q q q q 2 q r q r q q r e e e q r a e a e r e u a u e e u u p u a u i u p u u p p i u u u C i v z 0.;.G.GXJXBXQ                                         @ 9 B I.~.!.!.!.!.!.!.!.!.!.!.!.!.!.!.!.!.!.!.!.!.!.!.!.!.!.!.!.!.).Q.!.!.(.Q.!.).`.`.W.A %                             E BXJXKXS.:.8.x y C i i p u u i p i u u p p p u u t u u p e e e u a a r r u e e r r q e w e q q w r r q q 2 r q q = = = q q q - - q = = = - - = - * & & - - - & & & - & & & ; ; & & & X X & & ; X X X ; X X X X X X X X o o X X o o X X   X X     o X X   o o o   o o     o o     o                                           ; ",
"&                                               o   o     o o o o   o o o o o o o O o o o o X X O o o X X X X X X X X X X X X ; & O X X X & & & X ; - & - & & & - - & & - - - = - - = = q = - = q = q = = 4 q q q = 2 r r e q 2 q e w a q q e a a e r r u u p e r u u p u e e p u i u e p v i C u u z _ C v u p C z 7.,.N.cXJXJXOX&                                     % P.U.I.U.!.!.!.!.!.!.!.!.!.!.!.!.!.!.!.!.!.!.!.!.!.!.!.!.!.!.!.!.Q.!.!.!.!.Q.~.U.S 0           @                   X $XJXJXcXN.,.6.x Z _ M u u i _ _ p a p i i i e a u p p u e t u u p e r a u u a q r y e y r 4 r e w e 2 2 w q e q = = q r q = & = q 2 = & - 2 = = - & - = = - & & - - - & & & & & & X X & & & X X ; ; ; ; X X O ; X ; o X X X X o o X X   X X     X o o     o o o   o o o o o     o   o       o o                                 & ",
"X                                           o o   o o   o   o   o o o   o o o o o o o o X   o X X o X o o o X X X X X ; X X O ; X & & ; & X X & & & & X - & & & & & - - - - - * - = = - - = = = = = = q = q q 4 r q q r q q r e e r w e w e e w t a a a a e a u u u u a p u p p u u p p p u u z i p C p i z i G G p G O.:.p.9XKXJXfXP                     % B A B n 5 3 o % S Q.(.!.!.!.!.!.!.!.!.!.!.!.!.!.!.!.!.!.!.!.Q.!.!.!.!.!.!.!.!.Q.!.!.!.!.U.F B b b b B A P.F 0                 L dXJXJX9Xa.;.+.N Z C i M i M z u p i v p u u p u i u a p u u u u e u u a u e e a e e e r e e e e r q r q r r q q q q q q = q q = q = = = = = = - = = - = & * * - - & & & & & & & & & & & & X ; & ; ; O ; ; ; ; X X X X X X X o X X X X     X     X   X   X   o o o o o     o o   o o o     o                                       ; ",
"&                                 o       o   o o     o o o     o o o o o o o o o o o o X X X   o X X X X X X X X X X X ; ; ; X X X & ; X & & & & & & & & & - & & * - * * - - - = = = = - q = q 2 = = q q r = 4 q q r r q q e r e q q r a t a r e u a u t a a p u u e u p p z u u u C C z p u i G _ C p p G G G M i C C x 0.,.B.CXJXJX,Xe                   % B E.`.].(.W.U.F ^.).!.!.!.!.!.!.!.!.!.!.!.!.!.!.!.!.!.!.!.!.!.!.!.!.!.!.!.!.(.Q.!.!.!.(.(.`.`.].].`.E.B @               e ,XJXJXcXB.,.1.o.C C G z i _ G _ v i p _ z _ p p i i i i u y z u p u e u u u u e e u u u e e r u e e r q e e e r q q q q q q 4 q q q = = = q 4 s = = = 2 = = - - - = - * & & - & & & & & & & & X X & ; ; X X O ; ; X X X X X X X X o X X X o X X X X   X   X   X o   o o o o   o o     o   o o     o   o                               & ",
"&                                     o   o     o o o   o o o o   o o o o o o     X o X     o X X X o X X X X X X ; X ; X X + ; & X X & & & & & & & & & - & & & - * - & - = = = - - = = q = - = q q q = = q q r q q 4 w w e r q r a e a r r a u u a r e p u u t e u i i p u u i z M p u v C C G u u G G G i p M J G J v Z U +.,.d.4XJXJXFX|.*                     5 A U.(.`.].(.!.!.!.!.!.!.!.!.!.!.!.!.!.!.!.!.!.!.!.!.!.!.!.!.!.!.(.Q.!.Q.Q.(.Q.!.).`.`.`.W.S 5                 * |.BXJXJX9Xa.5.u.N J _ p G G G G p p J G G i u i _ _ i u u i i M u a u i p p e e u u u u r r u u u r q e u a e q = e q e q = q r q q = = q q r = = = = = = = - = = = = # & - - - & ; & - & & X X & & & O X ; & ; ; X X ; X ; X X o X X X o X X X     o o O o o X o o o o o     o o   o       o o       o           o                       ; ",
"X                               o       o   o o       o   o   o o o o o o o     X o o   X X X X o X X X X X ; X X X X X ; X O ; X & X ; & X & & & - & & - & & - & - - - - - - = = * = = - q 4 2 q = q q q q q 2 q q r r q q r e e e r a e t a e a a u a u a u u u p u u p p p p p C i p z i p _ z G G i G G G G G G G J G J C ..<.,.V.zXJXJXNX~ o                     o 5 B F E.Q.(.(.!.!.!.!.!.!.!.!.!.!.!.!.!.!.!.!.!.!.!.!.!.!.!.Q.!.!.).!.Q.Q.Q.E.I.D 5                   o W gXJXJXlXB.;.1.o.G v G G G G _ _ G _ G M i M M i M i p z i p i u p i u i u a p u u u u u u a a a r e a e e r r e r e e q q r q q q 2 q q = q = = = = = = = = = = = - - * - - - & - - & & & & & & & & X & & ; ; ; X ; X ; O X X X X X X X X X o X X X X o o o o X   o   o o o o o o   o   o o o o o o   o       o                             ; ",
"&                               o   o     o o   o   o o   o o o o o o o o o o O o   o X X X X   X X X X X X X X ; O X X ; ; ; X ; & O & & & X - & & & & & - - * - - = * = = = = = = 2 - = q 4 q 4 = 4 q q r q q r e e e q q a e a r r e y a u r a u u p u u u i p i u u i i z i p i G i G i p G C G G i z J G G i i z C M _ i v U X.=.e.G.bXJXJXfX~                       5 B B B S U.~.!.!.!.!.!.!.!.!.!.!.!.!.Q.!.!.!.!.!.!.!.!.!.!.!.Q.).Q.E.U.P.D b m D S V %           W jXJXJXxXG.w.:.+.z C i p i G _ G i i G G G _ i M J _ G i i C C M M p p i i z u u u i u p u u u u u a e e u a a e r e e e e q q e e r q q q q q q = q q = q = = = 4 2 = = - = - - - & & - - - & & & & & & & ; & ; ; ; ; O ; X ; X X ; O X X . X X X X   X X X o o o   X   X o o o o o o o o o   o       o         o   o           o               ; ",
"&                           o           o     o o       o o o o o o o o o o o o o X o X X o o X X o X X X X X X X ; ; ; X O ; ; & & ; ; & & & & & & & - - & & - - = - - - = = 2 = - q q q 2 , = r q r q = q r e r q q e e a e q e u u u e e u p i u t a i u i u a i C z v p p _ G G i p _ J G G v p C G C p u p G _ _ p p G G C v v z +.;.4.H.vXJXJX X                    @ B E.'.Q.~.Q.!.!.!.!.!.!.!.!.!.!.!.!.!.!.!.!.!.!.!.!.!.!.!.!.!.Q.).Q.!.Q.(.].].E.B o           .XJXJXvXG.q.,.t.x J p p G _ G p p i M z M u u _ M _ i p M G G G i p C _ G i u p C i i u a u p i u e e u u p e r e u a a q q e e e q q q e r r 4 4 q q r = = = q = q = - = = = = - * = = = & ; & - & & & & & & & & ; O ; ; ; ; X ; X ; X X X ; X O X o X X X X X o X o o X o o o o o o   o o   o     o o o o   o o                                   O ",
"X                             o   o     o   o     o o     o o o o o o o X   X   X o o X o o X o X X X X X X X X + O X O ; O ; ; X & ; & & ; & & & & & & - - - - - - = * = = = = = = q = = q = q q = q q q r q q w r e e r e e e a a r a u a u a u p u p u u i p p i p i z M M C p z C i i p u p i u i u p i p C p u z C p G p i z C Z C x  .4.p.2XHXJX X                        n I.~.(.(.Q.!.!.!.!.!.!.!.!.!.!.!.!.!.!.!.!.!.!.!.!.!.!.Q.(.!.!.!.(.`.E.n               .XJXJX2X9.>.6.o.Z y C i i _ p v i p v p p v p p i u u i u i u p i _ z C i i _ i i i u i i u p u u u u u u e u u u t e e a e e e r e e r w r 7 r q q q q q q q = q - 2 = = = - - = = - = - - - - & & & & & & & ; & ; ; & ; + ; ; ; ; X X ; X X X X X X X X o X X o o X o O o o o o o o   o o o   o     o o o o o         o                             X ",
"&                               o   o     o   o o   o o o o o   o o o     X   X X o X O X X X o X X X X X X ; X ; + X X ; & ; ; ; & & & & & & & & & - & - * - * - - = = 2 - - - q q = = = q r q q q q w r e q q e e e e w r u a u e a a p u p t a p p i u u u M i G u p C p i p u u p p p a u u p i u u p v i z i u p C C i p p G G G i v i x  .;.D.GXJX|.                3 V n 5 3 9 A U.!.!.!.!.!.!.!.!.!.!.!.!.!.!.!.!.!.!.!.!.!.!.!.Q.(.(.`.(.U.n                 Y.JXLXD.;.r.x C C p p C z _ i p p _ i M p p p i i u u u p p u u t u p i u u p i i z i i p C z i u u p i p u u e u u u e e u a a e r r e e e q q r r q q 7 = q q q = - = q q = - = = = = - * & = * - & & - - & & & ; & & & ; O ; ; ; ; X O X ; ; X X X X X o o o X X X o o X o o o o o o X o o o   o o o o     o       o                                 & ",
"&                             o   o   o o         o o   o o o o o     X X     X o X o o o X X X X X X X ; X ; X X ; ; & ; X O & & & ; & & & - & & & - * * & - = = = - - = q = q - = q q q q q 2 q q w q 7 r e e e q r e a u e e u u u u t a p u i u u u _ z M p u u u a a r e u u u e e u p p p u t p i u u u u i z C u p i z C p u p G C G p p ..2.m.vXJX;X=             . n S E.Q.(.!.Q.!.!.Q.!.!.!.!.!.!.!.!.!.!.!.!.!.!.!.!.!.!.!.(.(.`.W.F 9                 = ;XJXcXM.,.X.C p p z G M i p p i z C u u u z p p u u i p p u e u u p u e e a u u a w y u p i p u i i i p t u p u p a e a u u u e r a a a r q r e w e 7 q r r q 4 = q q q q - - = 2 q = - - = = = - & - * * - # & - & & & ; ; & & & ; X ; ; ; ; X X X O ; X o X X X X o X o X X   o o o o X   o o o o o     o o o o   o   o       o     o                   & ",
"&                       o   o       o     o   o   o o o o o o o   X X o   X X   o X o o X o X X X X X X X X X X O ; X & ; ; & ; & & ; & & & & & & * - & = - - - - - = = = = = = q = = q = q q q q q r r r w r q e e e a e e a e t u a u u u p u u i p p p p M i u e e e a a e t e e u u u e t u u u u u u p u u u u p p p p p p i i p i p p i p C x ;.f.CXJXfXp                 o 5 V F E.~.!.!.!.!.!.!.!.!.!.!.!.!.!.!.!.!.!.!.!.!.(.E.P.n o                   p fXJXAXf.>.X.p C p p i p p p i p i u u p p i u u u u u u a t u u a u e u e e u r e a e e e e p i i i p p p p u p u u p u u u e u t a a r e e e w e q r r w r 7 q q q q q - q q = q = - = = = = - = - - - - & & - & & & & & & & # O ; O & ; ; X X X X ; X X X X X X o X X o X o o X o o o o   X o o o o o o o     o     o     o o                             X ",
"X                 o           o o o     o   o   o o o o o o o   X X o o X o X X X o X X X X o X X X X X X X ; X ; ; ; X ; ; & ; X & & & & & & - - * - & - = * - - = = = = = = = q q q = = q r q q q q e r e r w t a a a e t u u u a u u p p p u u C i i p p i G G _ e e a e u e e e u u u e e u u p u e u p u u u u u p u u u u z v i p p p C z p y x 2.j.CXJXFXE                   5 9 n F ~.(.!.!.Q.(.!.!.(.Q.!.!.(.!.Q.!.!.!.!.!.E.D n 5 5 5 0 %           E FXJXnXj.2.o.p p i i i i u u i i i u u u i u p u u u u p u t a u u u e e a a u e e e e e e r p M _ _ _ p u C i v p y u p p u a e u u u a r e a a a r r w e r r q q r r w = = = q q q = = = 4 = - - - = - * & - - - & & & & - & & ; ; ; & & ; X ; ; # X X X X X X X X X X X o X X X X X o o o O o o o o o o o o     o o o           o                           & ",
"&                     o   o o         o   o     o o o   o o o o     X o   X   X   X X X o X X X X X X X X & X X ; ; ; & ; ; & & & & ; & & - * - & & - = = - - = = = = = = q = q = = q q w q 2 q r e e q q e a e a e r a a u a e u p u i u t i i M z u p G M G i p G a r e q r e e a e q e u e u r e u u u u e u u u p t u p u i u u u p p p p u i i Z x =.d.zXJXJX;Xq               b ~.].`.!.!.Q.!.Q.(.!.!.Q.Q.!.!.Q.Q.!.!.!.Q.!.!.(.(.].`.Q.F n o       q <XJXJXzXa.2...y v i i u u u i p p a u p u u u a u u u u a t u a u a e e a u a e q e e e e r r e G G i p _ M _ z u u z p i u a u p p u e r u a u e r e a e a q q w r r q = 7 r q q q = = = q = - - q = = * - - = * - & & * & & & ; ; & & & ; X & & X X X X ; X ; X o X X X X o   X X X   o o o o o   o o o o o o o o o o       o o       o                         X ",
"X                       o o   o   o o   o o o o o o o o o   o o o o o o   X X   X X X X o X X X X X X X X O ; ; O & ; ; O ; & ; & & & & & & - - - - * - = - = = = = = = = q q q 4 q q q q r q q r q r e e e t e a a a a a u u u u u u p p u i i p i M M M i G G _ G i w q r e e e e e e e e e e e e e e e a t u u a u u u u u u u u u u p u i u p u p y z 6.w.3XJXJXVXT.&             % A E.`.(.).!.(.(.!.(.(.(.!.(.(.(.!.(.(.(.).).(.E.A n %         * .XBXJXKX2Xw.#.x y u p u p u u p u u u u u u u u u a u a a a e a a e a t e e e w t e w e r e e q e p _ G _ i G M M _ i i i p i i u i u u u u a u a a a e e e e e e r e q r w q q q q q = q 4 = s q = = = = = = - * - - - - & - & & & & & & & & & X & & X ; ; ; O X X ; X X X X X X X X   o   X   o o O o o o o o o o o o   o   o o o o   o   o                         & ",
"&               o                 o     o o o o   o o o o o o o o o X o X   X X X o o X X X X X X X ; ; X ; ; ; ; X & ; & & & & & & & - & & & * - = & - - = = = = = q = q = = = q q q = 7 r r r w w r a e e e e a a u u t a p u p u u p C z M p p G _ _ v z M J J J G _ y q r r r q e e e q e e e u e e e u e a e e e u u u a a u u u u a u u u u u u u p u X.;.B.vXJXJXhXQ X             . n P.W.(.(.).).(.(.(.(.).(.`.`.(.!.E.P.B 5             & W PXJXJXbXV.;. .z y p p u a u p u u t a u u u a e t u a t e e a a a e e r a e e e r r e e e q q w r e q q q e e e r e u u p u u t u u a q r e a p u t e u a u r r w e e e q q r r r q 2 q q q 2 = = q = = = - - = = = & - - - - - & & - & & O ; ; & & & X & O ; ; X ; X ; X o X X X X X X X X X X X o     o o o o o o o o   o   o o             o                         & ",
";               o     o   o   o   o o   o o   o o o o o o o o o o X   o X X o X X o X X X X X X X X X ; ; ; ; X X ; & & O ; ; & & & & & - - * & - - * - = * - 4 4 7 4 = = q q r 4 = q r r r q q e e e e r e u u e e e u u u u u u i i i u u M M M M p i G G G G z J J H H i u r q r q q q e e r r w e w a e r e a a a e r a a a a e e u a u a e u u u u a a y x #.p.3XGXKXJXhX~ &               @ 9 B S I.I.U.E.U.I.P.S B 0 3                 = UXgXHXJXZX2Xw.#.x u u u e u u u u e e u a u a e e a a u e r e a e a w r e e e r q e e r w q q q r q q 7 q q q q = = 7 q = = - - , 7 4 = = q r w r r t u u u a r e u a a r r e e e r q q q q q q = = q q 4 = = 4 4 4 - - - = = * & & & * - & ; & & & & X X & & & X X X ; O ; X X X X X X X o X X X o o o X o O o   X   o   o o o o o     o   o o   o   o                       & ",
"&                       o   o         o   o o o o o o o o o o o   X X     X X X X   X X X X X X X X X O X ; ; O ; ; ; & ; # & & & & & & - & - - - * - - = = = = = , 4 = = q 2 q q q q q w q r r w r e e e e e e u e u u a u p u i u u i i i M i M M G M G G J G J J J J H H H H i u e r q q q q r r r r e r w e e r e e e a e e t a e a a a e a t a a a a t y w u @.;.k.qXJXJXJXNX$Xi                                                   o G @XBXJXJXGX9Xg.;.| z y e a a e a a e a e a a e e e e e e e r r e e r e r r r w q r r r r q q q q q q q q q q q q = q q = , 4 e u p p p p i i p i i p i p u u a u u a a a r a w w e r q w q q q q q q q q q = 4 = = 4 = = = * - - - - - - - & - & & & & & & & & & X & & X & X ; X X X X X X X X X X o X o o o o o o o o o o o o o   o   o   o o         o o o o                     O ",
";                             o o   o     o o o   o o o o o o o o o X o X   o X X   X X X X X X X ; X ; ; ; & ; & ; X & & & & & & & - - - & & = - = * - = = , = = = 4 q q = = q r q q q q w w e e r e u e u e e u u u u u u p p i u p i M M _ i M G G G G G G H H H G J H H L U H L L H G p a e q q q , 2 r r r r q r e e r r w e e e r r e a e a e r e e a a e w y z @.1.M.5XCXJXJXJXdXOXE e o                                 o u Q @XhXJXJXJXxX2Xg.=.[ z w a e e w e e e e e e e e e r e e e e e r r e e r r q q q r q 4 7 q q 4 4 , q q , q = = = = q - - = = = = * = q r e e q e a a a e e a u i u a a u u u e r a a e e r q e e r q q q q q q = = q 4 s = = = 4 - = - & - = - - & & - & - & X & - ; & X X & & X X X X X X X X X X X X X o X X o X o o X o o X     o o o o   o o o       o   o     o o o                 & ",
"&               o     o o   o     o   o o o     o o o o o     O X o o o X X o X X X X X X X X X ; X X ; ; ; ; X X & & & ; & & & - & & & - - * - - - = = = - * 4 4 s 4 = q q q q q q q r e r w r e e e e e a u u u e u p p i p u i i i G p z G G N G i M J G U G G H H U U J J L I L L H I P P P U G G _ u e r 7 q q q 2 7 q r r q q r e w e r s e e e e r w e e e e 7 w z ` -.d.G.0XKXJXJXJXFXfX;X/ I v r - & ; ; & = e G P |.<XgXHXJXJXJXZXwXD.w.-.[ z w w w r e e e e e r e r e e q w e r q q q q q q 4 4 4 q r r w a i G G i p u p u u e w a u e e r q e e e q q r e r r 4 4 q q r q , q q r r e u u i p u e a u u a e r e a e e q q e q r 4 = q q q q , = 4 4 4 4 - = 4 = = & & = - - & & & - & & X X & & & X X X & X & X X X X X X o o X X X o X o X o X o o   X X o o o o o o o   o o o       o                         ; ",
"-                 o     o   o     o   o o   o o   o o o o o o o X o o X o o X o X X X X O X X X X ; X & O ; & X ; ; & O & & & & & & & - * - - - - = = = , = = = = 4 = q q q q q q w r r r w e e e e e e u e u u u u u p u i i z i i i M M M M G G G G J H G H J J H H H L H L L L L L L L P L P P P E P E ) P L H G G i u u e r r q q 4 4 s 7 q q q w r w r r w e r e q w 8 t c $.<.g.G.0XZXJXJXKXJXJXJXHXBXVXNXNXBXSXHXJXJXJXKXJXKXvX9XD.d.;.$.k t 8 a q e w r w r r r q q q q q q 4 , 7 , q q q e t u u z G H U P P P ) P ) P P P P L I L L P L L U H H L J H J G H G J G G G G M G _ i _ i i _ u p p u u u u u u a a a t a e e e w r w q r q q q q q q , 4 4 = = = = = = - = * - - - & - - & & & & ; & & ; & & X & X X & X X X ; X X X X X X X o o X o o o o   X       X X   o o o o       o o     o       o               ; ",
"&                             o o   o   o o o o o o o o o o o o o X X o o o X X X o o X X ; X X ; ; ; X X ; & & & ; ; & & & & & & & * - - & - = = = - = = 4 4 4 4 4 q q q = q q r r w q r e e e e e e u u u e a p u i u u u i i G p p M M G G M M J J H G G J L L L H H L L L L U U P P P L L P P ) P P P E E E E E Q ( ( E ) P ) ) P K H G J _ i e r q q q q = = q q q q q r 8 8 f ` } 1.p.M.G.4X0XxXZXKXJXJXJXJXJXKXGXCXzXwX3XD.g.p.*.$.` f w 8 w q q q q q q 4 7 , q q e e p i G J H H L P P E E ) E Q ! W E P E E E P I P ) P P U L L P I L H J L L L J J G L H U _ G J J J C z v G G _ p p v i i p u t i u u t a a a a a r r e e e q q q e q q q = 4 q q 4 = = 4 = = = - = = = & - & * - - & & & & & & X ; & & X & X X & X X X X X X X X o X X X o X o o X X X   X X         o o o o o o     o     o           o         & ",
"&       o       o     o   o o     o o o o   o   o o o o o o O o X X o o O o o X X o X X X X X X ; O X & ; ; X ; X & & & & & & - - & & - = - * - * - = = 7 - = q s q s = q q r r q q r w e e r e e u u e e u u p u u u i i i p p i G C G M M G J N J G G H U H J G L L L L H L I I P L L P P ) E P P E E E E ) E Q W W E E W ( ( W Q W ~ ~ / ( ( ~ ~ ( E P L I U H _ p u u a e r w 7 8 7 < g k ' $.$.0.i.d.k.j.m.k.f.g.d.4.=.$.$.[ ` g f 7 7 7 r r q a u p i i G L L P P P Q ( ~ / ( Q ~ ~ ~ W W Q W W W E ) E Q E E P P E E E P P P P P P L L L P L L H U L H L J G H H H J z C J G G i i i M M i u u i p i u u u u u u a e a a e e q r e e e q q q q q q = = q s q = = = = = = - - * - * - & & & - & ; ; & & & & X & X & X X X ; X & X X X X X X o o X O X o o o X o         X o o     o o   o       o o                     ; ",
"X                             o o   o   o o o o o o o o o o X o o o X X o X X o X o X X X X X ; ; X X O ; ; & ; # & & & & & & & - - - & * - - = = = = 2 , 4 4 , 4 4 q 4 q q q q w r e w r e e e u e e u e u u u i u u i i i i i M i z G _ G G G J J J J H J L U H L U H L L L I L I P P P P P ) ) P E ) E E E E E E Q E Q W Q W W W ( ~ W ~ ~ W ~ ~ ~ / / ^ ^ / ^ ^ ^ ^ / ~ ~ W ! W E E E T I K K Y Y z.z.x.O.l.x.x.x.z.z.Y Y P K K R T E E E W ! ! ~ / ~ ^ ^ / ^ ^ / ^ / ~ ~ W ~ W ( ~ W Q W W W W Q Q Q Q E E E E E ) ) P E P P P P L P P L P L L L L L L H L H H H H J J J J J G G G _ _ i i i i i i p p p u u u t u t u a e e e w e e q r q q q q q q 4 q = ; ; ; - = = = = - - - - - - * & - & & & ; & ; & X & X & X & X & X X X X X X X X X X X o o o o X o   X X   X X   o o o o o   o   o     o       o               & ",
"&             o       o     o         o o     o o   o X o o o o X o X o o X X X X X X X X X X X X ; ; ; ; ; ; & & & ; ; @ # # @ % % & $ $ $ # 2 4 3 * $ 8 7 6 = * = q q r q q q r w e r r e a a e e e u u p u t p i i p p p G C G i i G J J J G G H H U J J H L L L H U P P P L L P ) ) ) P P ) E E E ) E ( Q W E E Q ( ( ! Q W ~ ~ ~ ( W ( / ~ ~ ~ ( / ^ ^ / ( ~ K.^ Y./ ^ Y.K..X^ ^ Y..X|.|.T.^ |.|. X.X|.|.XX X X.X.X|.XXXXXXc.XXXXXX|.|.^ ^ .XY.Y./ ~ ^ c.UX^ ~ ~ ^ / / ~ ( ~ ~ ~ ~ Q W ~ ~ ( W E W ( W ( E E W Q W P P P Q E E P I P ) P P U L P L L L H L L U H J _ H H H G _ _ J C J v i _ _ _ i u u i p p a a u u u a e e a e e r r r w e q q q q r = q P / E u & - = - 4 * - - - * - * & & & - & & & ; & ; & ; X ; ; ; ; X X O X X X   X X X o o o o O o o o X X     o   o o o o   o       o   o         o           & ",
"&       o                 o o o o   X     X     o o o o o X o X o o X X X X o X X X X X X X ; ; ; ; O ; & ; ; ; O & ; - f f f f f f f f f f f f f f f f f f f z f r q q w r q w r q w e a a e e u u u u u u i u p u u M i M M p M G G G M G J J H H J J H L L H H L I P P U L P P P P P ) E E E ) ) W E W E E Q W W ( Q Q W ~ ~ ~ W ( / ~ / ~ ~ / / / ^ ~ / ^ K.^ ^ ~ Y.K.^ K./ / |./.|.T.^ T.XXXXXXXX XXX$XOXOX X$X#XOX#X$X X$X$X$X$Xc.c.XXc.|.c.~ ^ Y.^ Y./ ~ / ^ ^ / ( ~ ^ / / ( W ~ ~ ~ ~ Q Q ! ! ~ Q E Q E Q Q ) E Q E E E I ) T P ) I L P P P I U L L L L U J L H L H G G H J J G z _ G G _ i p _ i i p u u p p u t e a u a a r e e e e r q q q q q X L fXPXhXVXBX/ & * = - - = * - & - & - & & & ; & ; & & ; O ; ; ; O ; ; ; X X X X X X X o o X X o o X o o X o o o X o o o o   o o o     o o     o   o               & ",
"-                       o     o   o     X     X o o o o o o o X o o X X X X X X X X X X ; X ; ; ; ; ; & ; & & ; & & + ` w.2.<.2.2.2.=.2.2.2.2.:.2.2.q.4.:.2.2.q.i.f 7 q q q w r r r e e e t e a a e u a u u u i i p v v i M _ z _ G G G G G H J H H H H L H I K L L L L P L P P P P P P E E ) E E E W E E W W Q W W ( ! W ~ ( ( ~ W ~ / ~ ^ ~ ~ ^ / / ^ / / K./ ^ K.Y.Y.Y.^ K.Y.c..Xc..X.XXX$X$X$X#X#X#X#X#X#X#XOXOXOX$X#X#XOX#XOXOX#XOXXX$X$XXXT.T.T.T.^ /.^ / Y.^ ^ ^ / / ^ ~ ^ ~ ~ / ~ ( ~ ( ( ( ( ( ( ( ( ( ( ( E E E E E Y E Y E ) Y P P P L P I L I L H L H U L H H H J J H G J _ G G C C _ _ i i p v i u p p u u u a u a t a e e e q e w r q q q * ^ NX( & o & P BX<X- - = - = - - - - - - & * & & & & & ; ; ; & ; ; O + ; X ; X X X X X X X X X X o X o o O o o o X     o o o o o   o o   o   o     o     o o         & ",
"&         o         o     o   o   o X   o     X o o o O o o o o o O o o o X X o X X X + O ; X ; ; ; ; ; ; O & & & + f 9.q.N.C.C.C.C.V.C.C.V.N.V.V.N.C.V.V.V.M.i.9.t 8 r r q w w a e a r e u a u u a u p u i u u v z z i i i G G G M G G H H H J J U U L H H L I P P U L P P ) P P P E E E ) ) E W W E E E ( ( ( Q W ( ~ ~ ~ ! ( / ^ ^ ~ ~ ~ Y.UXK.~ / K.K.K.K./ UX|.K.K.Y.Y.K. XXX XXXXX#XOX@XOX$XOX#XOX$X|.|. X X X|.|.|. X X X.X XOX#X@XOXOXOXOX$XXXT.c..X.X/.Y./ / c./.^ / ~ / ^ ^ / u.0.i.r.r.i.6.r.0.6.s.6.1.r.0.r.0.r.r.i.6.s.0.0.y.E P ) I L P P P L U L I L L J J U U H G G G H G J M z _ G _ i u p z i z u u u p u a t e u a a e e r e e w q & E BXu           e LX;XX = = = & - * - - & & - & - & ; & & & & ; + O ; ; ; X X X X X X X X X X o o X o X o o o o X   X   o o o o o   o o o o     o                     & ",
"#   o       o     o     o   o o o   o o   X     X   X o o O X o X o o X X X o X X X X X X X + O ; O O ; ; ; & ; ; - 7.>.S.JXJXJXKXJXJXJXJXJXJXJXJXJXJXJXJXJXAXd.0.t q s q e w 8 8 8 w w w w 8 y y y y y y y Z p Z y p Z C C C i C C C C C Z C K K J C R K K K C H R I P P U P E ) E ) P E ( E ( E E W W ~ W E W ~ ~ ~ W ! ~ ^ ~ ~ ( ~ Y.^ ^ / / UXK.K./.^ ^ K.K.|.K.Y./.|..XXXXXXXOX#X@X#XOXOXOX X X|./..X.X X.X/.|. X.X X|././..X.X.X|..X$X#X#X#XOXOX$X$XT.T.T.|.Y.K.^ / c././.c./ ! x.2.2.q.q.q.q.9.q.q.q.q.q.9.q.q.q.q.q.q.9.p.9.e.q.Y I P P ) P P I I P L I L H L K L H H J U H H G _ G J G G i p _ M _ i u i i u u a a u t u a e e e e e w q e q e NXE               i JXE X * - = * - - & - - & & & & & & ; ; & & ; ; ; X O ; ; X X X X X X X o X X X X   o o X X o o     o o o   o o o o       o                   o   O ",
"&         o           o o     o   o o   o o X     X   o o o   X o o X o o X X X X X X X ; O X ; ; ; & ; ; ; & & + @.e.i.ZXVX/.Y.T./.^ /./.|.^ /.T./.|.^ ^ mXZXi.6.t 4 q q w r c x c x x x x c x x x x x x x x x x x x x x x x Y x o.x o.x z.x h.z.x x h.x z.h.z.z.o.Y I P P P ) P E E ) E E E E Q Q W W W W W ( ~ ( ~ ~ ( ~ ~ ^ ^ / / ^ / Y.^ c.K.K./.K.K.UX.XK.|.K.K..XXXXXXX$XOX@X@X#X$X X.X.X.X X.X.X X.X.X X X/. X.X X.X X.X.X.X.X|..X.X|. X XoX#X&X#X#XT.T..XK.K.K.UX/.c./ UXUXc.8.=.4XAXAXAXAXAXAXAXCXAXAXAXAXAXAXAXcXvXCX4X8.9.h.Q T ) T I T R K K K K P L L L L L U H H U J H J G G G _ G G i _ i i p p u i u i u u u u a a e t e e e e r e - |.>X                   XNX= - = = = - - - * - - & & - & & & ; X & ; ; O ; ; X X ; X X X X X X X   X o X o o X o o o o o O o o o o o   o   o   o o o   o     o   o       & ",
"&           o             o   o   o o           o o   X X o X o X X X o X X X X X X X O ; ; X X ; ; ; ; ; ; & @ g q.=.9XJXH                               ,XZXp.6.s w q r 8 c w.;.;.>.,.,.,.<.:.>.,.,.,.:.:.,.>.,.>.>.e.q.e.;.,.8.>.;.,.e.,.,.,.:.,.,.,.2.,.3.e.3.u.L I E E E E P E W E E E E ( W ( W Q W ~ ~ ~ ! ( ~ ^ ^ ^ ~ ~ ^ Y.K.^ / UX|.K./.Y.UXK..X.XK./.K. XXXXXXXXX@X@X@XOX X.X X$X$X.X|. XoX XoX.X XoXoXoXoX X XoXoX X.X.X X X X.X|..X X X$X XOX&X#X#XXXK.K..X|.|.^ ^ UXc.u.5.G.JX,X=X=X=X&X;X=X=X=X=X;X&X=X=X#XhXJXZXf.4.r.z.z.z.z.z.h.z.z.z.z.z.Y L I I L H H L L H H H J U H J _ _ G G G _ i i _ i i u u u p p u u a u a u e e e e e q e gXp                   ; fX~ X = - - = * - & & - - & & & ; & & & O ; ; & ; ; X X ; X X X X X X X X   X X o X o o o o X o o o o o o o     o o o       o       o           & ",
";                 o   o o     o o   o o X   X X   X X o   X o X o o o X X o X X X X + ; X X ; ; ; O ; ; & & & O 6.;.D.KX$X                                >XAXi.6.r q q 8 z 0.8.D.G.S.G.G.G.G.G.S.G.G.G.G.G.S.G.G.G.G.Z.8.i.S.G.G.G.G.G.R.G.G.G.G.G.G.G.R.R.j.2.i.Y P ) P P P E E E E ) W W W ( Q Q ( ( ~ ~ W ~ ~ ~ ^ ~ ~ ^ ^ ^ ^ / ^ K./.K.K.UX|.K.K..XUXK. X.X.XXXXXOX@X1X@X$X X X X X X.X X$X$XoX XoXoX+X+X+XoXoXoXoX+XoXoXoX+XoX+X X X$X X X.XT..X XXX#XOXOX#XOX%XXXK./..X|./.x.2.f.GXpX                            X fXKXN.%.<.<.2.2.8.:.:.=.>.>.>.:.<.1.r.o.U I L L H H H H H H J G J H G G i i _ _ _ i p i i i p u u u u u a e e a a e r r = |.aX                    o E hX- = = = * & - - - & & & - & & & ; ; & & ; O ; ; ; ; X X X X X X X X X X o X X o o O o o o o o o o o o o o o o   o o   o                 o   & ",
"& o         o             o   o     o o o o o o o o o X     X X X o o X X X X X X X ; X X ; O ; ; ; # O ; & @ ` 3.a.AXVX&                                 aXcXi.6.r q r q  .>.N.JXJXHXJXJXJXJXJXJXJXJXJXJXJXJXJXJXJXJXS.%.4XJXJXJXJXJXJXJXJXJXJXJXJXJXJXJXcXi.3.o.R P ) ) ) ) E E Q E E W W W W W W ~ W ~ ~ ~ ~ / ~ ^ ~ ^ ^ ^ ^ ^ ^ Y.K.Y.K./.K..XK..X.X|.|. XXXXXXX#X#X1X#X$X X X$X X$X X X$XoX+X*XoXoXoXoX&XoXoX+X+XoX*XoXoX*XoXoX+XoXoXoXoX X XT. X X.X X XoX#X#XOXXXXX X.X/.v.4.;.wXHXe                             @XJX7Xf.m.m.m.m.m.m.m.m.m.m.m.m.m.f.q.,.2.0.h.K L L H H L H U J G H J J J z C G z C C C p p u i u u p u u e e e u e u r r q hX~                       - BXP ; = - - - * - - - & & - & & & # ; & ; & ; ; ; O X ; X X O X X X X o X o X X o X   X o X   X o o o o o   o   o   o o                 o     ; ",
"&               o   o o o   o o o o     o X o o o o o X X X X   X o X o O o X X X X X ; ; ; ; X ; ; & ; & . f q.=.8XJXE                                 o gXcXw.6.s w 8 x 3.9.xXBX|.c.! E E E E E E E E E E E P aXJX8X%.B.KXJX.XT E E E E E E E E E E BXJXN.>.u.) T I P E E E E E T Q W ( E Q W ( ~ ~ W ( ~ / ~ ~ ( / ^ ^ ^ / / K.K.K.Y.UXK..X.X.XK.K..X X X%XK.$X1X1X1X$X X$X$X$X$X X XOX+X*XoXoXoX&X*X&XoXoX*X*X&XoXoXoX&X+X+XoX$X+X+X*XoXoXoX*XoXoX XT. X XoXOXOX#X@XXXXX.X|.u.-.D.JX/                             i KXJXKXHXJXKXHXJXKXHXHXKXJXJXKXHXJXJXcX9Xm.=.4.O.K L I L H J J H H H C z J J J G i i C z C p u p z v p a e u u u e e e e q L BXr                         <X<XO * - = = - & - - - & & & # & & & ; X O ; ; & X X # ; ; X X X X X X o X X X   X X   X   X   o o o o   o o     o     o o   o   o           & ",
"O       o         o   o   o   o   o o o o o o o o o o o   X o X X o o X X X X X X O X X X ; ; ; O & ; & ; & 6.2.G.JX@X                                  o hXvXw.7.q 8 z 9.=.9XJXL                             e SXcXi.9.cXJX X                      Q HX2X-.q.Y I ) ) ) E ) E E T ! Q T Q W ~ W W W ~ ~ / ~ ~ ~ ^ ^ ^ / ^ K.Y.K./.UXK..X|..X|./..X.X X X.XXXOX#X1X1XOX$X X$X$X X XOXOX$X$X$XoX#X+X&X+XoX&X+X&X&XoX&X&X&X&XoXoX*X&X*X&XoXoXoXoXOXoXT.$XoXoX XoXT. X X#X@XOX$X+Xx.;.f.ZXsX                            X fXJXNX~ J J J J J J J J J J J J H T ^ ,XDXJX4X1.3.o.K H H L U L J G H J H G M M G G C z p i i i i p u p u u u a t u u e e - ;X>X                          H BXa - = - - - * - - & & & & & & & & & # & O X ; ; ; X X ; X X X X X X o X o o X   X X X     X o o o   o o o o o o o     o                   & ",
"&                       o         o   o o o o o o o o O X X X   o X X X X X X o X X X ; X O ; ; & X ; ; # ' 3.a.GXPX-                                   . hXxXq.7.q 7 | ;.Z.JX,X                              sXJXV.&.6XJXaXo                     p HXvX4.4.h.R I T T T T T T Q Q Q Q ! W ( W ~ ~ W ~ ~ ~ ~ ~ / ^ / Y.^ ^ ^ Y.K.K.K./..XK..X|..X.X X.X XXXXX#X1X1X#XXX$X$X$X$XoX$XoXoXOXoX*X*X*X*X-X*X*X*X-X-X=X*X-X*X*X&X*XoX&XoX&X*X*X*X+XoXoX$X$X X$XT.oX XT.$X X X$X#X&Xv.1.<.zXHXp                             @XJX@X=                                   = ;XJX9X;.s.L L L L H U H H J H J J G G G G C C i i i p i u u p u u u u a e e u q q fX~                           o mX( X = = = * - - * & & - - & & & O & ; ; ; ; ; ; O X X X X X X o X X o X o X o X X   X o X   o o o o o   o o o   o   o         o o         & ",
"&       o           o             o       o o o o o o X o   X X o X X o o X X X ; X X ; ; ; X ; X & & @ g q.=.9XJXH                                     o gXxXq.7.6 c e.p.AXBXe                             ^ JX9X&.m.GXFXu                     o fXJXB.:.6.Y Y z.Y z.Y z.Y z.c.z.Y c.z.( Q W ! ~ ~ ~ ( ~ c.^ ^ ! / ^ K./././ /..X.X X/.K.|. X X X.X.XXX%X#X@X@XOXOX$X#X$X$X$X%XT.%XT.%X#X%X%X%XXX%X%X%X%XXXXX%X%X%XT.%X*X&X&X&X&X&X&X&X&X+XoXoX*X+XoXT.$X$X$XoX X X.X X+X+Xs.5.R.JX|.                            I fXH                                           yXJXC.:.z.K L H J J U H H G G J H J G i i G _ _ p p p i i u u u u u u a e e r H FXe                             ;X<XX * = = - * & & - - - & # & & - ; ; ; & & # O X # ; ; X X X X X o o o o X X o X X   X X   o o o o o   o o     o   o           o   o     ; ",
"&               o     o                         X o o o X X X   X o X X X X X X ; X O X X X ; ; & ; X & 6.,.D.KX@X                                      o gXzX<.7.t 0.:.9XJX(                             u HXZXi.1.lXJX~                       OXJX5X%.8.8.2.>.8.<.=.2.1.4.<.=.<.2.:.0.( ! ( ~ ( ( / ~ / / ~ ^ UX/ Y.^ ^ /././.K./.|.oX X X.X|. X$XXX#X#X@X@X#X$X$X X$XOXoXn.4.8.8.e.8.8.8.8.8.8.8.8.8.8.9.=.8.i.p.w.b.=X&X*X&X&X&X&XoX+X&X&X+X*XoX+X+XoXoXoXT.$X$X$X X/.x.2.f.KXpX                            o P &                                             Q JXG.;.O.K H I L L H J H H H H _ G G G G _ i i i i i u u i u u u e a u a a = / gX                              P gXq - = - * - - - & & & & - & ; ; & & ; ; X ; ; ; X X X ; X X X X X X X X o o X o o X     X o o o o o o     o o o o       o               - ",
"&                 o o       L pX,XXXP u -               o   X X X X X X X X X X X ; X ; ; ; ; O X # . ' 3.f.ZXmX&                                         hXlX4.7. .>.Z.JX<X                            ; fXJXS.&.3XJXyX                      G JXxX1.a.j.j.M.j.j.j.j.M.k.j.j.j.j.j.q.r.( ( W / ! ! ~ ! / ! / UX/./././././././././././..X X X X$X%X$X#X@X@X#X XOX$X$X$X*Xb.1.4.k.j.j.k.k.j.j.j.k.j.k.j.j.k.k.j.9.e.l.-X<X<X*X=X&X=X-X&X+X&X&X&X+X+X+X&X+X&X$X$XOX$X$XoXv.1.<.kXBXq                                                                               E JX3X,.o.K L I H L H J H H H H G _ J G G _ i z C i i i u i u u u u u u e a q >X;X                              = BXJ & = - - - - * - & - & & & & & & ; O X # ; O X & X X O X X o X X X o o X X X o X   X X   o o o o o   o o   o o     o           o       ; ",
"&           o       o     ~ KX@X@XjXVXLXBXjX<X.XP u = o           o o o o X X o X X X ; X ; ; ; & @ g q.<.0XJXI                                         ; VXkX4.9.8.9.CXBX7                             OXJX8X%.N.KXBXe                     & gXKXf.i.CXJXJXJXJXJXJXJXJXJXJXJXJXJXlXq.i.( W Q c.b.c.c.z.c.c.b.b.b.z.c.b.b.b.b.b.v.v.v.b.c.XX#XXX%X#X#X;X1X#X$X X$X#X#XoXXXs.%.L.JXJXJXJXJXJXJXJXJXJXJXJXJXKXJX6X<.8.b.R.T.T.%XT.T.%X@X=X-X&X+X*X&X&X&XoXoX&X*X+XoX X X Xs.%.2XJXQ                                                                                 ;XJXG.,.z.K P H H H L L H J H J J J G v M C C C p p p i p p u u u u u e e r u gX(                                 jXT.X = = = - & - - & # # # # # # # . # # @ # . . ; . + X . X X X O X o X X o o o o o   X X   o o o o     o   o o   o   o   o             # ",
"&                 o     u KXL       & e P |.<XaXBXFXBXgX,X#X( L e - X           o o X X X X ; & . - r.;.G.JX;X                                          - SX0X<.q.=.9XJXE                             u KXZXa.<.xXJXL                       @XJX2X&.qXJX;X@X@X@X&X@X1X1X@X@X@X1XSXxXq.r.( ! ( r.=.:.2.:.=.:.:.*.;.=.:.:.=.;.;.=.<.4.4.i.XXXXXXOX@X@X@X@X$X XoXoXOXOX$X+Xn.5.j.GXgX@X@X@X@X@X1X@X@X@X@X#X>XJXrX1.=.=.=.*.=.=.<.<.8.8.i.n.XX=X=X=X&XoX&X#X&X#X$XoXoXoX@Xb.,.m.GXaX                                                                                , SXKXj.<.Y K K K L U U U U U z U z U z U z z z z N z z z u p y y y u a u a e _ LXi                                 @X,XX = - - * - # # - 1 , 1 , 1 1 1 1 1 : : 1 : : 1 : : & ; X o   . X o X o X o X o o o o o o o o o   o o o o o   o   o       o       o   - ",
"&               o   o   W aX                    & u L ~ ;XpXgXBXFXNXfX>X1X^ P G e - ; o         . ' 3.a.ZXVX-                                           & SXqX<.*.B.JXpX                              pXJXS.%.G.JXVXE E E ) E E P E E E P .XJXvX-.S.JX@X                        hXxX4.r.( ! l.2.s.m.m.m.m.m.m.m.m.j.m.m.m.m.m.m.f.1.<.v.+X#X=X=X=X=X+XoXoXoX+X+X*XoX-Xv.4.<.kXHXp                       ;XJX6XN.V.V.N.j.j.k.j.a.f.p.1.5.q.v.=X=X&X+X&X&X+X#XoXOXOXoXK.1.3.lXJXu                                                                                 OXJX4X;.u.L U o.+.7.6.0.1.2.9.0.q.0.4.9.8.9.i.0.0.i.9.0.r.6.7.[ c z y a u u w L mX#                                 W gX* - - $ $ < l } $.0.8.0.0.0.0.6.0.0.0.0.0.6.0.0.0.0.6.#.} ] d O o o X o o X o o o X o o o o o o o o   o o   o o o   o                 O ",
"&             o   o     E gX                                X - u G P |.;X>XjXNXVXgXjXaX>X1Xc.T x e.<.wXJXJ                                             & DXwX-.a.AXFXe                             |.JX9X%.j.GXJXJXJXJXJXJXJXJXJXJXJXJXJXJXKXj.f.GXfX;                       # VXlX4.r.W z.2.i.cXKXHXKXJXJXJXJXJXJXHXHXJXKXJXLXm.2.i.x.b.J.J.J.J.x.x.J.J.x.J.b.b.J.b.s.5.6XJX X                      ~ JXJXJXJXKXJXJXJXJXJXJXJXKXZXkXD.:.:.J.-X&X&X&X&XoX&X-X&X*X Xu.,.3XJX!                             P sXsXpXsXsXpXsXpXpXaXL                             p HXxX9.4.t.7.1.g.G.9XkXxXvXxXvXvXxXvXvXvXvXvXvXxXvXvXvXxXvXlXqX2Xk.1.X.z w a 7 /.pXO O O O o O O O O O o o O O O O O z gXt ; , ` $.f.S.4XzXxXxXvXvXvXxXvXxXvXvXxXvXvXvXvXvXvXxXxX0X3XC.6.l X . o o O o o o o o o o o o o o o o o   o       o               o   & ",
";               o       q BXH                                                 - t H E K.;X>XfXjXp.5.S.JXOX                                              & DX8X%.qXJXQ                             i JXZXi.=.zXHX<X#X@X@X@X@X@X@X@X1X@X@XBXJX6X%.zXHXi                         - DXlX4.u.c.9.;.3XJX<X&X1X1X&X@X.XY.|./.|./ gXJX5X=.<.=.;.;.5.5.,.*.5.;.-.5.5.5.5.5.2.4.*.N.JXfXo                     o ! /.c.^ /.Y./.Y.T.T./.Y.$X;XfXHXJX4X8.=.v.-X&X&X&X&X&XoX+X-XJ.,.m.JX,X                            = BXJXJXJXJXJXJXJXJXJXNX&                           X sXJXN.=.<.9.S.kXJXJXHXVXdXyXyXyX>XyXyX>XyXtXyXyX>XtXtXtXyXtXaXmXJXJXwXd.#.z w w c.j.-.-.#.$.-.-.#.$.#.$.-.-.$.-.#.-.#.7.a.7.` $.V.qXJXJXJXBXmXyX>XyXyX>XyXtXyXyX>XyXyX>XyX>XyX>XyXgXSXJXxXM.} O   o o o o o   o           o   o o o o o o o   o   o     o       & ",
"-             o   o       $XgXo                                                               ' 3.f.ZXVX&                                               - SX4Xm.JX>Xo                           X fXJXF.%.G.JXpX                      e FXbX*.D.JX X                          & SXzX1.r.u.:.m.JX:X                      q BXcXi.1.D.F.F.F.F.F.F.F.F.F.F.F.F.F.F.F.m.<.4.bXHXi                                                       p ,XJXR.:.s.&X&X&X&X&X@XoX+Xv.8.<.lXBXq                             <XJXwXf.m.j.m.m.f.3XJXL                             ^ JX3X%.*.Z.cXJXmX#XH q X                                       o e /.HXvXp. .y w +.2.p.V.C.V.V.V.C.C.C.V.V.C.V.V.V.N.C.q.4.=.M.kXJXHX:XQ u &                                       o - L yXZXM.}   o     o o X X ; & , - -     o   o   o     o     o             ; ",
"&                 o o     O VX^                                                             d 8.<.qXJXP                                                 - SX0XxXSXa                             .XJX0X-.j.GXFXp                     o aXKXj.i.ZXfXo                           & SXkX<.9.8.9.xXFXq                       sXJXB.&.H.HXJXHXJXHXHXHXHXHXHXHXHXHXHXJXnXa.%.G.JX X                                                          & SXcX8.s.&X&X&X&X+X+X=X#Xy.5.6XJXQ                             H JXnXa.;.2.1.1.*.a.GX@X                            p HXcX<.8.9XJXhXT ;                                                     H HX6X>.c x q.=.8XJXJXJXJXJXJXJXJXJXJXJXJXJXJXJX3X1.<.2XJXHX@Xw                                                     o gXqX5.v.yX>XpXpXjXjXaXfXgXgXPXgX-     o   o o o o   o                 # ",
";               o           J BX=                                                         O 6.>.R.JXOX                                                  q FXJXJXE                             p JXAXa.1.lXJXW                       OXJXG.%.0XHXu                             - SXkX8.9.*.4XJX~                       / JX3X-.a.AXJX~ q e e e e u e e e u q sXJXN.%.m.GXpXo                                                             fXZXi.i.@X&X&X&X+X&X-Xb.>.B.JX>X                            q NXKXN.>.7.> ' e.4.xXhX#                           & hXJXN.a.vXJX.Xo                                                           mX0X4.6.0.;.G.JXpXE E E E E E E E E E P ;XJXzX<.8.8XJXpXu                                                           .XAXq.n./ W ! W P U H L H u e >X.X      o       o   o           o     & ",
"&             o               ;X;X                                                        [ 3.f.KXhX;                                                   a FXJXpX                            o yXJXS.&.H.JX>X                      G HXxX*.G.JXOX                              & SX0X<.=.V.JXpXo                     e FXvX9.-.5XJX<X                      L HX9X-.4.zXJXu                                                             & SXkX:.s.#X&X&X&X@X-X%X1.p.CXSXq                             <XJX2X*.q.> O 0.;.G.HXi                             OXKX3X-.vXJX~                                                             - SXwX1.q.2.f.GXSXq                       aXKXm.%.9XHX:X&                                                             ;XvXw.l                       G fXX   o   o o o     o       o         & ",
"-                 o   o   o   = LXJ                                                     h e.<.qXJXG                                                     e JXKXp                             / JXqX-.d.ZXBXe                     & hXKXM.a.GXgX&                               & SX0X=.8.vXFXe                       pXJXV.%.N.JXBX=                     = NXAXi.%.2XJXOX                                                              I JXG.%.n.*X*X&XoX+X=Xs.;.9XJXW                             E JXxX8.e.l   { e.f.KX X                            u JXvX*.L.JX^                                                               E JXG.1.9.=.8XJXW                       OXJX4X%.Z.JXhXX                                                             & SX4X>.l                       o NXL     o o o     o       o     o     & ",
";           o       o   o       / gXX                                                 O 6.;.H.JXOX                                                      e JX|.                            e FXZXf.%.wXJXW                       OXJX6X%.kXJXG                                 7 HXqX%.2XJX~                       ^ JXwX-.i.xXJXE                       ;XJXD.%.j.KXhX;                     7 |././.|.^ Y.T. Xu                     & gXvX9.#.L.:X=X;X;X=Xb.=.N.JX,X                            r BXKXm.;.t.u j e.1.rXmX;                           o yXJXM.f.KX<X                      = e e e e e e e e                       - mXZXa.8.*.D.JX,X                      J JXnX9.i.AXKXi                       - & - & - & * - o                       |.JXM.3.d                         @X;X      o o   o o                   & ",
"&       o       o o   o   o       >X1X                                                ' 3.j.ZXgXo                                                       p ,X                            X aXJXG.%.G.JXyX                      i JXkX%.G.JX.X                                  , HX9Xf.KX:Xo                     i HXnXa.%.4XJX,X                      L JX4X-.q.xXHXp                     o >XJXJXJXJXJXJXJXgX-                     ;XJXm.-.N.VXVXNXVXSX7X-.i.CXVX4                             pXJXG.-.d.bXbXp.-.2XJXH                             .XJX2X-.vXSX=                     - gXHXJXJXHXHXKXJXW                       <XJXG.1.<.f.ZXSX4                     X gXKXN.-.qXJX~                       ~ SXDXSXDXSXBXBXfX-                     i HX5X2.6.O                         i BX-       o                         & ",
"-                   o   o     o   q LXH                                             d w.<.kXJXL                             X                           q q                              XJX0X-.f.ZXFXa                     X fXKXf.i.GXaX                                    q HXwXkXFXq                     o aXJXD.%.B.JXBXw                     - NXcXi.-.G.HXc.                      ~ JX9Xm.C.m.B.KXFXp                     I JX9X;.0.< 4 s 4 4 e r.;.9XJXL                             E JXwX<.e.j y +.>.m.JXOX                            i JXvX=.3XJXW                       OXJX0X9XwX9XrXJXaX                      G JXqX<.4.1.0XJX~                        XJX3X&.B.JXpXo                     e HXxX9XwX9XwXJXJXP                     o fXAXi.w.l                           o gXP   o o o o o     o       o       O ",
";             o       o   o   o     ~ fX                                          O $.:.G.JX@X                            p E                                                         e JXZXf.*.0XJX~                       .XJXG.%.rXJXp                                     q DXKXJX^                       ( JX9X-.9.vXJXW                       @XJXV.%.f.GXdXo                     a FXcXi.*.2.%.3XJX^                     = VXCXi.w.l           l ,.Z.JX,X                            q BXAXa.e.{   h 4.8.xXhXX                           o fXJXN.m.JX>X                      G JXqX=.*.*.%.qXJXi                     o fXLXf.<.=.G.JXpX                      i HXxX1.i.CXFXa                       sXZXa.5.=.%.G.JX;X                       XJXS.>.{                               ;X;X  o       o                     - ",
"&               o o   o o   o         sX~                                         ' 3.f.KXgX-                             >XE                                                         ,XJXG.&.B.JXyX                      i HXxX%.G.JX@X                                      = FXJXaXo                     q SXAXa.%.2XJX,X                      L JXwX=.<.kXHXi                       pXJXB.=.9.*.V.JXaXo                     ;XJXB.3.{           > <.d.AXBXq                             >XJXB.;.8.: : 8.2.G.HXi                              XJX5X*.cXBXq                     ; gXGXf.<.9.=.G.JX.X                       XJXG.=.<.a.GXFXe                     X fXJXN.%.9XJX~                       ^ JXD.=.9.=.j.GXNX-                     i HX8X2.8.>                               ( aX    o o     o   o         o     & ",
"&                   o   o       o o   e NXp                                     l w.1.0XHXG                             Y.JXi                                                       ^ JX8X-.a.CXBXq                     - gXKXf.f.KXfXX                                       7 KXFXu                       aXHXB.%.m.GXNX,                     q VXAXi.%.2XJX#X                      W JX2X=.9.<.i.nXFXe                     L JX4X;.8.:           $.4.qXJXP                             ^ JX4X=.w.h   { 3.j.KX/.                            p HXxX=.3XJXP                       ;XJXG.=.9.<.f.KXpXo                     U JXrX=.4.<.qXJXE                       #XJX4X%.S.JXpX                      e HX4X=.9.<.i.vXHXJ                     X mXnXi.w.h                                 i BX,       o o o                   & ",
"&                 o       o   o         $XaX                                  O 0.=.G.JX X                            e FXKXq                                                     p HXZXf.%.wXJXE                       @XJXL.-.xXHXi                                         q JX/                       /.JXwX*.4.lXJXI                       <XJXZ.%.m.KXhXX                     r SXlX<.9.9.=.9XJX.X                    & mXcX9.w.k           ` >.D.HX;X                            p HXxXi.w.[   l w.<.lXgX                            X aXJXf.m.KX;X                      P JX0X<.9.8.<.0XHXa                     - mXGXf.<.*.G.JX:X                      H JXcX9.a.ZXFXp                       >XCXi.<.9.=.3XJX;X                      |.JXV.>.{                                   7 BXu     o                         & ",
"&               o     o   o   o o   o   X gX^                                 ' 3.f.GXmXX                             <XJXNX&                                                     sXJXG.%.D.JXpX                      i JXlX%.H.JX X                                          p >X                      p FXZXf.%.2XJXyX                      J JX9X-.<.zXJXG                       >XJXm.=.9.=.B.JXfXo                     @XJXV.;.7.o         > 4.d.AXVX-                             jXKXN.2.#.O O 0.;.2XJXG                             K.KX2X=.xXSX=                     # NXGXf.<.i.*.G.JX~                       @XJXG.=.<.f.ZXFXq                     ; gXJXV.%.0XJX|.                      ( JXV.*.9.1.B.KXVX-                     e HX4X;.9.>                                   - BXJ     o   o                 o   & ",
"&   o     o           o o   o       o o   _ BXa                             d w.8.0XJXP                             Q JXJXjX                                                    |.JXzX<.i.AXFXu                     o aXGXf.a.GXdXo                                           q e                     o pXJXG.%.m.GXBXe                     - hXnXa.%.G.JXOX                      ! JX3X=.8.8.q.vXJXi                     L JXwX2.q.>           7.2.8XJXP                             ~ JX2X*.w.h   [ 3.m.JXOX                            u HXcX<.3XJX~                        XJXS.=.9.<.f.GXaX                      i HX0X<.<.1.0XJX^                       |.JX4X&.D.HXsXo                     e DXwX=.9.4.9.vXJXP                       sXZXp.w.l                                     - VXJ     o     o         o         & ",
"&   o         o   o     o o   o   o   o     XXjX                          O 0.;.2XJXOX                            p FXZXKX,X                                                  u JXZXf.%.wXJXW                       OXJXG.-.zXHXu                     - J                                             / JX9X-.4.lXJXE                       ;XJXB.%.f.KXaXo                     u KXkX1.<.8.*.6XJX/                     , VXZXa.3.k           k >.G.JX;X                            p HXwX=.e.'   l e.8.cXdXo                           & fXJXm.V.JX:X                      L JX9X=.8.8.8.bXHXe                     X hXZXa.<.=.2XJX,X                      G JXxX<.a.AXBXw                       aXAXi.4.9.*.3XJXOX                       XJXZ.:.[                                       - NXp     o                         & ",
"&                   o           o   o o o   o fX~                         [ 3.j.KXgXX                             sXJXL.ZX;X                                                  pXJXS.&.B.JX>X                      G HXlX%.G.JXOX                      ^ W                                           e FXCXa.%.G.JX<X                      P JX8X=.<.kXHXp                       sXJXvX0XkX0XkXJXpX                      :XJXD.>.{           > 1.j.GXNX-                           X fXZXa.3.6.O : q.;.2XHXp                             OXJX3X<.AXBXq                     - mXZXa.<.9.=.2XJX~                       #XJXD.=.<.f.KXSXr                     X hXJXN.%.qXJX(                       |.JXV.*.9.<.N.HXgXX                     i HX9X;.1.:                                       p BX,         o   o                 & ",
"&           o       o   o         o o   o o   G KXu                     h w.<.qXJXJ                             T.JX9Xa.JX X                                                ~ JXwX-.9.vXSXr                     & hXKXf.f.KXgX;                     e BXU                                           pXJXD.%.f.AXVX,                     - VXZXa.%.G.JX@X                      E JXJXBXSXSXSXSXmXu                     H JX8X2.q.>           { 3.kXJXP                             .XJXG.;.q.h   { 3.j.KX|.                            p KXxX=.6XJX!                       @XJXG.*.9.<.f.KXsX                      J JXkX<.8.1.qXJXW                       OXJX9X%.H.JXaX                      w HX4X*.q.8.9.vXJXG                     o dXAXi.w.l                                         E gXo     o     o                   & ",
"&                         o   o o   o o o o     @XmX~ Q Q L H G u e w , 6.,.G.JX$X                            e SXZXi.j.JX!                                               u FXZXf.%.4XJXQ                       OXJX2X-.zXHXG                       pXJXa                                         / JX0X1.=.wXJXE                       ;XJXS.%.j.GXgX*                     q NXJX^ # - & - - &                     & gXZXa.3.'           k 3.S.JX;X                            G HX8X1.w.'   h w.q.lXmXo                             pXJXm.m.JX,X                      L JX0X<.8.9.1.0XFXa                     & hXGXf.<.*.G.JX,X                      H JXCXi.a.ZXKXi                       ,XCX9.8.9.1.4XJX;X                      / JXB.>.7.                                          1X,X      o                 o       & ",
"&         o       o   o o   o     o   o o o o     ( >XaXfXfXgXNXNXBXNXm.5.m.KXgXX                           o yXJXB.%.B.JXL                                             o aXJXG.&.B.JX>X                      M JX0X%.G.JX~                       .XJXFX-                                       i KXZXf.-.G.JX,X                      L JX9X*.<.lXHXi                       pXJX,X                                  ;XHXB.;.7.O         d 2.j.GXhXX           o               X mXvXi.e.7.  : 8.;.3XHXG                             .XJX2X1.CXSX=                     - VXAXa.<.9.=.2XJXE                       ;XJXS.=.=.m.GXBX=                     & PXKXV.%.zXJX/                       / JXm.<.9.1.D.JXPX-                     u HX3X,.8.:                                         o NX~         o o         o           ; ",
"&                     o   o   o o   o   o             o X X & = = w o.q.8.lXJXL                             ^ JX4X*.;.G.HXp                                              XJXwX=.i.nXFXu                     X hXZXa.f.KXpXo                     i KXJXNXX                                     o jXJXD.%.f.ZXBXe                     - mXCXi.%.G.JX X                      ~ JXFXe                                 I JX0X4.q.d           7.4.lXHXG             o                XJXm.2.9.:   { >.N.JX.X                            i JXvX-.9XJX~                       OXJXZ.*.9.1.m.KXsX                      _ JXwX<.8.<.lXJX~                       .XJX4X&.S.JXpX                      e HX4X*.q.8.i.CXJXH                       aXAX9.w.l                                           G KXa   o o       o                   & ",
"O                       o   o     o o   o o o o o o o o           O #.:.2XJX@X                            a FXAXi.8.=.6XHXq                                           e HXAXa.%.4XJX~                        XJXG.%.zXHXu                       aXJXKXgXX                                     W JX8X=.2.0XJXW                       @XJXZ.%.f.GXfXX                     e FXJX X                                - VXGXf.w.'           l 3.3XJXHXpXyXyXpXyXyXsXyXyXpXyXpXyXpXyXJXR.,.q.6.] [ q.8.cXdXX                           X fXJXN.B.JXpX                      G JX9X=.9.8.8.lXHXp                     o fXZXa.<.=.2XJXpX                      i HXvX4.a.ZXHXp                       sXCXi.8.q.*.3XJX@X                      |.JXZ.>.{                                             1XfX            o                     & ",
"-                 o o     o   o o     o   o   o o o o o o X o   o [ 3.f.KXgX-                           o pXJXD.=.9.=.9XSX-                                           >XJXD.%.m.JXpX                      i HXlX%.R.JX$X                      ~ JX8XcXaX                                    r SXCXa.%.B.JX,X                      L JXqX*.*.qXHXi                       pXJXsXo                                 ;XJXG.;.#.o         : 1.p.2X3X3X3X2X2X3X3X2X2X3X2X3X2X3X3X2X3XG.=.-.=.:.>.>.%.2XHXp                              XJX3X4.CXSXe                     & gXZXa.8.9.=.6XJX/                        XJXS.=.<.f.GXFXe                     X fXJXN.-.qXJX^                       ^ JXV.*.9.=.B.KXgX-                     p HX9X2.1.>                                           & FXW       o   o       o               & ",
"&                   o o     o     o       o o o o o   X o X o   k e.<.zXHXp                             |.JX4X=.9.8.<.0XhX                                          /.JX4X-.9.xXBXq                     - PXGXf.m.KXsXo                     p FXxXf.KX:X                                  o sXJXB.%.i.AXNX=                     , VXAXa.%.2XJX$X                      W JXFXG X & - - -                       H JXqX=.8.>           7.w.9.=.;.%.D.2X2X2XR.R.2XR.R.2XR.2XR.2X2X2X3X5X5X5X5X3X5XJX!                             p HXxX*.4XJXE                       ;XJXD.*.9.=.m.JX>X                      L JXqX<.<.<.rXJXE                       @XJX4X&.F.JXaX                      a JX3X-.9.<.a.CXHXG                     X gXcX9.4.h                                             W NX;     o o                     o     & ",
"&                         o   o o     o o o   o o o   X o o   : 9.,.2XJXY.                            e KXvXi.e.k 6.9.cX>X                                        p KXnXi.%.3XJXE                       @XJXG.-.vXKXp                     o sXJXM.f.JX@X                                  /.JX9X=.=.9XJXP                       :XJXH.%.j.KXhX&                     r BXJXJXBXSXBXBXFX X                    - mXZXa.>.]           l %.$.9.9.2.m.JXHXSXSXHXDXHXSXDXHXSXDXSXHXDXSXDXSXSXSXSXFXHXyX                            o sXJXf.N.JX<X                      I JX4X%.=.*.<.lXSXe                     - mXZXf.<.=.L.JX<X                      L JXnX9.f.KXHXG                       >XkX-.*.*.-.9XJX;X                      ^ JXN.:.7.e a a u G H H H E W Q Q |. X XXX;X;X;X;X>XsXpXKX(     o           o                   - ",
"&                   o         o o   o       o o o o X     o o [ 3.m.KXhXo                             >XJXN.3.[ 1 8.i.GX=X                                      , mXJXZ.%.m.JXpX                      i HXrX%.G.JX/.                      |.JX8X%.V.JX/.                                p FXCXi.-.B.JXyX                      J JXwX<.<.kXJXG                       >XJXzX0XzX0XCXJXNX-                     @XJXS.-.g..X.X.X.X.X X%X%X%Xu.2.8.lXaX= & & - & - & - - - & & - & & - & & - & - - o                             Y.JX2X1.nXFXq                     - VXJX0X9XqXwXkXJXW                       @XJXS.=.<.m.GXFXq                     X gXJXB.-.zXJX.X                      ~ JXkX9XwX9XqXJXNX-                     e HX3X=.w.7XBXSXBXVXBXNXVXPXgXhXfXfXaXpXpXpX>X<X;X;X;XOXOX~ o   o     o                           & ",
"&                         o       o   o   o   o o     o o   g e.8.zXJXU                             / JX3X;.0.- f e.g.JX X                                    - dXJX3X-.9.lXHXu                     o aXGXa.f.GXaX                      p FXZXa.%.G.JXE                               o sXJXB.;.i.nXFXe                     - hXAXa.%.S.JX X                      ~ JX8X#.1.1.1.lXHXH                     L JXlX<.=.6XmXNXVXNXNXNXmXmX7X8.-.3XHXp                                                                         J JXvX=.9XJX^                       ~ NXPXmXVXmXVXBX>X                      i HXqX1.8.8.zXJX/                       |.JX4X%.S.JXjXo                     q gXBXSXSXSXFXSXBXP                       sXAXi.3.` y u a e q , = - - X X o O o                           o             o o                 & ",
"&                         o   o o   o   o     o o o o o   1 8.2.3XJX X                            i HXxX8.e.g . j 3.N.KXQ                                   e fXJX3X<.-.4XJXW                       $XJXD.*.bXHXe                       fXJXB.:.;.6XJXG                               |.KX2X*.=.9XJXE                       ;XJXB.%.f.ZXhX* & - & - & * - - & X G HXxXi.1.9.*.2XJX X                    q VXGXf.>.x././ / ~ ~ / / ~ ( r.;.V.JX X                                                                        G BXKXm.D.JX>X                        X X X ; X o X X                       * gXAXi.<.=.3XJX,X                      G JXbX<.f.ZXFXu                       o - - - & * - & -                       $XJXB.3.{ o                     o     o o o       o           o   o         o   o                   X ",
"X               o                 o   o   o   o   o o   o { >.m.JXfXo                           o fXJXV.3.' . . ` 3.D.JXL                                 E BXJX6X=.*.M.JX>X                      G JXzX%.6XKX.X                      ^ JX4X=.9.<.9XHXu                             P JXqX<.=.N.JX<X                      L JXqX<.9.zXJXHXSXSXDXSXSXSXDXSXSXDXSXHXKXj.=.9.1.f.GXfXX                     <XJXL.;.u.~ / / ^ ~ ~ ~ / / x.:.9.cXhXX                                                                       H SXJX2X-.bXJXJ                                                               ,XJXB.*.=.M.KXBXe                     & hXJXN.%.3XJX;X                                                              E JX4X;.0.1 o . o o o X X o X o o X o o o o o o o o   o       o   o       o                           & ",
"&                             o o   o     o   o   o     l w.<.kXHXz                             .XJX3X>.6.& . @ ' >.G.HXi                             i >XJXGXG.=.<.1.kXSXr                     ; hXKXf.j.KXfXX                     p FXCXi.2.9.1.0XHX=                           Q HXAXa.=.8.bXBX,                     - mXZXf.*.m.7X7X7X8X8X8X8X8X8XwX8X8X8XwX7XH.=.9.9.<.0XJXi                     J JXzX<.q.c./ ~ ! ~ / ~ ~ ! z.i.<.4XHXG                                                                     o ^ HXJX3X<.a.ZXSX&                                                           & <XJX4X<.8.<.rXJXW                       OXJX9X*.1.0XJXE                                                             ) KXrX9.4.j o X o X X X o o X X o o o X   o o o o o o o   o   o   o           o   o                     & ",
"&                                 o   o o   o   o o   : 0.;.2XJX/ o                           u HXlXq.q.f o ; . [ >.5XHX-                     & u Q yXJXJXwXj.=.9.=.G.JXW                       #XJXG.-.lXHXi                     X aXJXZ.2.r.6.8.xXVXX                       q @XJXnXm.:.=.6XJXT                       @XJXG.=.q.q.:.2.:.;.=.=.;.=.;.;.=.=.;.=.*.=.9.9.*.G.JX&X                    & gXGXm.;.l.W ( ~ ~ ~ / ~ / ~ u.,.N.JX|.                                                                  & P aXJXGXG.<.<.a.GXSX&                                                         C fXJX4X<.8.-.2XJX<X                      H JXcXa.<.<.rXJXE                                                         q  XJXqXi.3.7.X o X X o o X o o o   X X   o X o o o o o o o     o o o     o                     o           X ",
"X                         o         o     o   o       { >.N.JXFX! E E E E E E E E E E E E E E dXKXf.e.' o X X ; 7.>.wXHXW E E E E E E ~ |.@X>XVXHXJXGX4Xj.:.2.9.<.m.KX,X                      G JXqX%.2XJX!                       $XJX9X2.0.x 0.i.ZXsX                    p OXSXJX8Xp.<.<.N.JX>X                      J JX8X<.9.t.+.+.y.t.y.t.y.t.+.l.y.y.y.y.y.y.l.0.=.f.LXjXo                     ;XJXG.*.i./ ~ ~ ~ ~ / ~ ~ ! x.2.9.vX>X                                                              - J #XmXJXJX0Xm.=.q.q.8.xXJX$XX                                                 X U ,XJXZXD.*.8.*.N.KXFX=                     ; NXKXC.,.9.=.3XJXfXr                                                   e  XSXJX6X<.4.0.1 o X X X X o O o X o o X   X o o o o o o   o   o o o       o o                                 & ",
"&                                 o     o   o   o   l w.a.vXJXJXHXJXJXJXJXJXJXJXJXJXJXJXJXJXJXJXG.>.7.O . o X & 6.2.zXJXJXJXJXJXJXJXJXJXJXJXKXxX4XZ.i.;.3.6.7.q.<.lXJX~ G J J G J J J J G G J fXZXa.f.KXgXe e u e e e e e e G G Q JXCXa.q.x z 8.f.JXaXG J J G J G L ~ @XhXJXJXxXB.<.8.8.9.xXSXr                     & gXAXa.3.O.T E T T T T E W ! Q ! ! ! ! ! ! ! c.0.1.qXJX.XM J G J J J G G H G / JXlX8.q.z./ ~ / ~ ~ / / / c.9.-.3XJXOXP E E E E E E E E E E E E E E E E E E E E E E E E E ) ~ |.=XpXBXJXJXJXqXB.1.:.i.o.0.<.D.JXJXsX~ H e e e e e e e e e e e e e e e e e e p H W ;XmXJXJX0Xf.*.9.8.9.xXJX~                        XKX3X,.p.9.8.f.ZXJXBX#XE p e e e e e e e e e e e e e e e e e e G E  XyXHXJXlXN.:.4.i.1 o X X o o X X o X o o X o X   X o o o o o o   o o o   o   o             o o                     ; ",
"&                             o     o   o     o   : 9.e.f.G.S.S.S.S.S.S.S.S.S.S.S.S.S.S.S.S.S.D.q.q.f o ; X . : 0.q.B.S.S.S.S.S.S.S.G.S.Z.m.a.q.3.3.q.6.k < r.2.3XJXJXJXJXJXJXJXJXJXJXJXJXJXJXJXS.=.xXHXHXHXHXHXHXHXHXHXJXHXJXJXJXJXD.,. .y x 8.N.JXJXJXJXJXJXJXJXJXJXJXCX9XV.8.=.9.9.;.6XJX!                       OXJXS.;.r.L T P E Q E W W W W W W ! Q ! W W ( u.:.Z.JXJXJXJXJXJXJXJXJXJXJXJXJXJXJXB.,.O.! ~ ~ ~ ~ ( ~ ~ ~ l.,.B.JXJXJXJXJXJXJXJXJXJXJXJXJXJXJXJXJXJXJXJXJXJXJXJXJXJXJXJXJXJXJXJXJXJXGXkX2Xj.>.,.w.+.U K +.w.1.G.AXHXJXJXJXHXHXHXJXHXHXJXHXJXJXHXJXHXHXHXJXHXJXJXJXJXKXwXV.<.<.9.8.=.3XJXpX                      i JXxXq.7.%Xp.9.<.N.vXJXJXJXJXHXHXHXHXJXHXJXJXHXJXHXHXHXJXHXHXHXJXJXJXJXJXkXD.1.2.w.6.1 . X X X X o X o X o o X o o   X   X o o     o   o       o   o       o         o                   & ",
"X                                 o   o   o     o 7.p.q.e.>.2.2.>.3.3.2.:.>.>.3.2.:.>.>.>.:.3.2.w.` o o X X . 1 q.w.e.:.>.3.>.>.:.3.>.>.3.4.1.7.{ ` f - % | w.i.4X9X9X7X8X7X7X8XqXqXqXqX8X7X8X3X1.N.8X8X8XwX8X8XwX8X8X7XwX8X7X7X7X2X4.8.z y ..e.m.7X7X8X7X8X7XwX9X3XS.m.i.=.=.9.9.9.<.j.KX,X                      J HX0X<.q.z.I T ) E Q E ( E E E Q W W Q E W Q z.e.8.2X7X7X7X8X8X7X7X8X8X7X7X7X7X7XG.2.0.c.! ~ W W ~ ~ ~ ! z.4.8.6X7X8X7X7X7X7X7X7X7X7X8X7X7X7X7X7X7X7X7X7X7X7X7X8X7X7X7X7X7X7X9X3XG.B.a.:.,.=.6.+.Y H K K Y 9.q.=.a.G.9XqX0X0X0X0X0X0X0X0X0X0X0X0X0X0X0X0X0X0X0XwX4XD.a.=.=.8.9.9.=.m.KXBXe                     X fXKXM.;.f oXG.2.q.2.i.H.4XwX0X0X0X0X0X0X0X0X0X0X0X0X0X0X0X0X0X0X0X0X4XG.j.<.=.w.q.[ O . X o o o o X o o o o X o X   X       o o o o o o   o o   o       o         o                       O ",
"&                                       o   o   : h h h h h h h h h h h h h h h g h h g h g h g h X . X o X ; O g g g g g g g g g g g g g f 1 - # @ # @ k w.w.w.:.>.3.>.3.2.2.3.>.>.3.>.:.:.>.>.4.w.4.:.2.2.>.2.2.2.;.2.2.2.2.;.:.3.w.x y y X.w.q.;.=.1.*.-.%.%.%.%.%.*.=.=.<.=.<.=.<.zXVX=                     = NXZXf.3.O.I P E E E ) ) E E E W E ) E E ) T Y 9.e.w.e.;.*.:.,.;.=.;.;.;.;.;.;.;.,.,.w.z.Q Q ! ~ ( W Q W c.<.3.q.2.,.;.;.,.;.,.;.;.;.,.;.:.;.;.,.;.5.;.;.;.;.;.>.,.,.:.;.;.,.;.,.,.5.;.6.u.+.Y U K K H U G C Y i.q.4.=.*.1.<.<.<.<.4.<.<.<.<.<.<.4.<.<.;.%.*.%.-.5.%.%.=.<.<.<.1.=.4.bXJXE                       @XJX3X>.k @ / sXk 3.w.8.2.=.<.4.8.4.<.8.8.2.<.<.4.<.<.2.8.4.<.8.2.<.<.=.=.2.w.q.| f o o X X X X o o X X o o     X   X   X X   o o   o o   o   o                                             ; ",
"X                           o                 o                 o   o o o o o   o   o   o o o . o X o . X X ; X . . . . . . @ . . + + @ + + # # & - & - ' | | [ | | | [ [ |  .[ | | | | |  .|  . .|  .| |  . .|  . . . . . . . . . .X.u y y x  . .+.9.8.i.N.V.C.V.C.V.V.V.C.V.V.C.N.6XJXP                       ;XJXG.;.r.P P P E P ) E ) E E E E P P P P P I z.u.y.+.+.t.t.y.+.t.y.t.y.y.t.y.y.y.y.t.O.! Q W ! Q W W Q Q z.u.y.y.t.y.t.t.y.t.y.t.t.t.y.t.t.t.t.t.t.t.t.t.t.t.t.t.t.+.t.t.t.t.t.t.O.O.Y Y I T I L L H H H H H H x t.q.q.e.e.q.e.w.e.w.q.q.e.w.w.e.q.9.=.N.wXqXqXwXqXwXqXwXqXwXwXwXwXzXJX<X                      H JXbXw.{ 2 # H NX; d { q.w.w.w.w.w.w.w.w.w.w.w.w.=.w.w.w.w.w.w.w.w.w.w.w.q.6.' f . o X X X o X o X o X X o o o X   X   X     X   o o   o o   o   o     o     o o         o                   ; ",
"X                                     o       o o   o     o   o     o o o o X   o o o X o X X X X o X X X X X o o O ; X X O ; ; ; ; ; O & & & & ; & & - & + # # $ $ $ # $ * * * & * * * 2 2 * * 7 8 8 2 2 2 w 7 w 8 8 w w w w w w y a u a e y y y x q.=.4XJXJXJXJXJXJXJXJXJXJXJXJXJXJX>X                      C JXqX2.q.Y I P P P I P ) ) E P L P P ) ) L I P P T I I I T T T I ) Q Q Q Q T Q Q Q W E E W W W ( E E W W W E E E Q Q Q Q T Q Q W T T E Q T ) I I ) I ) I K K I I I K K I I I P I I I R I L L L P L P H H H H H G C G N o.+.+.+.+.+.+.t. .+. .+.+. .+.0.8.bXJXJXJXJXJXJXJXJXJXJXJXJXJXJXFXq                     X PXKXm.=.t * * u FXp     > l ] ' ' ' ] ' ' ' ] ] | B.X.' @.' ' ' ' ' ` ` j 1 O . . . X X X X o X X o o X o X X   X   X   o o o   o o   o o   o     o     o                                     & ",
"&                                       o         o   o o   o o o o o   o o   X o o o O X o X     X X X X X X X ; X X X ; X ; ; X ; ; & ; ; ; & & & & & & - - - & & = * - - * * * = 4 = 4 4 4 4 = 2 q q q q q q q w w r w r e e e e w a u u u w u 0.;.N.JX,XJ G J H J J J J J J J J J =                     & fXZXf.3.+.I P L L P P P P L P P P P P P P P P I L L P P P I L P P P E T T E Q E E T E Q E E E P E E W E P E Q Q E E E E E Q E P E Q E E ) I I I P I I L P I I I L L L L I L K L P I I L I L L L L H L L L H G _ J J G G C C M C Z i p M J G p z C Z x =.S.JXBXQ E P E E E E E E E E E E G                       .XJXL.>...$ - - q PXE                             J BX8 o . @ . o @ . . . . o X X X X X X o o o X O o o o o X X o   X o o o o o     o   o o     o o                                             & ",
"X                                             o   o     o o o   o o o o   X X   o o o o o X X X X o o X X o X X X X X ; ; X X ; ; ; ; ; ; ; & & ; & ; & & & - & - - - - - - - - = = = = = 4 4 q q = = s q q q q q r r r w r r w e e e e e e u a  .3.i.CXmX-                                                 ,XJXD.;.r.U L P L I I L P L P L P P P P U L L L I L L I L I P L I P I P ) ) E ) E E E E E ) E ) ) E E E P E ) E E E ) E E P E ) ) ) E P E P L I I L L L L L L L H L L U L L L L P L L L L L L L L H U L H U K H G G _ G _ _ _ i i z i p M M G i p M G 6.g.ZXJXI                                                 P JXwX>.{ * = - = ; ,X;X                            ;X<Xo X # X # ; X X X X X X X X o X o o X o X o o o o o o X o   X o o X o   o o o o   o o     o                                               X ",
"&                                     o             o     o   o     o o     X   o X o o o o   X o X   X X X o o X X X X X X X X O ; X ; ; & & O ; & & & & & & - & - & & * - - 4 - - = = = = - 4 4 4 q = q 2 q q q 7 7 r w r w r r e e e e r 8 x q.<.9XJXJ                                               X ;XKX9X=.e.z.C H U L P L U L I P P L L P P L L H U L L I L U L P L P H U I ) E P P P E ) ) P P ) E E E L P E E E P P ) E ) P P P ) ) ) I I P ) L L U H L L L L J H L L L H J H I I L U L L L L H H H L K H H J H H U G i i G _ M p p i i i p M C i z i X.3.wXJX;X                                                J FXAXd.#., $ , = = o / gX                          X VXP   & X & X ; & X & X X X X X X X X X o X X o o X o X o o o X X       o   o     o   o o   o     o     o     o                               & ",
"X                                     o             o     o   o X     X o   o   X   X X o O o o X X X   X X X X X X o X ; O ; X X ; ; ; ; ; O ; & ; & ; & & & & & & - - - & - - = = - * - 4 = = = = q = q q = = q q q q q q q r r r q w e a u r.,.D.JX<X                                              q sXJX8X4.e.o.J L L L H H L L L L H L L I L L H U L H L J H L L L H H L L L L L L P P P P L P ) P P P L P P E P L P P P P L P P P P P L P P P P L H L U L L J H L L L H J H U H H H H L L L H J H U H U J G H H H J G G H _ _ p u i i i i u p i z C p a z =.D.JXSX=                                               W HXKXV.3.c $ = - * - & z FXp                         J PX- X X ; ; ; ; X X X ; X X o X o X o X X o X o X o o o   O o o     o X     o   o   o     o     o     o                                       & ",
"&                                         o o     o   o o   o             X   X   o   o X o o X X   X     X X o X X X X X X ; X ; O ; X ; ; ; & ; & ; & & & & & & & & & - - * & * - = - = = = 4 = = = q 4 = = q q q q q q q r q w q r e w w | 3.f.ZXmX=                                           e / VXHX2X8.e.O.J H H H H H H L H L L L L L L L U H H L H H H H L H U H H L L L L U I P P P P P P P P P L P P P P P P I P P P I L P P P I I L P L P U H L K H U H H H H H H J H H H J H H L U H H H H H H H J H J J J J G G J _ _ p i i i p p u u p p i p u { p.cXJXW                                             i ;XJXbXM.>.k * - * - - - - # hX.X                        <X$X  ; ; ; ; X X X X X X X X X X o X X o o X X X o o o X o o o o   X         o o   o   o o                                                     X ",
"X                                           o     o       o   o       o   X   X X     X   o o o o X   X o o X X o X X X o X X X + X X X ; O ; ; ; ; & ; & & X & & & - & & * - - & - * = = = - - = = = = = q q q q = = q q q q = q r w e 6 k e.<.zXJXP     o o       o o o o     o o o   o = M ( >XHXJXlXm.;.e.o.C H U G G H U H H J H H U L H H L L H H G G L U L J J H L L L J J U L I L L L P I ) L U I P P L L L P L P L L L I P L U U I I P L U L L U U J J H H K J G J U H H G G G U H H G H U H H J G J H J J _ _ J J G G _ i i v i u u u p p u a p p ..>.8XJX;X                                      X u ~ sXJXKX2Xq.1.c $ * - - * - * & o c.gX                      z DXr X ; ; ; X X X ; X X X X X X X o X X X o o o o O X o o o o o o       X o   X   o   o   o                                                     & ",
"&                                 o                     o   o o o   X           o   o o   X o   X   X X o X X X o X X X X X X X X ; O ; X + ; X & O ; ; ; & & & & & & & - & & & - - - & - - = = = = = = = = = = = = q q = q q q q r 4 8 z 0.2.G.JXJXhXfXhXhXgXhXhXhXhXhXhXhXhXhXhXhXhXfXmXHXJXJXJXkXD.4.>.6.x J C G J H J H G J H H H H G H H U U J _ H H J J _ J H H H H H L H H U J L L L L L U L L L L L U I L L L U L L L L U U L I L L H H L L L H _ H H H H G z H H J H G H H G J G J H H H G _ J H G J _ _ G G G _ z _ _ _ _ p t p u u p t u u u p z 6.C.JXJX>X#X@X@X@X@X=X@X@X1X@X@X1X1X@X@X@X@X;XsXVXJXJXAX5Xk.=.| < $ * = = = - - - * # u FXH                     >X,X  ; ; X X O ; X X o X X X o o X X o O o o o X o o o o o o o o   X     o   o       o         o   o                                             X ",
"X                                                 o     o         o o     o o o     o o o o o o o   X     X X X o X X X o X o X X X ; X ; ; X & X & & O ; & ; & & & & & & & & - - - - & - * - * - = = = = = = = q = q s = q q q r 7 r 8  .3.a.bXcXvXNXnXnXnXnXnXCXcXCXnXnXnXnXnXCXnXCXAXnXlX9XG.j.:.>.9.+.G C G G G G G J H _ G J J H J G H H J H J _ J G J J G G J J K H H L L J J H U L U L H H L L L L H K L L L U L H L U L H H L H L H H L U H L H J J J G J G G J G J J H J J C J J G H J H G G G J G G M _ _ G G _ C v C i i i t u u u u u e u a p  .w.rXKXJXJXJXJXJXJXJXJXJXJXJXJXJXJXJXJXJXJXJXJXZXkX5XV.p.=.[ f * * - - - - * - & & - & o <XsX                  L KXp   ; ; X X X X X X X X X o X X o X X X o X   X   o o o o o o o o   o   o     o o o                 o                                           & ",
"&                                             o               o o   o o   o   o o o o o o o O   o X   X X X   X o X X X X X X X X X O o O ; ; X X X # ; ; ; X & # & & ; & & & & & & - - - - - - - = = - - = = = 4 = = = = q q = 4 r 8 c p.4.p.i.q.p.9.i.9.i.i.i.i.i.9.i.i.i.i.q.i.9.i.p.p.4.:.>.<.7.O.z Z v i v G G G M M G G H G _ G J G H G G J U J J _ _ G G H z _ G L H L G _ J H L H H J L H L H H H U L U J J L H L H H H L L U J H H H L H G H H H G _ _ G G J G i G H H H z p J G J G _ i G G G z i M G _ _ p p i z G p u i i u p a e u u u e w ..3.p.M.k.k.k.k.k.k.k.k.k.k.M.k.k.k.k.k.M.k.k.k.g.p.<.$.[ k < * * * - * - - & & - - * & & X p BXi               4 BX X  X X X O O X X X X X X o o X o X X X o o   X   X o o o o o o o o o o o o o o       o o   o     o                                               X ",
"X                                               o               o       o o o o   o   o o o o o X X X     X X   X X o o X X X o X X X X X X X ; ; ; ; X ; ; O & O & & & & & & & - & - & & * - - - - - = = = = = = = 2 = = = q q 4 2 < 7.#.r.#.6.6.6.6.6.#.6.#.6.6.6.6.6.0.6.0.6.6.6.6.6.7.7.| x z p p p p M z C i p M _ _ C i i G G G G z G J J J _ _ _ _ _ _ i _ G G G G G H G G J G G J J J G _ H H H H J G H U H J J H H H H J J H H J G _ G H H H G _ G G G G i z C _ _ _ _ J C _ J _ M G G G _ i M C C G i p z C v z p u i i i p e u a a t e w a e x ....k k ..` ` k ` k ` k k ` ` k k k k ` k k k j g < 4 * $ * = - = * - * * - - - & & - & -   T.NX-           - NX>X  X ; # X X X X X X X X X X X X o O   o X X X   X   o o o   o o     o o o   o   o     o                                                           & ",
"&                                                       o     o   o   o     o   o   o o o o o o X   X   X   o X o o X X o o X X X X X X X X ; X X ; ; X # O ; ; ; ; ; ; & & & & & & - & & - - - - - * = - = - = = 4 = = = = q = q 4 r s r s r r , r t r t r t t t t r t t t u u u t u t a a a a y u i p i i i M i i i _ M C z M _ _ G M C G G G G _ _ _ _ _ _ _ i G M G i M G G G G _ _ G G G G _ G G J H G H H J J J J J H J H _ _ _ _ G _ _ _ G _ G _ _ J _ _ M M M C M _ i i i z G G M i _ _ _ i i M M i i i i i p i p u p i p p u a t a a a e r e w y y w w w 8 8 8 8 8 8 8 6 4 2 8 7 6 * * * 2 * $ 6 $ = = = - * - - - - - - - - - & & & & & & X ; fXfXa       p aXaX- o X X X X X X X X X X X X X o X o o X o X     X   X o o o o o o o o   o o   o     o o o       o                                                   X ",
"X                                                       o         o   o   o o   o o o o     o o   o o X X o o o o X X o X o o O X X o o X X X X X X ; ; ; X ; ; ; ; ; ; ; & & & ; & & & - & & & - - * - - - = = = - - = 4 = = = = q 4 7 4 2 q q q 7 7 7 w q w q 7 r w w e q e u u a w w e u u u e t i i i p u u i i i p p i _ _ z v p G M G i i _ C J G u p _ _ G i p i C G C i i G G _ z p i G G G i i G H J J _ G J J J M G _ G G _ p i _ _ G i i i _ _ _ i p M M _ i u p M i C i i M _ M i p i M i M u u z v i i u u p p i u e u p u a w q e e a e q r u e e q q q r r q = 4 q q r 4 = 4 q q , = = = = = = - - = - - & & - * - & & & - & - # ; & & X 4 pXKX:XOX>XKX,X&   & X X X X X X X X o X X X o o X o o o     X X o o X   o o o   o o o o     o o               o     o o                                             & ",
"&                                                   o               o       o   o     o o o o   X   X   o o X   X o o X o X X o o X X X X X X X O X X X ; O ; ; O ; ; ; & & ; & & & & ; & & & - * & - - - * - - = = = = - = = = = , = 7 s 4 q = = q q q q q q q w q q q w t t a e e e e e e e e a a u u u p u i p u i i i i p p i i v i p i M C _ z v _ _ _ i u p i C z p p C z C z i p C C C C p _ G C _ i _ _ G G G z G G G _ i i G _ _ _ p v i i i i p i i _ z p p M z i i p i M v C p p M M i i u p i i p p u p u p p a u p u u a r e e e e q r r w e e r r q q r 4 q q q q q 4 4 4 7 , = = = = = = - = = = - - * - * - - & & - & - & ; ; & & & ; ; X X E ;X,X;XU o o X X ; X X X X X X X o o o X X o X o o X X o X     X   o o o o o   o o   o o     o o     o                                                           X ",
"X                                                 o                   o   o o o o o   o o o   o   X   o   X   X o o X o X o o X o X X X X X X X X ; X X X ; X ; + ; ; ; O ; ; ; ; & & & & & - & & & & - - * * - * - - = - = 2 = = = = = 4 4 = = = q q q = q q q q r q r r e e a r r e r e w e e e a u u u p u u u u u p p z u p i i i p p i z v _ i i i _ _ i i p i p i u u i i p i p i G _ G z z C C G G i _ _ G G _ i z C _ G i _ _ _ _ _ i i _ i _ u u i i i v u p i v M i i i _ p z p u z p i u u p u u i u u u u u u u a u u u e r e e e e r q e q e e r r w q q 4 4 q s q 4 = = 4 = 4 = = = = = = - - - - * - - & - - - & & - & & & O ; & ; ; & ; ; X           X ; X X X X X X X o X o X X o   X X o X o X o X     X     o o   o o   o   o o   o       o       o                                                       & ",
"&                                                                 o     o       o   o o   o o o o   o o o X o X o X o o o o X o X o o o X X X X X X X ; ; X X ; ; ; O ; ; ; ; & ; & ; & & & & & - & - & & & - - - & - = = = - = = = , 4 = = = q q = = - q q q = = q r w q r r e e e r q r a e e r r y u u u t u u p p u y u p i u u u i i i u u p i M i u u i i i u u u i i i u p C _ G i p p G C C p v z _ G _ p p G C G v p i G _ _ p p _ _ _ i u i _ i i u t p p p u y u i i i u u p i i p y u i u i u a u u u u e e u u u e e e e e r q q q e q q q q e r r s 4 q q 4 4 = = = 4 4 , - = = = = * * * = - - * & - * - & & & - & & # & & & & ; ; O & ; ; X O ; X X X o X X X X X o X X X X o X X o X o   X o o X     o o   X   o o o o   o   o             o     o     o                                                     X ",
"X                                                               o     o     o     o   o o   o     o o   o o o o o o o o o X   X   X X X X   X X X X X X O X ; ; X X ; ; & X X & & & & & O & & & & & & & & - & & * - * - & - * - = - * - 4 = = = = , 4 4 q = q q 2 q q q q r r e q q r r r q q e w e r e a u a u e e u u u u a a p u i u u u p p i u u p u u u e u u p u u u i i v v u i i i i i p z C i C p p z C v z p C i i i i p _ i _ i u i i i i i u i p u u t u u u u u t u u p p u u p u u u a u u u u e e u u u e e e e e w r q r w q q q q q q q r q q q 7 q = 7 , = 4 4 - = 7 = - * - - - = * & - - * - & & - & & - # & & # & & O & ; ; & X O ; ; ; ; X X X o X X X X X X X X X X X o     X X o o o o o o o o   o o o o o     o       o     o o   o                                                                 X ",
"&                                                                         o     o   o o o o o o o o o o o o o o   O o o o O   X X o X o X X o X X X X X X X X X X X ; X X & X X X X ; X ; & & & ; & & & & - & - - - - - - - - - = - - 4 = = = = = 4 = 4 = = = q q s = 2 q w r r q q w q w q r r r w w r e a t u e e a u e u t u u a u u u u u u u a e u u u u u u u u p u u p i p z u u i p i p u i i p z u p p p i i u p i p i u u i u i u p u i u i u u p p p p u a u a u a a u u a u e e u a u t e e u a e e e a e a e e e e r r q q r q q q q = q q q q q q q , 7 = - q = = = - = = - = - - = - - - - - - & - & & & & & & & & & ; ; ; ; ; ; ; ; + ; # O X X X X O X X X X X X X X     X o X X X X   o o o o o o   o o o   o   o o     o o     o                                                                           & ",
"X                                                                       o     o   o o         o   o   o o   o o o o o o o   X X X X o o X X X X   X X X X X X X X & ; X X & X & X & ; & & ; ; ; & & - & & & & - & & & - - - * - - - - - - * = 4 4 = - = q = q = = q q s s q s w q q = q q r r w q q r r e e q e u a a e q e e a e q r a e u r r a u u u e e u u u u a u i i i u a p p i u u u i p i u u i i p u u u p u i u u p i i i a u i u i u a u i u i u a u p u a r a u a u r r a a a e r r a e u q r r e e a r q a e e r q q r q q q = q q r = = = q q q = - , 7 7 = - = = = 4 - - = = * * - - - - - & & & - & & & X & & & O & X & ; ; O X ; ; ; ; X X + X ; X o X X X o   X o X X X o o o o o   o o o o o o o o o o o o   o   o         o       o                                                                     X ",
"&                                                               o     o               o   o o   o o o   o   o   o o   o o   X   o o X X   X o X o X X   X X X X X X X ; O X X & X & ; ; ; ; ; & ; ; ; & ; & & & & & * - - & * - - * - * - - - - - = = = = - = = = = = = = q q q = q q q q 7 = q q q q q q q e e e r e e e e q e e e e e r e a e e r r e e e a e u u u u a a u u u u u u u u u u a u u p u a u p u p p a u u u p u a u u u u t u u u u e e u u u u e a u a a e r t e e e e r e e e w r r w r e e r e e e e q q r q q q = q 7 q q = = 4 q q q = s , = 4 = - = = - - - - - - * - & - - * & & & - - & & # - & & & X ; ; # & X ; ; & ; ; X O X X X O X X X X X X   X o X X X   X X O o   X X o o o   o o o o   o   o o   o     o o     o   o     o                                                                 & ",
"X                                                                           o o o   o     o   o o     o   o o o   X   X X X     o o O o o o o X X o   X X X o X X X X X X X X X X & X X O & ; ; ; ; ; & ; & ; & - & - - & & - & - & - - * = - & - = - = = - = 4 = = = = 4 s q q 2 = q 4 s q = q q q q 4 q r q e q e e e e e e q e r e w r w e e e r e e a u a e t u a u a a a t u u t a u u u a a u p u u e e p u u a e u u u u e a u u u a a a u a u a e u u a a e e u a u e e e e w e q r e e e q q w e r e q r e r e q q q q q s 2 q q q q q = = q = 2 q = = 7 = 4 - - = - = - - * - - * - - - - - & & & & & & ; & ; & & ; ; ; & ; O X X ; ; ; ; X X + X X X X X X X X X o X X X   X o X o o X X   X   o o o o o o o o o o       o   o o       o o                                                                         X ",
"&                                                                                         o o   o   o   o o o     o     X     X o o o X X o X o X X X X X   X X X X X X X & X ; X X X & ; ; ; X ; & & O ; & & & & ; ; & & - & & & * - * - & = - = - - * = = = - - = = 2 $ # * q q q = = 4 q q q 4 4 q q r 4 = q r q e q q e e e w q q e w e q q r a e a r r a a u e r e a a u e e u u a a e e u u u e e u u u u e e u u u e e e u u a e e u u u e e e a u a w e a u u r r w a e a r r r e w r 7 q r r w q q w r w r 7 q q q r 7 = q q q 2 = - = 7 s = = - q q = - - = = = = * - = - = * & - - & - ; & - & & & ; & & & & ; ; O & ; ; ; X ; ; ; X X X ; O X X X X X X X o X X X X   X X X o o o o X   X   o o o o o o o o o o o   o     o       o         o                                                                     & ",
"X                                                                               o   o       o       o o     o o o X   X     X   o o o o X o O o X X X X X o X X X o X X X X X X X X X X X ; O ; ; O ; & ; ; ; ; & ; & & ; & & & - & & - - & - - - - - = * - * = - = = < ..j > - 2 = 4 s q = 2 7 4 4 q 4 4 q s q q 4 q q r q q q e r w r q q e w e r r e a e e w e e a e e r a e e a r e e a a e r e e e e e e e e u e e e e e e e e a e e e w e e e a w r e e e e r r a a e r w r e w e q q r q r q s f w r e q q q = = q 4 = q q 2 = = = q q = = = = = = q - = = - = - * - * * - & - - & - & & & & & & # & & ; & ; & O ; ; & X ; & ; X O ; X O X ; X X X X X X o X X o X X o X X o   X o o o o     o o o o     o o o   o     o   o   o   o o   o                                                                             X ",
"&                                                                       o             o o   o   o     o   o   o o       X X o   o o o o X o o o   X   X o X X X X X X X X X X X X X & X X ; ; ; ; ; ; ; ; & & O & & ; & & # - & & & & & & - - & & * - - - - - - = = @ c lXxXL.@.- = 4 = 2 * # * * 2 2 * 4 r 4 q 4 4 q 6 7 8 8 8 8 8 8 8 q r w 8 q = 2 8 e e e r r a w w s 4 7 w a e r e w 8 y e e e e a e w 7 w e e e e e u e e 8 8 q q r e w e a w q s s 8 w e e e 7 w 2 w 8 w r e w r r q e q w 8 ..B.s q q q 2 2 @.@.* 4 = 4 = q = - , = 2 = - * $ = = = = - * # $ - - - O & - & & - - & & # & & & & & ; & ; & ; ; ; ; ; & ; X ; X ; X X X ; X X X o X X X X X o X X o X X o o   X     O o o   X o o o o o o o   o o     o   o     o             o                                                                         & ",
"X                                                                                   o           o     o o o o     o o o o o o o o o o o o o o X   X X o o   X X X X O X o X X ; o X X ; O + X X ; ; ; ; X O ; ; ; ; ; & & & O ; & & & & & & - - * & ; & * - = & & - * f x.L.cXnX+.= = - 2 j X.X...k g 1 * 2 = = q 7 s @.k k c k k k ..X.f 8 1 k x.n.x...1 2 e e e 2 d ..x.J.x.k , 8 e e x @.c w e e r q q g O.O.r q e e a q 7 z X.O.x.x.O.r e w , k O.J.n.X.d 2 w w g o.X...c f 8 q 7 r w r q q q 4 n.cXk $ 4 q 2 d 5XF., 2 2 4 - = 2 , u.g @ = * g ` X * 4 = & : ` g $ * : y.g # - - & ; & - - & ; ; & & & ; X ; & ; & O X ; ; ; O X X ; X ; o X X O o X   X X X X o X X X o X     o o o o o o o o o o o o o o     o   o o       o   o                                                                                       X ",
"X                                                                                 o       o o     o       o   o   o o o o   o o o o o o o o     X X o   X X X o o o o X X X o X X X X X X ; X ; O X ; ; ; ; ; ; O ; ; & ; & ; & & & & & & & & & & - - - & - * & - - - # & : ` cX9Xd * - ; n.ZXxXlXlXqX6Xo.1 2 = = * h 3XcXlXkXxXkXkXcXkX..g F.lXqX9XkXcXF.j 8 8 q ..5XlXqX9XlXlXn.f 8 < H.AXO.7 q e w s O.9XCXL.f w e q e e 2 +.CXxX0XrXZ.< 8 f A.kXrX9XrXAX3X..7 2 +.nXvXlXrX6X..7 q q q q q q 7 > 3XKXA.: 7 2 & l.KXkXh $ = = = = # ..nXA.: * O Z.bXn.: * # h F.vXy.X + X.AXJ.X # - & & & & O & & ; & O ; & & & ; X ; ; ; O X X ; X ; X X X X X X X o X X X X o o X o o o X X O o o o o o o o o o o o o o   o o o   o o     o o   o       o                                                                                 X ",
"&                                                                                         o     o     o o   o   o o o   o o o     o o o o o o O o X   X X X o X X o X X X X X o X X X o X X X X X X X ; ; ; O ; & & ; ; O ; & ; & ; O & & & - ; ; - - - & & - - - - - & # @ l kX5X> * - & x.KXy.` o.A.kXZXn., 2 = * < O.O.X.l.GXA.X.o.O.] 9XCXn.j d j A.KXL.f * @.xXlXO.h f ` 3XKXn.- , A.KXo.2 q r 7 O.AX4XX.c r q q q q e 2 o.GXn.j j j 8 < H.GXn.c h j n.GXqXg $ X.GXn.` J.ZX5Xh 8 q 2 = q q 2 ` vXlXvX@.* $ l kXxXZXO.; = = = = : L.GXcX` # - ` 3XKXn.O h 3XCXn.j @ d 5XGXxXl . & & & & ; ; & & & ; ; ; ; ; O ; X X X ; + X X X X X X X X X X X o X o X X o X o X X X o   X o o o o o o o o o o o     o   o o o o   o     o o                                                                                             X ",
"X                                                                                             o o     o   o         o o     o o o o o o o o o o     X   X     X X o o o o X X X X X X X X X X X X X O X X X ; ; ; X X ; & & ; ; ; & & & ; ; & & & & ; ; - - - & # - * - g X.9XlX..# * * O x.KXO.. ; O l xXxXl # 4 , 7 # @ @ ..AXx.X # & J.KXl.O 2 8 6 d 9XLX..1 3XZX' & 8 8 * j vX0Xj , F.GXX.7 r w > 3XvX] % 8 7 q e q r s $ o.GXx.@ @ 6 7 +.GXA.> 6 8 8 : A.KXO.$ X.LXn.; d qXrXh * q q q q - ; n.ZXa.GXF.: O A.AX6.cXF.: = = - ; X.cXj.nX3X> $ # d L.ZX} A.AXX.O . X O.ZXj.cXA.: & ; ; ; & & ; X O & ; ; ; + X ; ; ; X X X ; X X X X X X X X X . X X X X   X o X o o o   X   o o o o o o o   o o o o   o o         o   o     o                                                                                             & ",
"X                                                                                         o     o     o o     o       o o o   o o o   o   o o o X o o o o o o O o o X O o X o X o X X X X X X X X X X X X ; X X X ; ; X ; ; ; ; ; ; ; & & O & ; ; & & & - ; - & $ & ; : D.xXKX5X] ; # - X x.GXO.; * * O F.KX..$ = - = = = $ ..CXx.& 2 > 0XkXh * 7 = = - n.KXx.g ZX6X: 7 q s 7 1 3XGX..; A.GXX.2 2 7 1 A.JX4XX.1 2 q q 4 q q * o.GXB...O.c 1 F.ZXk 6 s q 4 * X.GXA.X ..AXx.: l.LXn., = = = = = * > 9X0Xl 3XLX` j AXA.> 6XcXl @ * $ > 5XIXd J.KXO.. * @ h xXqXcXn.O # . d 0X7Xd J.ZX' . # & X & & & & O ; X O + O ; X X X X X O X X X X X X X o X X X   X   o o X X   X     X   X o o o o o o o   o   o o   o   o o   o     o                                                                                                   X ",
"&                                                                                                     o     o   o   o   o       o o o o o o o o   o o o o o o o o X   o X o X o X X X X X X X X X X X ; X X X X ; + O ; X ; ; ; ; X ; & & & ; ; ; & O & ; ; ; - - - & - g j x.cXqXj $ & o x.GXO.; * & : 4XAXk # - - * = * $ ..ZXn.O 6 g cX4X> 2 = = = & x.KXO...KXn.- q = 2 2 1 L.KX` X A.GX..* q q 2 f J.lXCXF.f 7 q = 4 r 6 ..GXvXrXbXl.> 9XvXf 2 q = 2 * ..ZXA.O ..AXn.N.ZXA.> 2 = q - - q $ ..AXA.O X.GX2XF.0Xh . O.KXn.O * X l.GXN.k 7.nX0Xd # - O n.JXqXh # & o x.ZXs.k t.ZX4X> ; & & X X ; ; ; ; X X ; ; ; X X X ; X X X X X X X X X X X X X X o X X X X   X   X X       o o o o o o   o   o o o o o o     o   o     o                                                                                                 X ",
"X                                                                                             o   o       o o     o   o     o o       o o o o o o   o o o o o o o o o o o X o X X o X X X o X o X X X X X X ; X O X X ; ; ; O X X & ; ; X X # & & O # ; & & & ; ; & - - # . O A.KXO.. & O x.KXO.. ; X @.GXL.: # = = = - & # X.ZXn.; $ f vXwXd $ = = 2 : F.KX..c KXF.O = q 2 2 > qXlXj - A.GX..2 = q = * : l 6XJXy.# q q q = # o.GXn.k k f < 5XAXg $ = q 7 ; O.KXO.; ..AXn.+.ZX6Xd # - = 2 = = O J.GX@.@ : L.JXZXO.; # h nX9Xd @ h qXKXlXxXxXvXKXl.O & . @.KXH.O ; @ h 0XKXlXxXlXcXJXl.o X X & & ; X X ; ; ; X X O ; X ; X o + X o X X X X X X o   X X o X X   X X   X     X o X   o o o o o   o o o   o     o o o     o   o                                                                                                   X ",
"X                                                                                                           o       o       o   o   o   o     o o o o o o o o o o X o o X o o o o o o X o X o X X o X X X X X X X + + O X X X ; ; X O ; ; # & X & ; ; & & O & & ; & ; @ +   l qXvXl # & O x.KXX.  > +.xXkX` # - * & - * - # X.GXJ.O * > 5XGXX.X * # X k nX9Xd f xXlXl # $ $ O O.KXZ.O - A.ZX` @ ; * = * * O O.KXO.* 4 = = 2 $ X.GXx.# $ 6 : J.KXl.O $ $ ; l qXxXj @ ..AXx.O n.KXA.> $ = = = - > qX0Xd $ # @.ZX9X> - $ : L.KX..o n.KXn.X...` ] qXbXl @ @ ` GXA.O ; o n.GXl.X...k ' xXlXl o & X X ; X X ; X ; X X X X X X X X X X X X X X o   X o   X X   o o   X   X     X   X   o o o o   o   o o   o   o   o   o     o                                                                                                       & ",
"&                                                                                                                 o     o   o   o   o o     o o o o o   o o o o o o o o O   o O X o X X o o X X o X X X X X X o X o O ; X X ; O ; ; X ; ; ; ; O ; ; & & ; ; ; & & & & l ..x.rXZXy.O $ - o n.JXn.n.4XAXwX` ; - = - - = = * @ X.JXA.O * ; | CXvXO.j j O.rXvXX.; O n.JX9XX.g l n.nX9Xl % O A.JXl.o.O.` = f X.F.nX4Xg 2 * - - q $ o.KXx.& , 7 $ l 0XZXn.j j X.9XKXn.O % ..KXJ.; > H.JXA.> * - & # x ZXA.O & - : Z.O.X - - + O.JXA.l nXwXd o X @ . O.KXF.> . X.KXA.o ; k nX8X: o o .   n.KXF.O X X X X ; ; ; X X ; X X o X X o X X o X X X X o o o X o O   o o X o o o o o o o o   o o   o   o o o o   o   o o       o   o           o                                                                                             X ",
"X                                                                                                                 o   o o     o o o     o o o     o o o o o o o o o o o o o o o     X X o X X X X X X X   X X X X X . X X X X X X X X ; X X ; ; ; ; X X & ; & ; X # > G.CXxX5Xo.O & & ; O n.AXxX8X6Xh.h ; & & & - - - & & # X.xXB.O & * & O.9XcX0X0XxX4X..O 2 * > x.0XcX0XkXlXF.j # 2 : D.cXxXcXAXD.O X.vX0XA.h # * 4 = 4 - # X.lXn.& & - = - k 3XvXzX0XxX9XO.: * $ @.kXn.O % h 9X4Xh # = * ; l.ZXX.# * - # d , * & & + h 0X9Xi.xXO.X & & ; X > 9X9Xh   @.xXZ.O   +.cXO.o ; ; X o d 9X9Xd . ; ; ; X X O X X X o X X X X X X X X X X o X X o o o   o o o X o o o o o o o o o o o   o o o o   o   o o o         o                                                                                                               X ",
"X                                                                                                                     o     o o o   o     o o   o o o o o o o o o o o o o o o o X o   X O X o o o   X o X X X X X X X X X X X X X X X X X X X X ; ; O X & X ; ; ; X : O.O.k : o ; & ; & ; g ` k d O o + & - & & & ; - & - & 1 l g - & - # X d ..O.O.k > ; - = & * O h X.O.o.k : $ - - - j k k ....j - f X.d O $ = - * - - = * f l f * - - = - # > k O.O.` d X $ = & 1 k h * - + l j & - & & - f +.f ; & - - # # & - & & & [ k : ` < ; & & & & ; l g X # 1 l h ; ; : ` > . ; ; O X o l h X ; X X X X X X X X X X X X X X X X X X X o o o o o X o o o o o o o o o   o o o o o   o o o     o     o o     o o   o                                                                                                                 & ",
"&                                                                                                                       o           o o o o   o o o   o o o o o o o o o o o o o     X   o o o o o X X X X X X X X X X X o X X X ; X X X ; ; X X X ; X & X X X O ; # X   o + ; X O ; & & - + . . # & & & & & & - & & & - - & # @ % - - & & & # + # + @ $ * = - & & = $ @ ; + # * - - - * $ % $ # ; $ = * # # - = - = - - - = - * # # = = - * & - * # # ; @ $ - - - & # % $ - - & # # - - - & - # ; # ; & - - - ; & & & - & X . $ ; # ; ; & & & & . . & & ; . . ; ; ; . o X ; ; ; X X . . X X X X X ; X X X X X X o o X X X o       X X o o o o o   O o o o o o o o   o o o   o o o o o     o o       o o o           o                                                                                                         X ",
"X                                                                                                                               o   o   o o o     o o o o     o o o o   o o O o X   X   X   o o X o X X   X X X X   X X X X X X X X X ; X X X O ; ; X X & ; ; X X ; ; # ; X X & # & ; ; ; & & & ; O - & & & ; ; - & - & & & - & & ; & - - - & & - * - - & & - - * & & - = - = & & * * - - & & - - = & & = = - - & & = * * - & - - - * & & - - * - & - * = - & & - - * - & & - - - & ; - * - - ; & - - - # ; & - - & ; ; - & & & X & & & & ; X ; & & X X X & X & ; X ; ; O ; X X ; O X X o X ; X X X o X X X X X o X X X   X X X X o X   o O X   o o o o o o o o o o o   o o o   o   o o o         o                                                                                                                           X ",
"X                                                                                                                     o     o   o       o     o o   o   o o o o o o o o o     o o o o X o X o X X   X o   X X   X X X X   X X o X X X X X X X X X X X X X X ; ; X ; ; O ; ; ; ; ; X ; # & O ; ; & ; ; & & & & & & ; & ; & & & & & & & - # - - & & & & - & - - & - & - & - & - & - - - - - - - - - - * - * & - = - - - - - - - - - * - - - - & - & & - & - - - & - & & - & - & & & - - & & & - & & - ; - & ; & & ; & & & & ; & & ; & O ; ; ; ; ; X & & X X & X ; X ; ; X ; X X ; X X X X X X X X X X X X o X X o X o o X o o o X X X o   o o X o o o o o o o o o o o o o o o o     o   o   o   o o               o     o                                                                                                       & ",
"&                                                                                                                         o       o   o       o o     o   o o o     o o o o o   o   X   o o X o   X   o   X   X   o X X X   X X X X o X X X X X X X X ; X X O ; X ; X X X ; ; O X X ; O & X X ; ; & ; ; ; & ; & ; ; & & & & ; ; - & & & ; & & - & & ; - - * & ; & - & - & & & - - & & & - - - & ; - - - - ; ; - - - - & & - - - & & - - * - & & * - - & & - & * & & & - - - & & & - - & & ; & & & & ; ; - & & ; ; & & & O ; ; & & & ; ; ; ; & O X X & & & X X O ; X ; X X ; O X X X X X X X X X o X O o X o X X X   X   X X X     X X X X     X o o   o o o o o o   o o       o o         o o   o       o                                                                                                                     X ",
"X                                                                                                                                           o     o o o o     o o o   o     o o   X   o o o   o X   X   X X   X X X   X o X X X o X X X X X X X X X X X X X X X X ; ; ; O X X ; ; & ; X X # & & X O ; & ; ; X ; & # & O ; ; & & & ; ; & & - ; ; & & & - ; ; & - - & # & & - - ; X - * - & # # - - - & ; - * - - ; # - - - # ; & - - & # ; - - - & ; & - & - ; & & - & & ; & & - & ; ; & & & & ; ; & ; & ; X ; & & ; ; X & ; ; ; X X ; & ; X X ; X & X X X X X ; X X X X X X . X X X X X X X X X X X o o o X o   X X o X   o   X X   o   o o o   o o o o o     o   o o   o o o       o   o                   o             o                                                                                                   X ",
"X                                                                                                                                     o     o     o   o     o o   o o o o   o o o o   o o o o o     o o o X   X     X     X X   o X   X X X X X X X X X X X X X X X X X X X X ; X ; X ; ; ; X ; ; O ; ; & X & X & & & X ; & ; # ; & & ; O & ; & & ; ; - ; ; & & - & & & & & - & & - & & - & - & ; - - & - & & - & - - ; & & & & & & & & & & ; & & & & & & & & & & & & & & & & ; & ; ; ; ; ; & & ; ; ; & & & X & X & X X & O ; ; ; ; ; X & X X ; X O X X X ; X ; X O X X X X X X X X X X X X X X X o X X   X   X o X   X o o O o   o X o o   o o o o o   o   o o   o o   o         o     o   o                                                                                                                                 & ",
"&                                                                                                                                             o     o   o o   o o     o o o   o o o o o o o o o X   X X O o   X X X o o X o o X X X o X o X o o X X X X X X X X ; X X X X ; ; X X X ; ; ; X X O ; ; ; X X & X & X X ; & ; & ; O & ; & ; ; & & ; ; ; ; ; & & ; ; ; & ; & ; O & & & & ; ; & ; - # ; ; - & & ; ; - ; - ; ; & - & - O & & - & & ; & - & & & ; & & & ; ; O & & & ; ; ; - & & ; O & ; & ; ; O & & & X X & & & ; X ; ; ; ; X X X # ; ; X X # X ; X X X ; ; X o o X X X o . X X   o X   X X o X o   X X X o o o o     o   o   X o o o o   o   o o o o   o o   o   o   o o   o                                                                                                                                         X ",
"X                                                                                                                                       o                 o     o o   o   o o o   o o o o o o o X     X o o o o o X X X o X X     X X X o o o X X X o o X X X X X o X X X X X ; X X O X X ; ; ; X X ; ; & X X ; ; ; & X O ; ; ; O X X & & & ; O ; & & & ; X & & - ; O & & & & ; O & & - ; X & & & & ; ; & & - & ; ; - & & ; O & & - & ; ; - & - ; ; & & - ; O ; & & & & X ; & & & X O ; & & ; X ; & ; & X X ; ; & ; o X ; ; & X X ; O & X X X ; O ; X o X X X X X o X X X o   X X o X X   X X X X   X o X X   o o o O o o   o o X     X o o o     o o o o     o o         o o           o                                                                                                                                     X ",
"X                                                                                                                                 o               o   o       o o   o     o   o o o o o   o o o     X   o o o o o     X   X   X   X X X X o X o X X o X X o X o X X o X X O X X X ; X X X X X X X X X X X O X X ; X & X ; ; ; ; ; ; ; ; ; ; ; ; & ; O & & & O ; ; ; # ; & ; ; ; ; # ; ; & & & & ; & ; ; & ; ; ; O ; & ; & ; ; ; ; ; ; & ; & X & ; ; ; & X - ; ; & ; ; ; ; ; & ; & ; ; ; ; ; ; ; ; ; O ; O ; ; # X ; X ; ; X X ; X ; X o O X ; X X X ; X X X X X o X X X o X X o X X o X o X o   X   X     X X   X o o o o o o o   X     o o o o o o o o o   o o     o     o         o       o                                                                                                                                 & ",
"&                                                                                                                                             o           o   o     o o       o   o o     o o o   o o o o o o o o X o o X o o O o o X   o o X o X X X X o o o X X X X o X X X X o X ; X X X X X ; ; X X X ; ; ; X X X & X ; X X ; ; ; O X ; & ; & X ; ; & - X X ; & ; & ; X ; & & ; X ; - & & X ; ; - & ; ; ; & & & ; O ; & & & ; X ; & & ; X & & & - X X ; - & ; ; X # & & & X ; & O & X X ; & ; X X X & ; O X X ; ; ; ; X X X ; ; X X X X ; X X o X X X X o X X X X o o X X X o X o o X X   o o X o X X   O o o o o o o o o o   X o X       o o     o   o           o o         o                                                                                                                                           X ",
"X                                                                                                                                                     o o       o       o o o   o     o o o   o   X o o o o o o       X o o o o X o X X o o o O X X o o X X X o o X X X X o X X X X X o X X X X X X X ; ; X X X ; O & X X ; ; ; O + X # & ; X X & O ; ; o X & & # O X ; ; & ; ; X & ; & O X X & & ; ; O ; ; & & X ; & & & X X & & & ; ; X & & O X X X & & ; X X ; ; & O X X & O ; X X X ; ; ; O X ; ; ; X X X ; O ; X X ; O & X X X ; X O o o X X X X o X X X X o o X X X o   X o O o o X o X X o   X o   X   o o o o o o o o o X     o o o o o   o o o       o o o       o   o               o                                                                                                                               X ",
"X                                                                                                                               o         o                       o o     o   o o   o   o o o o   o o   o o o o X o o o o o o o   X   X o o   X   o o X O o X o o X o o X o X X o X X X X X X X X X X X X X X X X X X X X ; O ; + O ; ; X ; ; X X X X & X X X X ; ; X ; ; O ; O ; ; O ; ; ; ; ; X - X ; ; ; ; ; & ; ; X & X ; ; ; ; ; ; ; ; ; ; ; X ; ; X ; ; ; ; O ; # X # ; X ; X X & X ; ; X O ; X X X X X X X X X X X X X X X X X X X o X X X X X o o X X X X o o o X X X o X X X o o o   o X     X X   o o o o   o o o o o   X       o o   o   o   o   o o     o         o                                                                                                                                               X ",
"&                                                                                                                                               o           o   o       o     o     o o   o   o   o   X o o   o   o o o o o o o o o     o o X o X o o o o o o X O o o o X X X o X o X X X X X o X O X o o X ; ; X o X ; X X X X ; ; X X X X ; X & X X ; & & ; X X & ; # O + ; & ; ; X X ; & ; ; X ; ; ; ; O O ; ; ; ; X X & ; & X O ; & & ; X X & & & X X O & & ; X X O ; ; X X ; # & X X O ; ; ; X X X ; ; ; X o X X ; X o o X X X o o X X X X o o X X X o o o X X X o   X o X o o o o X X o   X   X   X   o o o   o o o o o o   o   o o     o   o             o   o           o       o                                                                                                                                     & ",
"X                                                                                                                                                                 o       o   o     o   o o     o o o o o o o o o o o o o o o o X   X   o o o X o o o o o o O X X X X o X X   X X X o   X X X X X o X X X X X X X X X X X X X X X o X ; X ; X X ; X ; ; X X ; ; ; X X ; ; ; ; X X ; ; ; ; X X ; X & X X ; & O ; X ; & ; ; ; X ; ; ; & X X ; ; ; O X O # ; ; X X & X & X X X ; O ; X o ; X X X X X ; X X X o X O X X X o X X X X X X X O o X X X X X X   o X o X o o X X   o X o X o o o o o O X O     o o o o   o o o o     o o o       o     o   o   o       o   o       o o                                                                                                                                                 X ",
"X                                                                                                                                           o                       o               o   o     o o   o o   o   o o o o o o o o o   X   X   X X   X o o o o o X   o o   o o   X   X X X o X X   X o o o X X X X X o X X X X X X o X X X X X X X X X X X O X X X X O X X X X X ; O X ; X O ; X ; O X ; O X X X ; ; X X O X ; X X O X X ; X X ; X ; X ; X X X ; X X ; X X X X X X X ; X X X X X X X X X o X X X X o X X X X X X X o X . X X X   X X   X X   o X o o o o X o X   o o o o o o o o o   o o o o o o o   o o   o o o o   o o o       o   o   o   o           o                                                                                                                                                         X ",
"&                                                                                                                                                                     o         o o o       o o   o   o o o   o o o o o o o o o   X   X o o o     X o o o o   X X   X   X X X X X   o X X   o X O X X o   X o X X X X o X X X o X O + X o X X X O . o X X ; X X X ; ; ; X X X X ; X X X ; X X X X X ; ; ; X X ; ; ; X X X ; ; ; X o O ; ; X o X ; X ; X o X O ; X X X X X X X X X X X X X o X X X X X X ; X X o o X o X X X   X X X o o X X o X X   X X X o o o X X o o X X o X o o   o   X o o o o o o   o o o o o o o o o o       o o     o     o       o o       o                                                                                                                                                         & ",
"X                                                                                                                                                                 o       o   o       o   o     o         o o o o     o o o o         X     X X o o o o X o o X   X o X X     X o X o X X o X X o o X X X o X o o X X X X X X X X o X X + O X o X X ; X o X X X X X o X X X X X X X X X X X X ; X X o X ; X X ; X o ; X X X . X ; ; ; o X ; ; O X o X ; ; ; X o X X X X X X X X X X X X X X X X X X X ; o o X X X X X   X X X X o   X o X     X X o X o X X o X X o o o   X     X o X o   o o o o   o o o o   o o   o o o     o   o     o o o         o         o           o                                                                                                                                                 X ",
"X                                                                                                                                                                   o       o       o               o     o   o o   o o o o o o X   o X     X     X   X   X X   o X o   o o   X o X o o o X X o X o X o X   X   X X X X X X o X o X X X X X X X X o X X X X X X X X X X X X X X X X X X X X X o X & o X X X X X X X O X X o X X X X O + X ; X X + X X X X X X X X X X X X o X o X X o X X X o X o X X X o X X X X X   X X o X X X   X   X o X X X X   X o o o O   X   X   X o X   X     o o X   o o   o o o o   o   o o   o o   o o     o   o   o               o     o   o                                                                                                                                                   X ",
"&                                                                                                                                           o                                     o o   o o   o o   o o o         o o         o X   o     X o o     X o o     X   X   X o o X o o   X X o o   X X o o o X X X X X   X X X X X X X X X o o X X X X   X X X X o X X X X X o X X X ; O X X ; X X X o X ; ; X X X X ; X X . X X O X X o X X X X o X ; O ; o o X X X X X X X X X X X X X X X X o X X X X o X X o X o X X X X X     X X X o X o o o X   X X o o o o o X   X       X o   o   X X   o   o o o o     o o o       o o o     o o             o         o                                                                                                                                                                 & ",
"X                                                                                                                                                               o   o     o   o     o o   o o   o   o     o o o o     o o o                 X o X     o   X X   o o O o o o   X X X   o o o O o o o X o X   X   X o   X o X o X o o o X X X o o X X X o X X X X X o o X X X X o o X X X X X X X X O X o X X X X o o X X X X X o X X X X o X X X o o X X X X X o X X X X o X X X X o o X X X X o X o X X X   o X X X   o X o X   X o X X X       X X     X o O o     o X o X     o o X     X o   o     o o o o     o o o     o   o o     o     o   o o                                                                                                                                                                         X ",
"X                                                                                                                                                                             o                 o       o       o     o o   o o   X   X o         o     X   X   o   X o o o X o o X o o o o o X X o X o X   X X X X o   o X o X o X o X o X o X X X X X   X X X X X X o X X X X o o X o X X X X o X o X X X X X X X X X X X X X X X X o X X X X X X X X X X o X X o X X o X X X X X X X o X X X X X   X X   X X X o   X X X o X X   X   X X o X     X X o o   o o X   o X       o X o         X o   o o   o o   o             o   o         o                   o                                                                                                                                                             X ",
"&                                                                                                                                                                                                     o         o o       o o   o     o o o o   o o X       o X o o o   o o o o     X X o o o o o X X     X   o   o X X X o o o X X X o   o X o X X o X X X X   o X X X o o X X X X o o X X X X o X X X X o o X X X X   X X X X o o X X X X o o X X O o o X X X X X o X X X o o o X X X o X X o X o   o X o X o o O X X o o   X   X X   o o X   o o O o o o o o O o o o   o o o       o o o o   o o o o   o o o o       o o o     o   o       o                                                                                                                                                                               & ",
"X                                                                                                                                                                                       o         o o     o o o o     o o o o   o o o o     o o X     o X   o     o o o o o   O X o   o o o o o o X o o X X X o X X X   o o o O o o o O   X X X o X X X X     X X o X X X O X o o X X X X X   X X X o o X X X X o X X X X X X o X X X o X X O X X o o X X X X o o X o X o o X X X X o o o X o o o X X o o o o o o o o o o X o X     o o X X   o o o     o o o o     o o o o o o   X X o     o o o     o   o   o   o o o               o                                                                                                                                                                                       X ",
"X                                                                                                                                                                                               o         o           o   o       o   o o   o         o o   o o o o o o o o o o   X   o o o o o o   X X X X X   X   o   o X o o o o o X X X   X X o o X X X X X o   o X o o X o o X o X   X o X X X o X X X X X X X X o X X X   X o o o o X o o o o X X o X o X X o X X o o X o X o o X o o o o o X o X O o o X o o o   o X X   X   o   o o o X o o o o   o o o     o o o o o   X   X   o   o   o       o o     o   o       o   o o                                                                                                                                                                                           X ",
"&                                                                                                                                                                                                     o     o   o o   o     o o o     o o o o     X o   o   o o o o     o o o o     O o o o o o o X       o   X o   X X o o o o X X o o   X X X o     X X o     X X X X o o X o X o o o X X X X o o X X o X o X X X o     X X X X o X X X o o X X X X o o o X X X o   X O X o o o X o O o o X X o X   X o o o o o o X X o     X X   X   o o X   o o o o o o   o o o o     o o o         o o o   o o o o     o o o       o               o     o                                                                                                                                                                               & ",
"X                                                                                                                                                                                                 o         o o   o       o     o o   o     o o o       o o o o o o o o X o   o X o X   o o o o     o     X     o o o o o o O o o o o O X o     X X o O o o o X X o X X   o X   o X o X o   X X X X o o X o X X X o X X X   X X X X X X X X X o o   o X X X o o X X o o   X X o X o X X o X o o o   X o X o o X O o   o o o O o o o o o o o   o o o o   o o   o o   o o o o   o   o o o   o o   o     o o   o         o   o   o                                                                                                                                                                                               X ",
"X                                                                                                                                                                                                                 o   o   o   o   o       o o     o o o o   o     o o o     o o           X o o X X o X o X   X o o O     o   o o o o o   X X X o o o o o o X X X X   X X X X X X X X X o X o o   X X o o X X o   X X   o X   X o o X o   X   X o X X o o o o o o   o X     X X o o   X o X X   o X X o o o o o o o o o o     o o o o o o o o o o o o o   o o o o   o o o   o   o o       o       o o     o       o                                                                                                                                                                                                           X ",
"&                                                                                                                                                                                                                   o       o   o     o o   o     o o     o   o o o       X X   X   o o o o     o o     X o X     o o X o X o o o o o o   X o o X o   o o X o o   X   X     o o X X o o X X X   o X o X X o   X X X X   X o o o X   o X o X   X X o O   o o o o X     X o X X   o o X o X     X X       X o o   o o o o o o o o o o o   o o o o   o o o o o   o o o o     o o o     o o   o   o o   o       o   o                                                                                                                                                                                                             X ",
"X                                                                                                                                                                                                   o                 o               o         o     o o     o   o o o       o       X     X X     X     o     o o o   o o o o o o o o X       o o X o o o o o   X   o X   o X   o o o o     X o o     X   X       X   X X   X o o X   o X o o   X o o o o o o   X o X   X X o o     X o o o     X X   X     X o o o o o o o o   o o o o   o o o o o o   o o o       o o o     o o o       o         o                                                                                                                                                                                                                       & ",
"X                                                                                                                                                                                                                                                                 o o         o   o       o o       o o o o o   o   o   o o o o o o   o o o   o o o o o o o o o o   o o o o O o o o o o o o o o o X   o o o O o o   o o o o o o o o o     o o o o   o o o o o o o o o o o o o o o o o o o o o o o o o o o o o o o o o   o o o   o   o   o       o         o o           o       X         o                                                                                                                                                                                                                                   X ",
"&                                                                                                                                                                                                                                       o         o o         o   o     o o o o     o o o     o o o o     o o o o   o o o o     o o o o   o o o o     o o o o o o o o o       o o o o o o o o     o o X o o   o o o o   o o O o o o o O o o   o o O o o o o o o o o o o o o o   o o o o     o o o     o o o o     o o o o     o o o       o o o     o   o         o o     o                                                                                                                                                                                                                                                   X ",
"X                                                                                                                                                                                                                                                 o       o o         o       o   o       o   o o o o   o o   o o o o o   o   o o o o o o o o   o o o o o o o o o o   o o o o   o o o o o o o o o X     o o o o o o o o o X   o o o o o   o o o o   o o o o   o o o o o   o o o o o o o   o o   o o o o     o   o o o   o   o o o   o o o o   o o o       o   o       o       o                                                                                                                                                                                                                                               & ",
"X                                                                                                                                                                                                                                             o         o           o   o           o   o     o       o o   o     o o   o o o o o   o o o o o   o o o o o   o o o o o o o o o o o o o o   o o o   o o o o o o o o   o o o   o   o o o   o o o o o o o o o o o o o o o o o o o o o o o o o o o o   o o o o   o o o o     o   o     o o   o         o o     o         o           o o     o           o                                                                                                                                                                                                                         X ",
"&                                                                                                                                                                                                                                                             o   o       o   o     o o           o       o o o       o   o     o o o       o o o     o o o o     o o o     o o o o o   o o o     o o o o     o o o o o   X   o     o o o o   o o o o     o o o o   o o o o     o o o o     o o o       o o o     o o o       o o o       o o o     o   o           o                 o                                                                                                                                                                                                                                       X ",
"X                                                                                                                                                                                                                                                                                 o       o   o     o o o       o o o     o o o o     o o   o   o o o o o   o o o o   o o o o o o o o o o     o o o o   o o o o     o o X     o o o o o o o o o o   o o o o   o o o o o   o o o o     o o   o o   o o o     o o o   o   o o o       o   o       o         o   o         o                                                                                                                                                                                                                                                     & ",
"X                                                                                                                                                                                                                                               o           o     o o   o                         o o           o o o     o o   o   o o o o     o o o o o   o o o o o   o o o o   o o o o   o o o o o   o o o o o   o o o o o o o o o o o o   o   o o o o o     o o o       o o o     o o o o   o o o o o     o   o   o   o   o o   o         o   o o         o   o                                                                                                                                                                                                                                                           X ",
"&                                                                                                                                                                                                                                                     o                 o           o   o     o o         o o o       o o o     o o o     o o o o       o o       o o o     o o o o     o o o     o o o o     o o o o     o o o o   o o o       o o o     o o o o     o o o o   o o o o     o o o       o o o     o o         o   o     o o         o               o                                                                                                                                                                                                                                                         X ",
"X                                                                                                                                                                                                                                                                                       o             o o       o   o     o   o     o o   o     o   o o   o o o o o   o o   o o   o o o     o o   o o   o   o   o   o o o o   o o o o   o o o o o   o o o o o   o   o o   o o   o     o o   o     o   o       o o o   o   o   o   o                                                                                                                                                                                                                                                                                           X ",
"X                                                                                                                                                                                                                                                 o                                       o   o   o o           o   o   o   o     o   o   o   o o o o       o   o   o   o   o     o   o       o o o     o o o o   o o   o       o o o     o o o o     o o o     o   o o     o o o   o     o o   o o   o o     o         o   o             o       o     o     o                                                                                                                                                                                                                                                               & ",
"X                                                                                                                                                                                                                                                                                               o           o       o o         o   o       o o o       o o o     o   o     o o         o o o       o o o     o o o       o o o     o o o       o o       o o o o     o o o o   o o o       o o o         o       o               o     o                                                                                                                                                                                                                                                                                     X ",
"= & X & X X & X X X X & X & X X & X X & X X X & X X X & X X & X X X X & X X & X X X X & X & X X X & X X X X ; & & X & X & X & & X X & X X X & X & & X X X X & X X & X & & X & X & ; ; ; X & X & & X & X & & X & X & & X & & & & ; & & & X & & # ; & & & & & O & & - O & - & & & & & & & & & & & & & & & & & & & & & & & & & & & & & & & & & & & & & & & & & & & & - & & - & & & & - & - * & & & & & & & - & & & & & - & - & & & & & & & & - & & & & - & & & & & & & & & & & & & & & O - & & & & & & & & & & & & & & & & & & & & ; - & & - & ; & & & & O & & & - & & & & & & & & O & & ; & & ; & & X & & & X & & X & & X X & & X & & X & X & X & & X X & & X X & X & X & & X & X X & X & X & X & X & X & X & X X & & X & X X & X X & X X & X X & X & X X X & X X X X X & X X & X X X X & X & X X & X X & X X X & X X X & X X X = "
};
