/* XPM */
static char *NinjaMesh_Attach[] = {
/* columns rows colors chars-per-pixel */
"75 24 153 2",
"   c #070707",
".  c #0B0B0B",
"X  c #131313",
"o  c #1D1D1D",
"O  c #252525",
"+  c #222B2B",
"@  c #2B2B2B",
"#  c #273939",
"$  c #333333",
"%  c #343D3D",
"&  c #3B3B3B",
"*  c #274747",
"=  c #224E4E",
"-  c #3B4141",
";  c #235151",
":  c #365252",
">  c #325D5D",
",  c #0B6969",
"<  c #1D6464",
"1  c #197777",
"2  c #2E6E6E",
"3  c #217272",
"4  c #444444",
"5  c #454A4A",
"6  c #4B4B4B",
"7  c #544E4E",
"8  c #4B5555",
"9  c #475F5F",
"0  c #535353",
"q  c #5B5454",
"w  c #5B5B5B",
"e  c #646464",
"r  c #6B6B6B",
"t  c #747474",
"y  c #0C8585",
"u  c #058D8D",
"i  c #0D8E8E",
"p  c #1D8585",
"a  c #108C8C",
"s  c #029696",
"d  c #0A9393",
"f  c #049C9C",
"g  c #0A9898",
"h  c #03A4A4",
"j  c #01ADAD",
"k  c #12AEAE",
"l  c #03B1B1",
"z  c #0BB3B3",
"x  c #0CBBBB",
"c  c #11BCBC",
"v  c #29A1A1",
"b  c #39BABA",
"n  c #7E8080",
"m  c #69B9B9",
"M  c #77B4B4",
"N  c #03B3DE",
"B  c #00C4C4",
"V  c #0DC7C7",
"C  c #01CBCB",
"Z  c #09CDCD",
"A  c #10C0C0",
"S  c #18C4C4",
"D  c #15CECE",
"F  c #19CBCB",
"G  c #02D3D3",
"H  c #0BD2D2",
"J  c #00DBDB",
"K  c #15D4D4",
"L  c #13DDDD",
"P  c #1FDBDB",
"I  c #2CC1C1",
"U  c #20CECE",
"Y  c #2FCCCC",
"T  c #2BD5D5",
"R  c #29DFDF",
"E  c #38D4D4",
"W  c #34DADA",
"Q  c #02E5E5",
"!  c #0BE2E2",
"~  c #02EBEB",
"^  c #0DEFEF",
"/  c #01F2F2",
"(  c #00FAFA",
")  c #22E3E3",
"_  c #2BE3E3",
"`  c #21EEEE",
"'  c #3AE5E5",
"]  c #38F6F6",
"[  c #47D1D1",
"{  c #40DDDD",
"}  c #54D1D1",
"|  c #5AD0D0",
" . c #62C2C2",
".. c #6CD7D7",
"X. c #72DDDD",
"o. c #44EBEB",
"O. c #53E6E6",
"+. c #4CF6F6",
"@. c #47F9F9",
"#. c #4DF8F8",
"$. c #5DF1F1",
"%. c #55FFFF",
"&. c #64EDED",
"*. c #6FF2F2",
"=. c #6CFDFD",
"-. c #72F7F7",
";. c #7EF7F7",
":. c #7DF8F8",
">. c gray51",
",. c #8B8B8B",
"<. c #9D8484",
"1. c #949494",
"2. c #9C9C9C",
"3. c #A38A8A",
"4. c #A19F9F",
"5. c #AA9C9C",
"6. c #B09B9B",
"7. c #85ABAB",
"8. c #96A3A3",
"9. c #91BDBD",
"0. c #A3A3A3",
"q. c #ACACAC",
"w. c #BDA3A3",
"e. c #B0AFAF",
"r. c #B4B4B4",
"t. c #B6BBBB",
"y. c gray74",
"u. c #C1ADAD",
"i. c #C2B1B1",
"p. c #C8B3B3",
"a. c #C4BBBB",
"s. c #CEBFBF",
"d. c #86DCDC",
"f. c #91DFDF",
"g. c #C5C5C5",
"h. c #CBCBCB",
"j. c #D3CCCC",
"k. c #C6D0D0",
"l. c #D2D2D2",
"z. c #D8D6D6",
"x. c #DADBDB",
"c. c #F3CBCB",
"v. c #DFE0E0",
"b. c #E2E2E2",
"n. c #EBE7E7",
"m. c #E4EBEB",
"M. c #EAEAEA",
"N. c #FAE3E3",
"B. c #F2ECEC",
"V. c #FDECEC",
"C. c #F3F6F6",
"Z. c #FEF3F3",
"A. c #F7FAFA",
/* pixels */
"X >.2.1.,.1.1.2.1.2.2.2.2.2.4.2.2.0.2.0.0.8.0.0.0.0.0.q.0.q.0.q.0.q.q.0.q.q.q.q.q.e.q.e.q.e.e.q.e.e.q.q.q.e.q.e.q.e.e.q.q.q.q.q.q.q.r.q.q.q.q.q.q.q.r.",
". t e w e e e e e e e e e e e r r e r e e r r e r e r r r e r r r r r r r r r r r r r r r r r r r r r r r r r r r r r e r t r r r r r r r r r r r t q.",
". t 0 0 8 0 0 0 q 0 8 : 1 g j j j l j j h g i u s a w 0 0 w w w w 0 w 0 w 0 w w 0 q w 0 w w 0 0 w 0 w w w 0 0 w w w 0 w w 0 w w w 0 0 w 0 0 0 0 0 w 0.",
"X t 0 6 0 0 0 0 w 8 : 3 d j l l j j j j j h f h j h w w w w w w w w w w w w w w w w w w w w w w w w w w w w w w w w w w w w w w w w w w w 0 0 0 6 w 0.",
"X r 0 6 6 0 0 w 0 5 1 b W T U S c z l l h h j C J G w w w w w w w w w w w w w w w w w w w w w w w w w w w w w w w w w w w w w w w w w w w 0 0 0 0 w 0.",
"X r 0 0 0 0 w q 8 - v %.=.-.&.O.{ T F A z l C ~ ~ Q w w w w w w w w w w w w w w w w w e e w w w w w w w w w w w w w w w w w w w w w w w w q 0 0 0 w 0.",
". r 6 6 6 0 0 w 7 9 b @.=.;.;.-.$.o.R K S H ! / ~ G w w e w e w w e w e e w w w w w w e w w w w w w w w w w w w w w w e e w w w w w w w w 0 0 0 0 w 0.",
"X r 6 6 6 0 w r <.8.[ ` ] +.+.+.o.o.R L H L ^ ~ Q Z e w w w w w w w w w w w w w 0 N w w 0 0 N q 8 N w e e w w e w e w w w w w w 0 N w w w w 0 0 6 w 0.",
". e 6 6 0 e >.8.w.e.m W W ' _ ` ) R R K H ! ^ ~ J V w w w w w w w w w w w w 0 4 N 4 N w 6 & N 6 & N w w q e w w w w w w w w e 6 & N w w w q 0 8 6 w 0.",
". e - t ,.q.r.e.q.0.2.7.M m  .} W L G Z H J ~ ~ J x w w w 0 w w w w w w w w 6 $ N $ N 0 & N N N N N N 0 6 N N N w w 0 4 N N q 4 @ N 4 N N 0 0 6 6 q 0.",
". w @ l.x.x.l.g.t.e.w.u.6.5.i.k.X.K G C H ! ~ ~ J x 0 0 0 w 0 w w 0 0 0 w 0 & @ N @ N 6 @ X N o X N 4 4 N @ $ - N 8 & N $ - N & O N N $ & N 6 6 6 0 0.",
". 7 O b.b.b.v.v.x.z.h.g.i.p.c.N.f.K C C G Q / Q C k 0 0 0 0 0 0 0 0 0 0 0 6 & N $ @ & N $ o N $ O N 4 $ & & $ $ N 4 $ N & & 6 & o N & $ $ N 6 6 6 0 0.",
". 6 O l.z.z.v.v.b.m.v.z.h.z.N.B.d.K C B Z ~ ( G d p 0 0 0 0 7 0 8 7 0 0 6 4 @ N N N N N & @ N % O N 6 4 & N N N N & @ N 6 4 6 & O N 6 % @ N 6 4 4 0 2.",
". 6 o h.l.l.z.z.x.x.x.z.l.b.Z.M...V C C G / ~ y = : 6 6 6 7 6 6 6 6 6 6 6 & o N O o o N & O N & O N 6 & N O o o N & O N 6 7 7 % O N 7 & O N 4 4 4 6 2.",
". 6 o g.j.l.h.l.l.h.h.h.h.x.Z.M.| C G G ~ / g * - 5 6 6 7 6 6 7 6 6 6 6 4 $ N @ & $ O $ N O N & O N & @ N $ o N N & O N 4 4 N & O N 6 $ O N 4 4 4 6 2.",
". 6 o g.l.h.h.l.h.h.h.g.h.x.V.n.d.Y x B J j ; & 4 4 6 4 4 4 4 4 6 4 4 6 & @ N 4 4 4 $ O N o N N o N N O @ N N o N & @ @ N N & $ O N 4 $ O N 4 & & 6 2.",
". 6 o r.h.h.h.h.h.h.g.g.g.z.n.M.m.d.2 , y < % 4 4 4 4 4 4 4 4 4 4 4 4 4 $ @ $ 4 4 4 $ $ @ O O @ O O $ $ O O O O $ 4 $ O O $ & $ $ $ 4 $ @ $ & & & 4 2.",
". 6 o q.h.h.h.g.g.h.g.g.h.z.m.C.V.<.$ @ # % - & - & & & 4 & & & - & - - & & & & & - & $ $ $ $ $ $ $ & & $ $ $ & & & & $ $ & 4 & $ % - & $ $ & $ & 4 1.",
". 6 o 2.l.l.l.h.h.g.g.g.g.z.C.A.p.q $ $ $ & & & & & & & & & & & & & & & & & & & & & & % & & & & & & & & & & & & & & & & & & & & & & & & & & $ $ $ 4 1.",
". 7 o 0 t 1.r.g.h.h.g.a.y.v.A.t.w $ $ $ $ $ $ $ $ $ $ $ $ $ $ $ $ $ $ $ $ $ $ $ $ $ $ $ $ $ $ $ $ $ $ $ $ $ $ $ $ $ $ $ $ $ $ $ $ $ $ $ $ $ $ $ @ 4 ,.",
". 6 O @ @ 6 t 1.q.r.y.t.g.b.x.r $ @ @ $ $ $ $ @ $ @ $ $ @ $ $ $ $ @ $ $ $ $ @ $ $ $ $ @ $ $ @ $ $ @ @ $ $ @ $ $ $ @ $ $ $ $ @ $ $ $ @ @ @ @ @ @ @ & ,.",
". e & $ $ & 0 r >.1.0.q.r.l.r.w 4 4 4 4 4 4 4 4 4 4 - 4 4 4 - 4 4 4 4 4 4 4 4 4 4 4 4 4 4 4 4 5 6 4 6 4 4 6 4 6 6 6 4 4 6 4 6 6 4 6 6 6 6 6 6 6 4 q 1.",
"  6 7 4 - & $ @ @ O @ O @ @ & 5 0 0 0 0 0 0 7 0 0 0 0 0 7 0 0 0 q 0 7 q 0 0 w 0 0 0 q q w w w q w w w w w w e w w e w e e e e e e e e r e e r r r r r ",
"      .                   .                           .       . .           . . . . . .   .   . . . .   . . . . . . . . . . . . X . . . . X . . . . X "
};
