/* XPM */
static char *Ninja_Fracture_IconB[] = {
/* columns rows colors chars-per-pixel */
"32 32 256 2",
"   c #2A1212",
".  c #2C1819",
"X  c #371616",
"o  c #3A1414",
"O  c #321A1A",
"+  c #3D1B1B",
"@  c #2C1D20",
"#  c #2D2225",
"$  c #2B242A",
"%  c #332224",
"&  c #3D2425",
"*  c #392629",
"=  c #3E292A",
"-  c #242C38",
";  c #332E34",
":  c #382E31",
">  c #322F38",
",  c #3E3030",
"<  c #3F363B",
"1  c #34353E",
"2  c #431515",
"3  c #4A1414",
"4  c #461C1C",
"5  c #4B1C1C",
"6  c #501F1F",
"7  c #5E1C1C",
"8  c #6F1E1E",
"9  c #771F1F",
"0  c #432424",
"q  c #4A2323",
"w  c #412C2D",
"e  c #4B2C2C",
"r  c #522323",
"t  c #592323",
"y  c #562C2C",
"u  c #5D2B2B",
"i  c #443232",
"p  c #4F3236",
"a  c #4B3A3D",
"s  c #44323A",
"d  c #513637",
"f  c #533438",
"g  c #622424",
"h  c #642929",
"j  c #6B2D2D",
"k  c #722323",
"l  c #7A2424",
"z  c #742B2B",
"x  c #7D2D2D",
"c  c #613232",
"v  c #6D3535",
"b  c #603638",
"n  c #613A3F",
"m  c #6C3B3B",
"M  c #713132",
"N  c #7A3434",
"B  c #773D3D",
"V  c #7E3D3D",
"C  c #293544",
"Z  c #333641",
"A  c #353841",
"S  c #3C404A",
"D  c #2A526B",
"F  c #37566D",
"G  c #47414A",
"H  c #48424D",
"J  c #5C494E",
"K  c #584C54",
"L  c #5D525A",
"P  c #684041",
"I  c #6E4A4C",
"U  c #704040",
"Y  c #7E4747",
"T  c #7F4A4B",
"R  c #6C4A50",
"E  c #694F58",
"W  c #644D55",
"Q  c #7D4D55",
"!  c #755959",
"~  c #735355",
"^  c #4F596D",
"/  c #486479",
"(  c #63646F",
")  c #636D7D",
"_  c #746C79",
"`  c #812121",
"'  c #8A2424",
"]  c #8C2E2E",
"[  c #852A2A",
"{  c #922525",
"}  c #962B2B",
"|  c #823333",
" . c #8B3535",
".. c #863B3B",
"X. c #8C3A3A",
"o. c #923434",
"O. c #993333",
"+. c #943C3C",
"@. c #9D3939",
"#. c #844243",
"$. c #8B4444",
"%. c #834B4B",
"&. c #8B4B4C",
"*. c #924444",
"=. c #9A4343",
"-. c #954B4B",
";. c #9D4C4C",
":. c #894F53",
">. c #914E51",
",. c #855454",
"<. c #8D5151",
"1. c #88575B",
"2. c #875959",
"3. c #895C5C",
"4. c #935151",
"5. c #935B5D",
"6. c #9D5A5B",
"7. c #A24444",
"8. c #A54C4C",
"9. c #A35252",
"0. c #A95454",
"q. c #A75A5A",
"w. c #AC5B5B",
"e. c #8D6363",
"r. c #8F6969",
"t. c #8D636C",
"y. c #986467",
"u. c #9C6769",
"i. c #916C6C",
"p. c #9F6C6D",
"a. c #926266",
"s. c #826A76",
"d. c #906E74",
"f. c #8A7079",
"g. c #937070",
"h. c #AA6363",
"j. c #A36C6D",
"k. c #AD6A6B",
"l. c #B16363",
"z. c #B56C6C",
"x. c #A37376",
"c. c #A07A7E",
"v. c #AC777B",
"b. c #B77171",
"n. c #B97373",
"m. c #B5787A",
"M. c #BD7B7B",
"N. c #3F6E8F",
"B. c #3C6785",
"V. c #3E7290",
"C. c #426984",
"Z. c #556C80",
"A. c #487491",
"S. c #407B9E",
"D. c #4D7F9D",
"F. c #437493",
"G. c #517E9D",
"H. c #696E85",
"J. c #6F7A8B",
"K. c #657488",
"L. c #74758B",
"P. c #7C7788",
"I. c #6F7990",
"U. c #437EA1",
"Y. c #8D7784",
"T. c #A07981",
"R. c #AB7E83",
"E. c #B07F82",
"W. c #5E829D",
"Q. c #67819B",
"!. c #77869D",
"~. c #4481A5",
"^. c #4C80A1",
"/. c #4985A9",
"(. c #4C8AAF",
"). c #528CAF",
"_. c #5784A4",
"`. c #4E8DB1",
"'. c #528FB3",
"]. c #5290B4",
"[. c #5595BB",
"{. c #5899BF",
"}. c #6787A3",
"|. c #7389A0",
" X c #6991AF",
".X c #7F92AD",
"XX c #6F97B4",
"oX c #769CBC",
"OX c #00A8FF",
"+X c #5097C0",
"@X c #539AC3",
"#X c #5A9DC3",
"$X c #549EC8",
"%X c #589FC8",
"&X c #57A2CE",
"*X c #5BA1C9",
"=X c #57A4D0",
"-X c #5DA6D0",
";X c #5FA9D3",
":X c #5AA9D8",
">X c #6CA6CD",
",X c #7CA2C2",
"<X c #61A7D0",
"1X c #62ABD6",
"2X c #63AED9",
"3X c #72ACD2",
"4X c #64B1DD",
"5X c #71B0D7",
"6X c #7CB2D5",
"7X c #66B5E3",
"8X c #6AB8E6",
"9X c #6BBBE9",
"0X c #72BEEB",
"qX c #79BFE8",
"wX c #7FBBE2",
"eX c #75C1ED",
"rX c #7BC2EC",
"tX c #7DC6F1",
"yX c #80869C",
"uX c #9B8998",
"iX c #B68084",
"pX c #BB8284",
"aX c #B78488",
"sX c #B8888B",
"dX c #A18A97",
"fX c #BA8D92",
"gX c #8B8EA2",
"hX c #8798AB",
"jX c #879AB2",
"kX c #8E9EB5",
"lX c #84A3BD",
"zX c #8CA0BB",
"xX c #A1AABE",
"cX c #B6A9B6",
"vX c #C28484",
"bX c #C18788",
"nX c #C58B8B",
"mX c #C69193",
"MX c #CA9494",
"NX c #C69799",
"BX c #CC9A9A",
"VX c #83A8C3",
"CX c #99B2CD",
"ZX c #89B1D1",
"AX c #8DBDDD",
"SX c #98B8D2",
"DX c #84BCE0",
"FX c #8ABEE1",
"GX c #9EC0DA",
"HX c #8FC3E3",
"JX c #84C7ED",
"KX c #89C7EA",
"LX c #87C8EE",
"PX c #8AC9EE",
"IX c #92C2E2",
"UX c #8ECCF0",
/* pixels */
"e 0 & & & & & & & w = w w w w w w w w i i w i i i i i i i p , # ",
"&.>.Y %.%.%.%.,.:.:.,.,.,.2.3.3.e.e.e.e.e.r.r.r.i.i.i.i.g.g.! , ",
"w.l.l.l.l.z.z.z.n.n.n.M.M.M.M.M.vXvXbXnXnXmXmXMXMXMXBXBXBXBXg.i ",
"w.l.w.l.l.l.z.z.z.n.n.n.M.M.M.vXvXvXvXbXnXnXnXMXmXMXMXBXBXBXg.i ",
"0.w.w.l.l.l.z.z.z.z.n.n.M.M.M.M.vXvXvXvXnXnXnXnXmXmXMXMXBXBXg.i ",
"0.w.w.w.l.h.k.kXFXFXAXFXAXAXAXFXkXdXpXaX3XAXDXDXAXKXGXGXcXBXg.i ",
"0.w.q.w.q.6.1X9XqXqXtXtXqXDXJXqXuXR.x.j.f.}.oX<X:XeXeXJXHXNXi.i ",
"0.0.q.9.$.m ).@X%X:X9X9X9X9X9X>Xm.j._ I J J K Z._.`.*XeXHXNXi.i ",
"8.8.0.t.b & ; C.U.{.<X7X8X9X4XY.b.g.f._ 6XK.< ; : / {.1XjXMXr.i ",
"8.8.8.hX|.G # @ Z /.[.#X2X2XP.j.x.,XrXeXrXPXlXa # * L Q.gXmXr.i ",
"=.$.*.2XqXVXa % . $ F G.G.K.y.a.!.8XeXeXeXrXJXAX( a ! g.sXmXe.i ",
"+.M j #X8XLXUXXX* O * H E 5.3. X4X8X8X8X7XeXrXJXUXhXg.E.nXnXe.i ",
"..r + '.1X0X0XtX}.p f R 1.:.P '.{.-X8X9X9X9X9X9XJXPXSXsXbXnXr.i ",
"| 4   '.*X-X[.H.:.Q H.gXzXH.0 C F.{.4X8X9X9X9X9X9XrXPXxXbXvXe.w ",
"| 4   './.N.W :.>.s.oX0XPXVX= @ C (.&X7X7X9X9X8X9XeXJXCXbXvX3.i ",
"| 4   B.s n #.:.L.XX8X0XJXPXI.% @ D ].@X@X*X*X*X*X-X8XZXpXvX3.w ",
"| q 4 f M #.&.J.8X7X7X7X8XrXJX) % - V.F.~././././.`.{.>XiXvX3.i ",
" .k j | X.Q :X&X$X$X[.{.@X=X4X5XW.> # ; 1 1 A 1 S L f.iXiXM.3.= ",
"o. . .+.x ^ ~.~.S.S.~.V.S.~.`.[._.p e e e e e e d I u.m.m.M.2.w ",
"O.O.+.x 6 X             . 0 v #.&.$.%.%.%.%.%.:.,.5.k.b.M.M.2.w ",
"O.@.o.z 6 4 4 q 0 q q q q y v -.9.q.q.w.w.h.h.h.h.z.z.n.n.n.2.w ",
"O.O.O. .[ | | | | ......X.$.-.8.0.w.w.w.l.l.l.l.z.z.z.b.n.M.,.& ",
"O.O.o.x OXOXOXOXOX7.=.7.8.8.8.0.0.w.w.w.w.l.l.l.h.6.OXb.b.b.,.w ",
"} } x 3 OX6 5 g  .7.7.7.7.8.8.8.8.0.0.0.w.w.w.l.>.U OXz.z.b.,.& ",
"} } k 2 OXz z [  . .OXX.OX=...OXOXOX9.9.$.OXOXOXm OXOXOXz.z.,.& ",
"} } 8 2 OXOXOXOXx t OXOX| N OXr u V OXV OXy c m OX. OX6.z.z.%.& ",
"} } 9 o OX5 g ] k + OXz | h r OXOXOXOXc OX#.B m y 0 OXh.h.z.%.& ",
"} } 8 o OXk l  .z 4 OX@. .h OXr + + OXr OX0.9.-.B y OXl.l.z.%.& ",
"{ } 9 3 OX} O.O.z 5 OX@.| t OXj 4 OXOXr OX9.;.-.OXy OXl.l.l.%.& ",
"{ ' 8 3 OX} } } k 5 OX@.x t g OXOX+ OXu j OXOXOXv r OXOXl.l.Y & ",
"{ { 9 7 9 } } O.l 7 x O.o.z t t u t N N u r u V V y c 4.w.l.&.0 ",
"{ { ' ` ' } } } } [ ] O.@.o.x |  . .+.=...V ..;.;.$.$.9.w.w.&.e "
};
