/* XPM */
static char *NinjaMesh_AlignSelMin[] = {
/* columns rows colors chars-per-pixel */
"84 24 256 2",
"   c #0E0E0E",
".  c #141414",
"X  c #191817",
"o  c #1B1B1B",
"O  c #1A1818",
"+  c #251F1D",
"@  c #1D2324",
"#  c #1E2728",
"$  c #1E2929",
"%  c #1F2E30",
"&  c #1C3234",
"*  c #1E3739",
"=  c #1C393C",
"-  c #252525",
";  c #2A2624",
":  c #202728",
">  c #252A2B",
",  c #2B2B2B",
"<  c #2E302F",
"1  c #243334",
"2  c #2D3233",
"3  c #243A3E",
"4  c #2D3B3C",
"5  c #29373B",
"6  c #343434",
"7  c #343A3A",
"8  c #3C3C3C",
"9  c #383332",
"0  c #45413F",
"q  c #1D3D40",
"w  c #223E41",
"e  c #2B3E42",
"r  c #353F40",
"t  c #1F484C",
"y  c #1D4E52",
"u  c #1C5156",
"i  c #1B555A",
"p  c #1E5A5E",
"a  c #234245",
"s  c #2D4245",
"d  c #2C464A",
"f  c #2D494B",
"g  c #24454A",
"h  c #344345",
"j  c #3E4444",
"k  c #354B4E",
"l  c #3B4A4C",
"z  c #31474D",
"x  c #234D53",
"c  c #2D4D53",
"v  c #324D51",
"b  c #3D4E50",
"n  c #2D5255",
"m  c #23565B",
"M  c #2B565A",
"N  c #20585F",
"B  c #2D5A5E",
"V  c #335457",
"C  c #365359",
"Z  c #3A5759",
"A  c #335A5F",
"S  c #395557",
"D  c #1E5C62",
"F  c #275B60",
"G  c #2C5E62",
"H  c #355C66",
"J  c #375F6A",
"K  c #1B666C",
"L  c #1E737B",
"P  c #2D6165",
"I  c #23656B",
"U  c #2F696D",
"Y  c #2C6368",
"T  c #3C646F",
"R  c #3B696D",
"E  c #376569",
"W  c #246C72",
"Q  c #2B6C71",
"!  c #3D6975",
"~  c #3D6D7C",
"^  c #366C71",
"/  c #22737A",
"(  c #2B757C",
")  c #29797F",
"_  c #32737B",
"`  c #3C737C",
"'  c #3F787E",
"]  c #39757A",
"[  c #444444",
"{  c #484544",
"}  c #4F4846",
"|  c #424748",
" . c #454A4B",
".. c #4B4B4B",
"X. c #404F51",
"o. c #445355",
"O. c #4C5354",
"+. c #435658",
"@. c #4C5759",
"#. c #4B5A5B",
"$. c #525353",
"%. c #525B5C",
"&. c #5C5C5C",
"*. c #445E63",
"=. c #4D5F62",
"-. c #436163",
";. c #4A6265",
":. c #4D6668",
">. c #526364",
",. c #536669",
"<. c #526A6C",
"1. c #5C6D6E",
"2. c #5F6565",
"3. c #436B73",
"4. c #4A6871",
"5. c #5F6F71",
"6. c #526F71",
"7. c #427075",
"8. c #4C747A",
"9. c #45767A",
"0. c #547275",
"q. c #517B7F",
"w. c #5C7678",
"e. c #656565",
"r. c #686868",
"t. c #747474",
"y. c #7B7B7B",
"u. c #68787A",
"i. c red",
"p. c #1A7A83",
"a. c #237A82",
"s. c #2B7A82",
"d. c #3D7D84",
"f. c #327E85",
"g. c #4C7D82",
"h. c #447982",
"j. c #547D81",
"k. c #507581",
"l. c #1F818A",
"z. c #1F8A95",
"x. c #1D8690",
"c. c #288289",
"v. c #35838A",
"b. c #3D838D",
"n. c #3B888F",
"m. c #368187",
"M. c #288691",
"N. c #218C96",
"B. c #2E8C96",
"V. c #2B8F99",
"C. c #348B94",
"Z. c #3C8991",
"A. c #24929D",
"S. c #2C929B",
"D. c #38939B",
"F. c #1F9CA7",
"G. c #2097A1",
"H. c #2398A3",
"J. c #2D99A4",
"K. c #239DA9",
"L. c #2B9DA8",
"P. c #359FA9",
"I. c #389FA8",
"U. c #3B9AA7",
"Y. c #28A1AC",
"T. c #35A4AE",
"R. c #3AA1AB",
"E. c #2FA8B3",
"W. c #24ACB9",
"Q. c #34A5B1",
"!. c #33ACB7",
"~. c #39AAB6",
"^. c #3FADB8",
"/. c #38A5B1",
"(. c #29B0BC",
"). c #35B2BD",
"_. c #42858A",
"`. c #4A8489",
"'. c #528084",
"]. c #5E8286",
"[. c #54868A",
"{. c #5D878A",
"}. c #5D888C",
"|. c #548A8E",
" X c #428D93",
".X c #488992",
"XX c #568C93",
"oX c #558892",
"OX c #49969D",
"+X c #52959B",
"@X c #53949B",
"#X c #608689",
"$X c #61898D",
"%X c #65878A",
"&X c #758283",
"*X c #768B8D",
"=X c #628D91",
"-X c #6F8F92",
";X c #6C999D",
":X c #6A979B",
">X c #439CA5",
",X c #4C9BA4",
"<X c #539CA2",
"1X c #689CA1",
"2X c #719EA2",
"3X c #44A5AE",
"4X c #4DA2A9",
"5X c #57A0A6",
"6X c #51A5AD",
"7X c #5DA1A7",
"8X c #4BABB3",
"9X c #43ABB3",
"0X c #54ADB5",
"qX c #58AFB7",
"wX c #40B4BE",
"eX c #52B3BD",
"rX c #5CB3BA",
"tX c #78A3A7",
"yX c #7AA4A8",
"uX c #7CAEB4",
"iX c #78B1B6",
"pX c #73B7BD",
"aX c #2DB7C4",
"sX c #33B9C6",
"dX c #36BBC7",
"fX c #47B7C0",
"gX c #4BB9C3",
"hX c #46BCC5",
"jX c #77BCC2",
"kX c #7BBFC4",
"lX c #33C3D0",
"zX c #48C2CD",
"xX c #55C3CD",
"cX c #7FC1C7",
"vX c #7BC3CA",
"bX c #47D6E1",
"nX c #848484",
"mX c #869698",
"MX c #939393",
"NX c #80AAAE",
"BX c #84BABF",
"VX c #A7A7A7",
"CX c #89BCC1",
"ZX c #83C5CB",
"AX c #89C3C9",
"SX c #81CCD3",
"DX c #8BCCD2",
"FX c #86D0D7",
"GX c #83D3DB",
"HX c #88D7DE",
"JX c #80D8DF",
"KX c #8BD8DF",
"LX c #91D0D5",
"PX c #84D9E0",
"IX c #8CDBE2",
"UX c #94DDE4",
/* pixels */
"o r.nXnXnXnXnXnXnXnXnXnXnXnXnXnXnXnXnXnXnXnXnXnXnXnXnXnXnXnXnXnXnXnXnXnXnXnXnXnXnXnXnXnXnXnXnXnXnXnXnXnXnXnXnXnXnXnXnXnXnXnXnXnXnXnXnXnXnXnXnXnXnXnXnXnXnXnXnXnXnXnXMXVX",
"o 6 r.r.r.r.r.r.r.r.r.r.r.r.r.r.r.r.r.r.r.r.r.r.r.r.r.r.r.r.r.r.r.r.r.r.r.r.r.r.r.r.r.r.r.r.r.r.r.r.r.r.r.r.r.r.r.r.r.r.r.r.r.r.r.r.r.r.r.r.r.r.r.r.r.r.r.r.r.r.r.r.nXMX",
"o 6 [ [ [ [ [ [ [ {  . Xq.| { { { | | { { { | { [ [ { | [ [ ..@X[.{ [ [ { { ..[  .{ [ [  .{ | { [  . .{ [ | [ {  .[ | [ [ [  .{ [ [ {  . .{ [ | { |  .{ | { { | | | r.nX",
"- 8 [ [ [ [ [ [  .7.R.sX).,X@.| [ [ [ [ { | [ [ [ [ [ [ ..0.0XzXzX5X#.0 [ [ [ [ [ [ [ [ 0 [ [ [ [ [ [ [ [ [ [ [ { { { [ [ [ [ { [ [ [ [ { [ [ [ [ [ [ { [ [ [ [ { { r.nX",
"o 6 [ [ 0 8 8 +.n.E.B.C.C.R.3Xq.[ [ [ [ [ [ [ [ [ 0 j @.XXgX4XOXOX8XqXj.| [ [ [ [ [ [ [ [ [ [ [ [ [ [ [ [ [ { [ [ [ [ [ [ [ [ | [ [ [ [ [ [ [ [ [ [ [ [ [ [ [ [ [ [ e.y.",
"o 8 [ 0 8 j _.R.D._ U P ^ ] Z.3X<X@.[ [ [ [ 8 [ 8 j XXeX4X|.'.q.'.[.+X0X7X#.[ [ [ [ [ [ [ [ [ [ [ [ [ 0 [ [ { { [ [ [ [ [ [ [ { [ [ [ [ [ [ [ [ [ [ [ [ [ [ [ { [ [ r.nX",
"o 6 0 8 -.>XT.m.^ A v f v Z R _.>X3X'.@.[ 0 8 8 ;.6XeX.X'.6.:.>.,.6.q.|.6XrX].#.0 [ [ [ [ [ [ [ { [  .e.j.nXr.} $.r.nXt.&.&.r.&.[ [ [ [ [ [ [ [ [ [ [ [ [ [ [ | [ [ e.nX",
"o 6 8 H wXR.m.3.S l r 7 4 h k -.9.D.fX8X+.8 8 -.fX3X`.8.:.=.#.@.%.%.,.0.[.@XxXrX=.[ [ [ [ [ [ [ [ 0 =.PXUXCXy.0 1XPXGXmX5.IX2X2.[ [ [ { [ [ [ [ [ { [ [ [ [ [ [ [ [ e.y.",
"o , 6 4XdX>X3.+.l j 8 7 6 6 r k Z d.U.lXg.8 6 ,XsX>X7.@.O.O.O.$.$.$.%.>.<.XXeXbX%X[ [ [ [ 0 [ 0 r 0 =.PXPXLXy.[ kXPXUXnX....r.r.e.t.t.t.j.y.$.{ [ [ [ [ [ { [ [ [ { r.nX",
"o > , <XH.f..X;.[ 0 8 8 6 6 , 7 E _ / K.9.6 , OXz.s.d.*.[ { ......$.$.%.XX,Xb.).$X[ [ [ 0 0 r 0 0 8 =.PXSXLXj.O.GXjXLXj.,.IXNX2.IXLXCXUXLXMXt.[ { [ [ [ [ | [ [ [ [ e.nX",
". - - <XV.M d ~ 4...[ [ r 9 h v = = i A.! , - Z.a.i w J *. .[ ....} ,.[.H f P ~.$X[ [ [ 8 r 8 8 9 8 #.IXuXZX*X0.CX1XSXj.=.IX2X..IXUX5.w.UXCXnX{ | [ [ [ [ [ [ [ [ [ e.y.",
". o o +XB.G e ; V 9.@.0 | *.c : o = i N.R - o v.p.u * + e T O.{ O.q.! 7 < f P /.$X[ [ [ [ 8 8 6 6 6 o.IX#XCX-X%XjXj.CXw.*.GX2X .IXZX....UXLXy.{ [ [ [ [ [ [ [ [ [ [ e.nX",
"  X O <XB.G e 2 ; < 3.8.3.e - + # = i N.T @ o f.p.y % @ + # H 3.3.z , ; 2 d P Q.{.[ [ [ 8 8 9 < , , X.UX{.2XuXuX-Xj.SX5.o.GX1X[ IXCX>. .IXSXy.[ [ [ [ [ [ { [ [ [ [ r.nX",
"  X . <XS.H h 2 < , + ~ e + - - > a N A.T o X f.p.u & @ o o O H e + , , 5 d P Q.{.[ [ 8 8 8 6 , , - l UX}.w.DXDXw.j.GX5.X.PX:Xr PXkX2.| PXCXy.[ [ [ { [ [ [ [ [ [ [ r.j.",
"  . . <XJ.Y z e < < ; T z - , > 1 g I L.^ . . b.z.D q # o o X d e + > > 5 c Q !.{.[ [ [ 8 8 < , - : l UX#X+.IXIXr oXPX=.Z vX=X7 PXjX$.| PXCXt.0 [ [ [ [ [ [ [ [ [ [ r.nX",
"  . X <XQ.s.H r e 2 ; T v ; 2 5 g F a.(.` O . D.K./ y * # @ X d 3 + > 1 s F a.aX[.[ [ [ 8 8 < , - + l UX#X- FXZX> $XPXb b PX{.7 PXjX9 l PXjX&.| [ [ [ [ [ [ | [ [ [ e.nX",
"  . . H ).S._ B f 7 , ! C 2 4 f F ( H.Q.h X . n W.N.W n = % o g 3 # 1 a N / G./.=.[ [ 8 8 r 9 , , - - - - - - > , , , , , - , , < 6 7 8 8 [ [ [ [ [ [ [ [ [ [ [ [ [ e.nX",
"  . . . Z 9XS.( P V 4 ` H s M P s.L.3Xl @ o . . n T.N.W N a & x t * t D / G.3X*.[ [ [ 0 8 8 9 , , - - - - ; , < , , , , , , , 6 < 6 8 8 [ 0 [ [ [ [ | [ [ [ [ [ [ [ e.y.",
"  . . . . @  XP.s.Q M b._ G Q V.^.`.6 > - o . . . @ Z.H.a.I y I i u K x.L.d.[ [ [ [ [ [ 0 8 r , < , , - , < , < < < < 6 6 < 9 6 6 9 8 8 r 0 [ [ [ { [ [ [ [ [ [ [ [ e.nX",
". X O . . . . V R.S.) U.C.c.!._.l 6 , , - o o . . . . M P.z.L M.a.p.K._ k 8 8 0 [ [ [ [ 0 8 8 9 6 6 < 6 9 2 9 9 9 2 9 6 6 6 6 6 9 7 8 0 0 0 [ [ [ [ [ [ [ [ [ [ [ [ e.nX",
". o o o . . . . # Z.!.dXsXR.-., < 6 6 , > - o O . . .   # v.Y.W.W.A.H < 9 8 8 r [ [ [ [ [ 8 8 r 9 r 6 9 r 9 8 8 9 r 8 r r 8 8 8 8 8 0 0 [ [ [ [ [ [ [ [ [ | [ [ [ [ e.nX",
". - - o o . . . . o V wX_.h , 2 6 8 7 6 < , - o o . . . . X n !.s.s > 6 8 r [ [ [ [ [ [ 8 [ [ 8 8 8 [ 8 8 r 8 r 8 8 8 8 r 9 8 8 8 j r [ [ [ [ [ [ [ [ [ [ [ [ 0 [ [ e.y.",
". o i.i.i.i.i.i.i.i.i.i.i.i.i.i.i.i.i.i.i.i.i.i.i.i.i.i.i.i.i.i.i.i.i.i.i.i.i.i.i.i.i.r 9 6 r 6 9 6 6 6 9 6 6 6 9 9 6 6 6 6 9 9 6 6 6 6 6 6 7 6 7 6 9 9 6 8 6 7 6 6 < e.",
". . . . .             . . X o o o o o o o o . . .             . . . o o o o o @ - + - - ; - - - - - - - ; ; - - - ; - - - - - - - ; > ; - - ; - ; - > - - - - ; - - - o "
};
