/* XPM */
static char *NinjaUV_TubeMapping[] = {
/* columns rows colors chars-per-pixel */
"64 32 45 1",
"  c #020202",
". c #070A07",
"X c #0B0B0B",
"o c #141414",
"O c #1C1C1C",
"+ c #242424",
"@ c #2C2C2C",
"# c #343434",
"$ c #3B3B3B",
"% c #004006",
"& c #004C07",
"* c #005408",
"= c #006509",
"- c #00700B",
"; c #434343",
": c #4C4C4C",
"> c #545454",
", c #5B5B5B",
"< c #646464",
"1 c #6B6B6B",
"2 c #737373",
"3 c #7C7C7C",
"4 c #00980E",
"5 c #00B411",
"6 c #00BC12",
"7 c #00CF13",
"8 c #00DB15",
"9 c #00F417",
"0 c #00FF18",
"q c #848484",
"w c #8B8B8B",
"e c #949494",
"r c #9B9B9B",
"t c #A4A4A4",
"y c #ABABAB",
"u c #B3B3B3",
"i c #BCBCBC",
"p c #C3C3C3",
"a c #CBCBCB",
"s c #D4D4D4",
"d c #DDDDDD",
"f c #E4E4E4",
"g c #ECECEC",
"h c #F4F4F4",
"j c #FCFCFC",
/* pixels */
"+rrrrrtrirrtrrttutttttttittyttytpttyyyyyiyyyyytyptyyytytpytyyyyy",
"Ow233333rqq3qq3qtqqqqqqqtqqqqqwqtwwqwqqwtwwqqwwqtwwwwqwwtqwqwqwy",
"O3>>>>>>q,>,>,,>q,,>>,>,q,,,,,>,q,,>>,,,q,,,,,,,q,>,>,,,q>>>>>,r",
"O2::::>>3>>>>>>>3>>>>>>>3>>>>>>>3>>>>>>>3>>>>>>>3>>>>>>>q>>>:>>w",
"O3::>>>>q>>,>>,>q>,>>>,>3,>>,>>>q>>,>>>,q>>>>,>,q>,>>>>,q>>>>:>r",
"O2:::>>,0,,,,,,,0,,,,,,,0,,,,,,,0,,,,,,,0wrtui,,0,,,,,,,0>>>>:>e",
"O1::>>,000,,,,,000,,,,,<qtuiu,,000,,,,,0>$>2wttup0,,,,,000>>>>>e",
"+r333300000qwq00000qqw#O,rpapi00000qqq87@O@1euiiis0qwq00000q33qy",
"O2::>,,000<,,,<000,,::@.+2tsfdy000<,,;:+OoX$qpdsaa,<<,,000,>>:>e",
"O2::>>>,0,,<<,,,0<,:$@+@#>wpgdppa,<,>#@O@;#;;$@:2eis,,<,0,,>>>>e",
"O1:::>,,q,,,,<,,q,:#+$<eq,rdhhhsp,>>$+@$wyw:+<ysaeeia,,,q,>>>>>w",
"O1::>>>,q,,,,,,,3>$+O:eat;$# X>wt,:#+@#<pdpw,2ifggaup,,,q>>>::>e",
"O1:::>>>q,,,,,,,2#+O+<pfu;;wfjjuqi:+o#,ughfqO:agjjjtu,,,q>>>::>w",
"o<;::>>>0,>,,>,>7+oo#rfdw$$wshjhyiuw>;uggt3#+++   +2y,>,0>>:::>w",
"O<;:::>000>>>,>07-o#O.  X##2shhhsuee,O  >ww,+O,ihjgytu>000>::::w",
"Ow2232000003q3007-%<ugjhu2#:ihhhhu112whjjhy;@o@3shjjdr000003233y",
"o<;::::000<3wrertw,3pgjsw2;#;;.;2$@#2ihjhd2oOoo#wpdjs3>000:::::q",
"o<;;;:::9O#3trrewq3tdjjaqq;#2djjjr o3fhjhp1oooooX   ;e>>0:::;;:w",
"o,;;;::;<+,gjjha2;<2rss2<q<>:rfhjge$$eppt22OoooOOOo@;::>3::::;:q",
"o<$;;;$+#o$ughhfq;<qrrq$:11:o;aghjjsww21><#OooooOo+$:>::3::;;;;q",
"o<$;;$@OOo+2ahjjartshjgw>>:#XO3uiutriddsw>;+OoooOO+;::::2::;;;:q",
"o,$;;#OX%ooO,erwwwwisie,:>OooXo;quyq3wew>;:$++O+-+$;::::0:;;;$;q",
"o,$$$#+%%%oXO<etw32ry3>,%%oooo @tghgpr2590:;$$$778;:::;000:;;$;3",
"oq111,-%%%%oo$qyiyew3>$>=*%OOOXo:rpppiq700012200000221000001112r",
"o,##$#+*&%oXoo+:121,#$+554OoooXoX$13qw1800;$;$$000;$;$;000$$$$$3",
"o,####@+=oXoooXXXooO#@##9#@oXooX .XoO+>#9$$$$$$$0$$$$$$$0$####$3",
"o>##@##@#oXXXXXXOXXoO@##1#@OXXXXOXXO@###1#######<#######<######2",
"o,######:OooXoXXOoO+@###<##+OoXoOXoo+###<#######<#######<######2",
"o<$;;;;;1$@+OOOO#+#$;;;;2;$$#+OO#OO+$;;;1;;;;;;;2;;;;;;;2;;;;;:3",
"o1,,,,,,w,,:::::1:,,,,,,q,<,,>::1:>>,<<<w<<<<<<<w<<1<11<w1111123",
" +@@@@@@@@@@@@@@@@@@@@@@@@@@@@@@#@@@@#@@@##@@#########$####$$###",
" .X.X.......XX......X..XXXX.X.XX.XX.X.X.X.XXXX.XXXXXXXXXXXXXXX.."
};
