/* XPM */
static char *Ninja_Mesh_Icon[] = {
/* columns rows colors chars-per-pixel */
"32 32 222 2",
"   c #0E0E0E",
".  c gray6",
"X  c #101010",
"o  c #131313",
"O  c gray8",
"+  c #151515",
"@  c #161616",
"#  c gray9",
"$  c #181818",
"%  c #191919",
"&  c gray10",
"*  c #1B1B1B",
"=  c gray11",
"-  c #1D1D1D",
";  c #1E1E1E",
":  c gray12",
">  c #202020",
",  c gray13",
"<  c #222222",
"1  c #232323",
"2  c gray14",
"3  c #252525",
"4  c gray15",
"5  c #272727",
"6  c #282828",
"7  c gray16",
"8  c #2A2A2A",
"9  c gray17",
"0  c #2C2C2C",
"q  c #2D2D2D",
"w  c gray18",
"e  c #2F2F2F",
"r  c gray19",
"t  c #313131",
"y  c #323232",
"u  c gray20",
"i  c #343434",
"p  c #353535",
"a  c gray21",
"s  c #373737",
"d  c gray22",
"f  c #393939",
"g  c #3A3A3A",
"h  c gray23",
"j  c #3C3C3C",
"k  c gray24",
"l  c #3E3E3E",
"z  c #3F3F3F",
"x  c gray25",
"c  c #414141",
"v  c gray26",
"b  c #434343",
"n  c #444444",
"m  c gray27",
"M  c #464646",
"N  c gray28",
"B  c #484848",
"V  c #494949",
"C  c gray29",
"Z  c #4B4B4B",
"A  c #4C4C4C",
"S  c gray30",
"D  c #4E4E4E",
"F  c gray31",
"G  c #505050",
"H  c #515151",
"J  c gray32",
"K  c #535353",
"L  c gray33",
"P  c #555555",
"I  c #565656",
"U  c gray34",
"Y  c #585858",
"T  c gray35",
"R  c #5A5A5A",
"E  c #5B5B5B",
"W  c gray36",
"Q  c #5D5D5D",
"!  c gray37",
"~  c #5F5F5F",
"^  c #606060",
"/  c #626262",
"(  c gray39",
")  c #646464",
"_  c #656565",
"`  c gray40",
"'  c #676767",
"]  c #686868",
"[  c DimGray",
"{  c #6A6A6A",
"}  c gray42",
"|  c #6C6C6C",
" . c gray43",
".. c gray44",
"X. c #717171",
"o. c #727272",
"O. c gray45",
"+. c #747474",
"@. c gray46",
"#. c #767676",
"$. c #777777",
"%. c gray47",
"&. c #797979",
"*. c gray48",
"=. c #7B7B7B",
"-. c #7C7C7C",
";. c gray49",
":. c #7F7F7F",
">. c #808080",
",. c #818181",
"<. c gray51",
"1. c #838383",
"2. c #848484",
"3. c gray52",
"4. c #868686",
"5. c gray53",
"6. c #888888",
"7. c #898989",
"8. c gray54",
"9. c #8B8B8B",
"0. c gray55",
"q. c #8D8D8D",
"w. c #8E8E8E",
"e. c gray56",
"r. c #909090",
"t. c gray57",
"y. c #929292",
"u. c #939393",
"i. c gray58",
"p. c #959595",
"a. c gray59",
"s. c #979797",
"d. c #989898",
"f. c gray60",
"g. c #9A9A9A",
"h. c #9B9B9B",
"j. c gray61",
"k. c #9D9D9D",
"l. c gray62",
"z. c #A0A0A0",
"x. c gray63",
"c. c #A2A2A2",
"v. c gray64",
"b. c #A4A4A4",
"n. c #A5A5A5",
"m. c gray65",
"M. c #A7A7A7",
"N. c gray66",
"B. c #A9A9A9",
"V. c #AAAAAA",
"C. c gray67",
"Z. c #ACACAC",
"A. c gray68",
"S. c #AEAEAE",
"D. c #AFAFAF",
"F. c #B1B1B1",
"G. c #B2B2B2",
"H. c gray70",
"J. c #B4B4B4",
"K. c gray71",
"L. c #B6B6B6",
"P. c #B7B7B7",
"I. c gray72",
"U. c #B9B9B9",
"Y. c #BBBBBB",
"T. c #BCBCBC",
"R. c gray",
"E. c gray75",
"W. c #C1C1C1",
"Q. c gray76",
"!. c #C3C3C3",
"~. c gray77",
"^. c #C5C5C5",
"/. c gray78",
"(. c #C8C8C8",
"). c gray79",
"_. c #CACACA",
"`. c #CBCBCB",
"'. c gray80",
"]. c #CDCDCD",
"[. c #CECECE",
"{. c gray81",
"}. c #D0D0D0",
"|. c gray82",
" X c #D2D2D2",
".X c LightGray",
"XX c gray83",
"oX c gray84",
"OX c #D7D7D7",
"+X c #D8D8D8",
"@X c gray85",
"#X c #DADADA",
"$X c gray86",
"%X c gainsboro",
"&X c #DDDDDD",
"*X c gray87",
"=X c #DFDFDF",
"-X c gray88",
";X c #E1E1E1",
":X c #E2E2E2",
">X c gray89",
",X c #E4E4E4",
"<X c gray90",
"1X c #E7E7E7",
"2X c gray91",
"3X c #E9E9E9",
"4X c #EAEAEA",
"5X c gray92",
"6X c #ECECEC",
"7X c gray93",
"8X c #EEEEEE",
"9X c gray94",
"0X c #F1F1F1",
"qX c #F3F3F3",
"wX c #F4F4F4",
"eX c gray96",
"rX c #F6F6F6",
"tX c gray97",
"yX c #F8F8F8",
"uX c #F9F9F9",
"iX c #FBFBFB",
"pX c #FEFEFE",
/* pixels */
"~ q.r.t.u.p.s.d.h.j.k.z.x.v.n.m.N.B.C.Z.S.D.F.F.H.J.K.L.P.I.U.~.",
"c / ) ' [ |  .X.O.@.$.%.=.;.e.z.j.l.q.7.w.r.y.i.p.s.f.g.j.k.l.U.",
"z ^ / ) ' [ } |  . ...#.3.n.E.`.|.[./.K.l.w.e.y.i.p.s.f.g.j.k.I.",
"k Q ^ / ) _ ` ' ` ' ' h.(.#X$X%X%X#X@XOX[.V.0.r.y.i.p.s.f.g.j.P.",
"h E Q ~ ^ ^ ^ ! ! [ 3.{.oX+X=X:X:X;X&XoX|.[.F.w.w.y.i.p.s.f.g.L.",
"g Y R E E R U L ! 7.R.|.XX*X<X3X4X3X,X%X.X'.~.a.1.r.y.i.p.s.f.K.",
"d I I U P J S C ` y./.'.@X>X5X0XwX9X3X-XoX_.!.S.%.0.r.y.i.p.s.J.",
"s J K H D B v V ..c.Q.].#X1X0XyXiXrX8X>XoX_.W.S.;.r.w.r.y.i.p.H.",
"p F S Z m z s Z 2.c.Y.'.$X2XqXiXpXuX9X>XoX).T.M.7.4.0.w.r.y.i.F.",
"y C V n k p q H 6.z.J.(.OX<X9XtXuXeX6X;X.X^.H.x.9.>.8.0.w.r.y.F.",
"t N n l a q 4 U 8.l.S.R.{.&X1X7X0X7X,X#X'.T.V.k.e.&.6.8.0.w.r.D.",
"w n z d r 5 > F 4.f.m.L.^. X%X:X,X;X#X}.Q.H.n.f.7.+.4.6.8.0.w.S.",
"q z h i 9 1 = B &.t.j.C.U.^.[.XXoX.X].~.U.C.l.u.*.=.2.4.6.8.0.Z.",
"9 k s r 5 > & j ] 3.t.k.C.L.R.!.^.~.E.P.A.z.i.7.' 1.,.2.4.6.8.C.",
"7 g p q 3 ; % 1 U  .4.e.g.b.Z.F.J.G.S.m.h.y.6.$.W 3.:.,.2.4.6.B.",
"6 d u 0 2 - $ @ z E o.<.7.t.s.k.z.l.g.u.8.<.*.Q  .-.;.:.,.2.4.N.",
"4 s y 0 2 ; $ + = U R  .=.>.2.6.8.7.5.>.*.o./ Q O.#.*.;.:.,.2.m.",
"3 a y 0 3 : % @ O 1 I Y ' X.#.$.$.#.@...[ R G _ | +.%.*.;.:.,.n.",
"3 p u w 5 , * # + O < b A J H E Q W R L H S L / | o.#.%.*.;.:.v.",
"1 p u e 8 2 ; & @ + O % 3 z E J J F C G B A T ( { ..O.#.%.*.;.x.",
"1 i u t q 6 < ; & $ # # # $ % = : 3 w d n G E ( {  .X.O.#.%.*.z.",
"< u u y r 0 5 1 : - * * * = ; , 4 q a z C L Q ( ] |  .X.O.#.%.k.",
"> w q pXt e 0 4 > pX< , < 1 3 7 w p k M F J J pX' [ |  .X.O.#.j.",
": 5 * pXpXy q > pXpX7 7 7 9 w t s k n A K N h pX) ' [ |  .X.O.h.",
"; < . pXpXu 7 o pXpXq 5 pXpXpXg g s pXpXpXb w pXG pXpX[ |  .X.d.",
"- ,   pX< pX1 pXX pX6 pX* , q pXu pX4 q x pX6 pXpXs Z pX[ |  .s.",
"= > o pX* pX- pX$ pX= pXpXpXpXpX0 2 pXpXf a , pXx j s pX' [ | p.",
"* : + pX# pX% pX& pX+ pX; * > u i 7 9 a pXf 4 pXP M r pX) ' [ u.",
"& ; O pX% # pX= & pX% pXq 9 0 pXd pXu e g pX7 pXY n w pX/ ) ' t.",
"% = O pX; @ pX, % pX; 1 pXpXpXr q e pXpXpXt 6 pXI v q pX^ / ) r.",
"$ ; $ > , * 2 3 ; 3 5 ; = , q a r 3 < 6 s f t v K M s C Q ^ / q.",
"O @ @ $ % $ * = * ; > = * : 3 6 5 1 < 4 q e q y s i u s k z c ~ "
};
