/* XPM */
static char *NinjaUV_AlignCenU[] = {
/* columns rows colors chars-per-pixel */
"75 24 124 2",
"   c black",
".  c #020202",
"X  c gray2",
"o  c #070707",
"O  c gray3",
"+  c #090909",
"@  c gray4",
"#  c #0B0B0B",
"$  c #0C0C0C",
"%  c gray5",
"&  c #0E0E0E",
"*  c gray6",
"=  c #101010",
"-  c #111111",
";  c gray7",
":  c #2C2C2C",
">  c #2D2D2D",
",  c gray18",
"<  c #2F2F2F",
"1  c gray19",
"2  c #313131",
"3  c #323232",
"4  c gray20",
"5  c #343434",
"6  c #353535",
"7  c gray21",
"8  c #373737",
"9  c gray22",
"0  c #393939",
"q  c #3A3A3A",
"w  c gray23",
"e  c #3C3C3C",
"r  c gray24",
"t  c #3E3E3E",
"y  c #3F3F3F",
"u  c gray25",
"i  c #414141",
"p  c gray26",
"a  c #434343",
"s  c #444444",
"d  c gray27",
"f  c #464646",
"g  c gray28",
"h  c #484848",
"j  c #494949",
"k  c gray29",
"l  c #4B4B4B",
"z  c #4C4C4C",
"x  c gray30",
"c  c #4E4E4E",
"v  c gray31",
"b  c #505050",
"n  c #515151",
"m  c gray32",
"M  c #535353",
"N  c gray33",
"B  c #555555",
"V  c #565656",
"C  c gray34",
"Z  c #585858",
"A  c gray35",
"S  c #5A5A5A",
"D  c #5B5B5B",
"F  c gray36",
"G  c #5D5D5D",
"H  c gray37",
"J  c #5F5F5F",
"K  c #606060",
"L  c gray38",
"P  c #626262",
"I  c gray39",
"U  c #646464",
"Y  c #656565",
"T  c gray40",
"R  c #676767",
"E  c #686868",
"W  c DimGray",
"Q  c #6A6A6A",
"!  c gray42",
"~  c #6C6C6C",
"^  c #6D6D6D",
"/  c gray43",
"(  c #6F6F6F",
")  c gray44",
"_  c #717171",
"`  c #727272",
"'  c gray45",
"]  c #767676",
"[  c gray47",
"{  c red",
"}  c green",
"|  c #838383",
" . c gray52",
".. c #898989",
"X. c gray55",
"o. c gray56",
"O. c #929292",
"+. c gray58",
"@. c #959595",
"#. c gray59",
"$. c #979797",
"%. c #989898",
"&. c gray60",
"*. c #9A9A9A",
"=. c #9B9B9B",
"-. c gray61",
";. c #9D9D9D",
":. c gray62",
">. c #9F9F9F",
",. c #A0A0A0",
"<. c gray63",
"1. c #A2A2A2",
"2. c gray64",
"3. c #A4A4A4",
"4. c #A5A5A5",
"5. c gray65",
"6. c #A7A7A7",
"7. c gray66",
"8. c #A9A9A9",
"9. c #AAAAAA",
"0. c gray67",
"q. c #ACACAC",
"w. c gray69",
"e. c gray100",
/* pixels */
"; | #.O.#.#.#.#.#.&.#.&.-.&.-.-.-.-.<.-.<.<.<.<.3.<.5.5.5.5.5.6.6.9.9.9.9.9.9.9.0.q.q.q.q.q.0.q.q.q.q.q.q.q.q.q.q.q.q.q.q.q.q.q.q.q.q.q.q.q.9.9.q.q.w.",
"& [ R P R R R Q Q Q ( Q ( Q ( ( ( ( ( ( ( ( ( ( ( ( ( ( ) ) ) ( ( ) _ _ ( ) _ _ _ _ _ _ _ _ _ _ _ _ _ _ _ _ _ _ _ _ _ _ _ _ _ _ _ _ _ _ ( ( ( ( ( ] 9.",
"; _ D N D N D G G G G G G G G G G G G G G G G G G G G G G G } G G G G G G { G G G G G G } G G G K G G G G G K G G G G G G G K G G G G G G D D N N G <.",
"; _ D M N N D G P G P P P P G P G P P G K K P K P P G P K } } } e.e.e.e.. { e.e.e.e.e.} } } P P P G P P P G P G P P P G P K K P P G P P G D N D D P <.",
"& ( N M N D D G P G P P P P G P K P K P P K P K P P K P . . } . . . . . . { . . . . . . } P K P P K P K P K P K P K P K P P K P P P P G G D D D N P <.",
"& ( M M N N G G P P P P P P P P P P P P P P P P P P P P P . e.P P P P P . { P P P P P . e.P P P P P P P P P P P P P P P P P P P P P P G G D D N N G <.",
"& Q N M N N G P G P P P P P P P P P P P P P P P P P P P P . e.P P P P P . { P P P P P . e.P P P P P P P P P P P P P P P P P P P P P P P G G D N N P <.",
"& Q M v N D D G P P P P G P P P P K P K P K P P K P K P G . } P P G P G . { P G K P K . } K K P P K P K P K P K P K P K P K P K P G P P G G D D N G -.",
"& R M v M N D G G G P G P P G P K K K K K K P K K K K K G } } } e.e.e.e.. { e.e.e.e.e.} } } K K K K K K K P G P G P P K K K K K P G P G G D N N M D -.",
"& P v k M N N G G G G G G G G G G G G G G G G G G G G G . . } . . . . . . { . . . . . . } G G G G G G G G G G G G G G G G G G G G G G G D N N M v D <.",
"@ P k k k M M N D D D G D G D D D D D D D D D G D D D D D . F D D D D D . { D D D D D . D D D D D D D D D D F D D D D F D F D D D D D D N N M v v N -.",
"@ P g g k k v M N N N N N N N N Z N N N N N N N N N Z N N N N N N N N M . { N N N N N N Z N N N N N Z N N N N N N N N N N N N N N N N N N M v k k N &.",
"& G g p g k v v M M M M N M M M M M M M M M M M N M M M M M M M N M M M . { M M N M M M M M M M N M M M M M M M M M M M N M M M M M M M v v k g g M &.",
"@ G g p p k k v v v v v M v v v b b b b b b b b M v b v b b } b v M v v . { v v v M b v } b b b M v b v b b b b b b b b M v b b v v v v v k k g p v &.",
"& G p r p p g g k v k v v k v k z z z z z z z z z z z z k } } } e.e.e.e.. { e.e.e.e.e.} } } z z z z z z z z z z z z z z z z z z k v k k k g g p p k #.",
"@ G r q r p p g g g k g g g k g h h h h h h h h h h h h . . } . . . . . . { . . . . . . } h h h h h h h h h h h h h h h h h h h k g k g g p p p r k #.",
"@ G q 8 q r r p g p p g p p g p p p g p p g p p g p p g p . e.p p g p p . { a p p p p . e.g p s p g p p s s p g p p p s p g p p g p p p p r r r q g O.",
"@ G q 8 8 8 q r r r r r r r r r r r r r r r r r r r r r r . e.r r r r r . { r r r r r . e.r r r r r r r r r r r r r r r r r r r r r r r r r q q 8 p o.",
"@ D 8 1 1 8 8 8 q q q q q q q 8 q q q 8 q q q q q q q q q . } q q q 8 q . { q 8 q q 9 . } q q q q q q q q q q q q q q q q q q q q q q q 8 8 8 1 1 p o.",
"& D 8 > > 1 1 1 1 1 8 1 8 1 1 8 8 1 1 8 1 1 8 1 1 1 8 1 1 } } } e.e.e.e.. { e.e.e.e.e.} } } 4 1 1 4 4 4 4 4 1 4 4 4 1 8 1 4 4 4 1 8 1 1 1 1 > 1 > r  .",
"& N 8 > > : > > 1 > 1 1 1 1 > > 1 1 > > 1 1 > 1 > > 1 1 . . } . . . . . . { . . . . . . } > 1 > 1 1 > > 1 > > 1 1 > 1 > 1 > 1 1 > > 1 > > : > : > 8 | ",
"@ R g r p p p p r p p p p p p p p p p p p p p p p p p p p . p p p p p p . g p a p g p . p g g g g g g g g g h h h g h h k g h h k k k k k k k g k N O.",
"@ g N M M M M M M M M M M M M M M M M M M M M M M M M M M M M M M M M N N N N N N N N D N D D D Z D D D F G G G G K G P P P P I P P P R R R R R Q Q ( ",
". X @ X X @ X X @ X @ X @ X @ X @ X @ X X @ @ X X @ X @ X X @ X @ @ X @ @ @ @ @ @ @ X @ O @ @ @ @ @ @ @ @ # # # # # & # @ & # & & & & & @ & & & & @ & "
};
