/* XPM */
static char *NinjaUV_SnapCenter[] = {
/* columns rows colors chars-per-pixel */
"84 24 83 1",
"  c gray8",
". c #1B1B1B",
"X c #1E1E1E",
"o c gray16",
"O c #2D2D2B",
"+ c gray18",
"@ c #2F2F2E",
"# c #2F2F2F",
"$ c #323231",
"% c #323232",
"& c gray20",
"* c #353535",
"= c gray21",
"- c #373736",
"; c #373737",
": c #383833",
"> c #3A3A34",
", c #383836",
"< c #3B3B37",
"1 c gray22",
"2 c #393938",
"3 c #393939",
"4 c gray23",
"5 c #3F3F3A",
"6 c #3C3C3C",
"7 c gray24",
"8 c #43433E",
"9 c #46463E",
"0 c #47473E",
"q c gray25",
"w c #414140",
"e c gray26",
"r c #434343",
"t c #474741",
"y c #464642",
"u c #444444",
"i c gray27",
"p c #464645",
"a c #484847",
"s c #4E4E44",
"d c #494948",
"f c #4D4D4B",
"g c #4E4E4A",
"h c #505047",
"j c #535347",
"k c #525248",
"l c #525249",
"z c #53534A",
"x c #53534C",
"c c #55554C",
"v c #54544F",
"b c #58584F",
"n c #545450",
"m c #565651",
"M c #585853",
"N c #5F5F52",
"B c #5B5B55",
"V c #5D5D57",
"C c #5E5E56",
"Z c #606055",
"A c #626255",
"S c #63635A",
"D c #63635B",
"F c #656559",
"G c #67675A",
"H c #64645C",
"J c #66665D",
"K c #68685F",
"L c gray39",
"P c gray40",
"I c #6A6A60",
"U c #6C6C61",
"Y c #717161",
"T c #737363",
"R c #717165",
"E c #727266",
"W c #7D7D6F",
"Q c #44FF00",
"! c #818181",
"~ c gray51",
"^ c #929292",
"/ c #A4A4A4",
"( c gray100",
/* pixels */
" L!!!!!!!!!!!!!!!!!!!!!!!!!!~!!!!!!!!!!!!!!!!!!!!!!!!!!!!!!!!!!!!!!!!!!!!!!!!!!!!!^/",
".+PPPPPPPPPPPPPPPPPPPPPPPPPPPPPPPPPPPPPPPPPPPPPPPPPPPPPPPPPPPPPPPPPPPPPPPPPPPPPPPP~^",
"X;uuuuuuuuuuuuuuuuuuuuuuuuuuuuuuuuuuuuuuuuuuuuuuuuuuuuuuuuuuuuuuuuuuuuuuuuuuuuuuuuP!",
"X;uuuuuuuuuuuuuuuuuuuuuuuuuuuuuuuddduuuuuuuuadauuuuuuuuuuuuuuuuuuuuuuuuuuuuuuuuuuuP!",
"X;uuuuuuuuuuuuuuuuuuuuuuuuuuuueufMCMMnnnnnnMBCmfuuuuuuuuuuuuuuuuuuuuuuuuuuuuuuuuuuP!",
"X;uuuuuuuuuuuuuuuuuuuuuuuuuuuueunHQEUHHHHDDIRQImduuuuuuuuuuuuuuuuuuuuuuuuuuuuuuuuuP!",
"X;uuuuuuuuuuuuuuuuuuuuuuuuuuuuq8cQQQ((((((((QQQCduuuuuuuuuuuuuuuuuuuuuuuuuuuuuuuuuP!",
"X;uuuuuuuuuuuuuuuuuuuuuuuuuuuq64tAQTFbbbcczAUQEMduuuuuuuuuuuuuuuuuuuuuuuuuuuuuuuuuP!",
"X;uuuuuuuuuuuuuuuuuuuuuuuuuuuq,+,j(Nz55554:9N(KMuuuuuuuuuuuuuuuuuuuuuuuuuuuuuuuuuuP!",
"X;uuuuuuuuuuuuuuuuuuuuuuuuuuuq4+:s(bt;&;&#o:z(DcuuuuuuuuuuuuuuuuuuuuuuuuuuuuuuuuuuP!",
"X;uuuuuuuuuuuuuuuuuuuuuuuuuuuu4%,z(Cg6666;+,c(DnuuuuuuuuuuuuuuuuuuuuuuuuuuuuuuuuuuP!",
"X;uuuuuuuuuuuuuuuuuuuuuuuuuuuu4;8b(Hnuuuq4:8b(HnuuuuuuuuuuuuuuuuuuuuuuuuuuuuuuuuuuP!",
"X;uuuuuuuuuuuuuuuuuuuuuuuuuuuu6;5b(Hnuuuu6&5b(HnuuuuuuuuuuuuuuuuuuuuuuuuuuuuuuuuuuP!",
"X;uuuuuuuuuuuuuuuuuuuuuuuuuuuu6;5b(Dnuuuu6;5b(HnuuuuuuuuuuuuuuuuuuuuuuuuuuuuuuuuuuP!",
"X;uuuuuuuuuuuuuuuuuuuuuuuuuuuu6;5b(Dnuuuu6;5b(HnuuuuuuuuuuuuuuuuuuuuuuuuuuuuuuuuuuP!",
"X;uuuuuuuuuuuuuuuuuuuuuuuuuuuu6,8Z(TDnnnnxtgF(UMuuuuuuuuuuuuuuuuuuuuuuuuuuuuuuuuuuP!",
"X;uuuuuuuuuuuuuuuuuuuuuuuuuuuu6,tFQWEHHHFCbNEQECduuuuuuuuuuuuuuuuuuuuuuuuuuuuuuuuuP!",
"X;uuuuuuuuuuuuuuuuuuuuuuuuuuuu4,9QQQ((((((((QQQCduuuuuuuuuuuuuuuuuuuuuuuuuuuuuuuuqP!",
"X;uuuuuuuuuuuuuuuuuuuuuuuuuuuq4%,jQFCbcbbzsjAQHMduuuuuuuuuuuuuuuuuuuuuuuuuuuuuuuuuP!",
"X;uuuuuuuuuuuuuuuuuuuuuuuuuuuq4+O>9988558,:,txnfuuuuuuuuuuuuuuuuuuuuuuuuuuuuuuuuuuP!",
"X;uuuuuuuuuuuuuuuuuuuuuuuuuuuu6%@%,,;;;;;%++;8uuuuuuuuuuuuuuuuuuuuuuuuuuuuuuuuuuuuP!",
"X;uuuuuuuuuuuuuuuuuuuuuuuquuuqq44,666646444,66euuuuquuuquuuquuuuuquuuuuquuuquuuquuP!",
".+;;;;;;;;;;;;;;;;;;;;;;;;;;4;;;;;;,;;;;;;;%;;;;4;;;4;;;4;;;;;4;;;;;4;;;4;;;4;;;;;+P",
" .XXXXXXXXXXXXXXXXXXXXXXXXXXXXXXXXXXXXXXXXXXXXXXXXXXXXXXXXXXXXXXXXXXXXXXXXXXXXXXXX. "
};
