/* XPM */
static char *NinjaMesh_AlignPivComp[] = {
/* columns rows colors chars-per-pixel */
"84 24 142 2",
"   c #010101",
".  c #1B0909",
"X  c #151515",
"o  c #181515",
"O  c #1D1D1D",
"+  c #3D0404",
"@  c #3C0B0B",
"#  c #221C1C",
"$  c #2C1D1D",
"%  c #311D1D",
"&  c #252525",
"*  c #2D2525",
"=  c #2C2C2C",
"-  c #312F2F",
";  c #343434",
":  c #373C3D",
">  c #3B3B3B",
",  c #480404",
"<  c #4F1E1E",
"1  c #650606",
"2  c #7C0808",
"3  c #751212",
"4  c #532F2F",
"5  c #5A2F2F",
"6  c #453232",
"7  c #3E4949",
"8  c #3F4F50",
"9  c #3F5051",
"0  c #444444",
"q  c #454C4D",
"w  c #4B4A4A",
"e  c #435153",
"r  c #475759",
"t  c #47585A",
"y  c #4A5B5D",
"u  c #545454",
"i  c #5C5C5C",
"p  c #6B4646",
"a  c #4A6769",
"s  c #4D6A6C",
"d  c #526465",
"f  c #5C6262",
"g  c #57686A",
"h  c #5B6B6D",
"j  c #526E71",
"k  c #5E6F71",
"l  c #557274",
"z  c #5A7477",
"x  c #5A7B7E",
"c  c #656565",
"v  c #696969",
"b  c #617173",
"n  c #6B7274",
"m  c #627C7E",
"M  c #757575",
"N  c #7C7C7C",
"B  c #830404",
"V  c #8F0101",
"C  c #940000",
"Z  c #9C0202",
"A  c #A70000",
"S  c #AB0202",
"D  c #A40909",
"F  c #B60202",
"G  c #BA0000",
"H  c #B10C0C",
"J  c #9E2E2E",
"K  c #C40000",
"L  c red",
"P  c #8E7070",
"I  c #837F7F",
"U  c #A37878",
"Y  c #557D81",
"T  c #5A7E81",
"R  c #5D8185",
"E  c #5D878B",
"W  c #5C8A8E",
"Q  c #5E8C90",
"!  c #628183",
"~  c #60878B",
"^  c #728384",
"/  c #798A8C",
"(  c #638E92",
")  c #6C8D90",
"_  c #649094",
"`  c #6B9396",
"'  c #69979B",
"]  c #6F989B",
"[  c #71969A",
"{  c #739A9E",
"}  c #79999C",
"|  c #749EA2",
" . c #6AA0A5",
".. c #6DA6AB",
"X. c #7DA3A6",
"o. c #7BA6A9",
"O. c #75AAAF",
"+. c #76AEB2",
"@. c #7CADB2",
"#. c #74B1B6",
"$. c #78B0B5",
"%. c #75B3B9",
"&. c #7CB6BB",
"*. c #77B9BE",
"=. c #7BBABF",
"-. c #7DBDC3",
";. c #7BC0C6",
":. c #7CC5CC",
">. c #7FCFD5",
",. c #7FD0D7",
"<. c #848484",
"1. c #8A8989",
"2. c #849090",
"3. c #949494",
"4. c #9E9090",
"5. c #9A9A9A",
"6. c #83ABAF",
"7. c #8BB4B8",
"8. c #A3A3A3",
"9. c #ABABAB",
"0. c #B4B4B4",
"q. c #BEBEBE",
"w. c #89C1C6",
"e. c #81C4CA",
"r. c #84CACF",
"t. c #82CDD4",
"y. c #8ACED4",
"u. c #84D0D7",
"i. c #88D1D7",
"p. c #84D5DC",
"a. c #89D3DB",
"s. c #81D8DF",
"d. c #84D9E0",
"f. c #8BDBE2",
"g. c #90DCE3",
"h. c #C4C4C4",
"j. c #C9C9C9",
"k. c #D6D6D6",
"l. c #DADADA",
"z. c #E3E3E3",
"x. c #EAEAEA",
"c. c #F3F3F3",
/* pixels */
"O v 1.1.1.<.<.1.<.<.<.<.<.<.<.1.1.<.M v 1.1.1.<.<.1.<.<.1.<.<.1.<.<.1.<.<.<.1.<.<.<.<.<.<.1.<.<.1.<.<.1.<.<.<.<.<.<.1.<.<.<.<.<.<.<.<.<.<.<.1.<.<.<.<.<.1.<.<.<.<.<.3.8.",
"O = v c v v c v v c v v v v v c c c f v c c v v v c v c v v v c c v v v c v v c v v v v v v v v v v v c v v v v v v v v v v v v v v v v v v v v v v v v v v v v v v <.3.",
"O > 0 0 0 0 w 0 0 0 0 w 0 0 0 0 > ; v 9.0 0 0 0 w 0 0 0 0 0 0 0 0 0 0 w 0 0 0 0 0 0 0 0 0 0 0 0 0 0 0 0 0 w 0 0 0 0 0 0 0 0 0 0 0 w 0 0 0 0 0 0 0 0 0 0 0 0 0 w 0 0 v I ",
"O ; 0 0 L 0 0 0 0 0 0 0 0 0 0 > ; = 3.h.w 0 0 0 0 0 0 0 0 0 0 0 0 0 0 0 0 0 0 0 0 0 0 0 0 0 0 0 0 0 0 0 0 0 0 0 0 0 0 0 0 0 0 0 0 0 0 0 0 0 0 0 0 0 0 0 0 0 0 0 0 0 v I ",
"O ; > 0 L 0 0 0 0 0 0 0 0 0 0 > & = 0.h.i 0 0 0 0 0 0 0 0 0 0 0 0 0 0 0 0 0 0 0 0 0 0 0 0 0 0 0 0 0 0 0 0 0 0 0 0 0 0 0 0 0 0 0 0 0 0 0 0 0 0 0 0 0 0 0 0 0 0 0 0 0 v I ",
"O ; = > L 0 0 0 0 0 0 0 0 0 0 ; & 0 h.q.1.0 0 0 0 0 0 0 0 0 0 0 0 > 3.0.v 0 0 0 0 0 0 0 0 0 0 0 0 0 0 0 0 0 w 0 0 0 0 0 0 0 0 w 0 0 0 w 0 0 0 0 0 0 0 0 0 0 0 0 0 0 c ^ ",
"O = = > L 0 0 0 0 0 0 0 0 0 0 - O w 0.q.1.0 0 0 0 0 0 0 0 0 0 0 > > c.1.h.c 0 0 0 0 0 0 0 w u c M M M n u 0 0 0 0 0 0 0 0 0 0 0 0 0 0 0 0 0 0 0 0 0 0 0 0 0 0 0 0 0 c I ",
"O = = ; L 0 0 0 0 0 0 0 0 0 > = X X i 3.0 0 0 0 0 0 0 0 0 0 0 > ; = z.u O k.v 0 0 0 0 0 0 0 ! -.,.d.-./ v w 0 0 0 0 0 0 0 0 0 0 0 0 0 0 0 0 0 0 0 w 0 0 0 0 0 0 0 0 v <.",
"O = = ; L 0 0 0 0 0 0 0 0 0 7 = O X q N 0 0 0 0 0 0 0 0 0 v v c i u x.u   & l.c 0 0 0 > 0 T d.' 0 q #.,.f w w c M M M v i f M M M M M n M N c u c M M M N n 0 0 0 0 v I ",
"O = = > L 0 0 0 0 0 0 0 0 0 6 ; & O u <.w 0 0 0 0 0 0 > > c.8.5.5.8.5.X     & k.i 0 0 > > :.:.i 0 > 7 q 0 0 g ;.d.,.o.M k ,.:.r.d.e.X.f.a.6.M m g.w.a.g.w.1.v 0 0 0 c <.",
"O - = ; L 0 0 0 0 0 0 0 0 0 q > & & u <.w 0 0 0 0 0 > > ; k.                  & h.i > > e p.@.v > 0 7 6 0 q t.%.7 ~ d.X.d s.,.q ~ f.;.0 &.f.n z f.r.w T g.7.N 0 0 0 c I ",
"O - = ; L 0 0 0 0 w 0 0 0 0 0 > = & u 2.0 0 0 0 0 > ; = & k.                    <.h.> ; t s.o.v > > 7 6 > ~ s.) > > ,.:.y p.%.> l s.` > _ f.z l a.} 0 0 i.y.I 0 0 0 c <.",
"O = = : L 0 0 0 0 0 0 0 0 0 w > = $ p P 6 0 0 0 0 > ; & O l.                  c q.; ; ; q d.@.M > > > > > ( f.^ w ; *.u.r i.+.0 j ,. .: _ s.h s a.X.i 0 i.i.N 0 0 0 v I ",
"O - = ; L 0 0 0 0 0 0 0 0 0 0 > % B F H Z < 0 0 0 0 ; & X l.l.l.l.l.x.;     c h.= ; ; ; > :.t.N c u i i ; R f.} f ; t.:.e s.&.0 l ,.] ; W s.g g s.6.v > u.t.v 0 0 0 c ^ ",
"O = = ; L 0 w 0 0 0 0 0 0 0 > - 1 F K K F Z 6 0 6 7 ; & O O X X X X l.i   v j.= ; ; ; ; > x f.{ v f &.i.7 : i.&.u x f.l 9 f.O.; a ,._ - W s.r s s.t.n x s.{ u 0 0 0 v I ",
"O = = ; L 0 0 0 0 0 0 0 0 > - & 2 S G G A D 4 0 w > > ; & & & O O X l.w c l.; ; ; ; ; ; ; > x =.f.f.+.e - - a =.g.f.T = 9 f. .= a d.x = E s.e s s.%.:.s...0 w 0 0 0 v I ",
"O - = ; L 0 0 0 0 0 0 w 0 > ; w 4.J A A Z U <.w w 0 0 > ; ; - = O o c.j.l.; ; ; > ; ; ; ; > > > > ; ; = = = = = = = = = = = = = = & = = & = = a d.Q : : 0 0 0 0 0 0 c ^ ",
"O = = ; L 0 0 0 0 0 v h.M i 5.N w 3 C C V 5 f 3.1.i 9.3.0 0 > ; & O ; w ; : 6 > > ; ; ; > ; > > ; ; ; ; ; = = = = = = = = = = = = = = = & = = a ,._ > > > 0 0 0 0 0 v I ",
"O - = ; L 0 0 7 > N h.h.l.N > X X . + , @ * ; ; 0 9.q.h.0.v 0 > = & & = ; 7 7 > > ; ; ; ; > > ; > ; ; = ; = ; = = = = ; ; ; ; ; ; = ; = = = = = ; ; > > 7 0 0 0 0 0 c <.",
"O - = : L 0 0 ; 5.h.9.9.8.; O O X X X # & & & & O i 3.8.j.j.v > ; ; ; > > 0 7 6 > > > > ; > > > > > ; ; ; ; ; ; ; ; ; ; ; ; ; ; ; = ; = = = ; ; ; > > 0 0 0 0 0 0 0 c <.",
"O = = ; L > ; v N f w 0 ; : ; = & & & ; ; ; & O X X ; 0 i v <.i 0 > > 0 0 0 0 7 0 0 > > > > > > > > > > > > > > > > > > > > > > > ; ; ; ; ; ; ; > > 7 0 0 0 0 0 0 0 c I ",
"O = = ; L - & O X X O = > 0 6 7 ; ; > 0 0 0 ; & O X X O = ; 0 0 0 0 > 0 0 0 7 6 0 > > > > > 0 > 0 > > > > > > > > > > > > > > > > ; > ; ; ; : > > > > 0 6 0 0 0 0 0 c I ",
"O & & = = & O O O O & = ; ; ; ; ; ; ; > ; ; ; = O O O O O = ; ; > ; ; ; ; > > ; ; ; ; ; ; ; ; ; ; ; ; ; ; ; ; ; ; ; ; ; ; ; ; ; ; ; ; = = = - - ; ; ; ; : ; ; ; ; ; = f ",
"O O O O & & O O O & O & & = & & = & & & & & & & & & O & O & & & & & & = & & & & & = & & & & & & & & & & & & & & & & = & & & & & & & & & & & & * & & = & & & = & & & & # "
};
