/* XPM */
static char *NinjaMesh_AlignPivMinZ[] = {
/* columns rows colors chars-per-pixel */
"75 24 133 2",
"   c black",
".  c gray1",
"X  c #040404",
"o  c gray2",
"O  c #070707",
"+  c gray3",
"@  c #090909",
"#  c gray4",
"$  c #0B0B0B",
"%  c #0C0C0C",
"&  c gray5",
"*  c #0E0E0E",
"=  c gray6",
"-  c #101010",
";  c #111111",
":  c gray7",
">  c #131313",
",  c gray8",
"<  c #151515",
"1  c #161616",
"2  c gray9",
"3  c #181818",
"4  c #191919",
"5  c #2C2C2C",
"6  c #2D2D2D",
"7  c gray18",
"8  c #2F2F2F",
"9  c gray19",
"0  c #313131",
"q  c #323232",
"w  c gray20",
"e  c #343434",
"r  c #353535",
"t  c gray21",
"y  c #373737",
"u  c gray22",
"i  c #393939",
"p  c #3A3A3A",
"a  c gray23",
"s  c #3C3C3C",
"d  c #3E3E3E",
"f  c #3F3F3F",
"g  c gray25",
"h  c #414141",
"j  c gray26",
"k  c #434343",
"l  c #444444",
"z  c gray27",
"x  c #464646",
"c  c gray28",
"v  c #484848",
"b  c #494949",
"n  c gray29",
"m  c #4B4B4B",
"M  c #4C4C4C",
"N  c gray30",
"B  c #4E4E4E",
"V  c gray31",
"C  c #505050",
"Z  c #515151",
"A  c gray32",
"S  c #535353",
"D  c gray33",
"F  c #555555",
"G  c #565656",
"H  c gray34",
"J  c #585858",
"K  c gray35",
"L  c #595B5B",
"P  c #5A5A5A",
"I  c #5B5B5B",
"U  c gray36",
"Y  c #5D5D5D",
"T  c gray37",
"R  c #5F5F5F",
"E  c #606060",
"W  c gray38",
"Q  c #626262",
"!  c gray39",
"~  c #646464",
"^  c #656565",
"/  c gray40",
"(  c #676767",
")  c #686868",
"_  c DimGray",
"`  c #6A6A6A",
"'  c gray42",
"]  c #6C6C6C",
"[  c #6D6D6D",
"{  c gray43",
"}  c #6F6F6F",
"|  c gray44",
" . c #717171",
".. c #727272",
"X. c gray45",
"o. c #777777",
"O. c gray47",
"+. c red",
"@. c #3232FF",
"#. c #03B3DE",
"$. c #02CBDB",
"%. c #838383",
"&. c #8B8B8B",
"*. c #909090",
"=. c #939393",
"-. c #959595",
";. c gray59",
":. c #979797",
">. c #989898",
",. c gray60",
"<. c #9A9A9A",
"1. c #9B9B9B",
"2. c gray61",
"3. c #9D9D9D",
"4. c gray62",
"5. c #9F9F9F",
"6. c #A0A0A0",
"7. c gray63",
"8. c #A2A2A2",
"9. c gray64",
"0. c #A4A4A4",
"q. c #A5A5A5",
"w. c gray65",
"e. c #A7A7A7",
"r. c gray66",
"t. c #A9A9A9",
"y. c #AAAAAA",
"u. c gray67",
"i. c #ACACAC",
"p. c gray68",
"a. c #AEAEAE",
"s. c gray69",
"d. c #B4B4B4",
/* pixels */
"> %.:.=.:.:.:.:.,.,.,.3.3.3.3.6.6.6.6.6.6.0.0.q.q.q.q.r.r.r.r.r.r.p.r.p.p.p.p.p.p.p.s.p.p.s.p.s.p.p.s.p.p.p.p.p.s.p.p.p.p.p.p.s.p.s.p.p.p.p.p.p.p.s.d.",
"* O.( Q ( ( ( ) ) { { ) ) { ) { ] { { { { { { } { { { { {  . .{ {  . . .{  . .{  . . . . . . . . . . . . . . . . . . . . . . . . . . . .} } { ] ] o.r.",
">  .I D I D I Y Y Y Y Y Y Y Q Y Y E Y Y Y +.Y Y Y Y Y E Y #.Y Y Y Y #.Y Y #.Y Y Y Y Y Y Y Y Y Y Y Y Y Q Y Y Y Y Y Y Y Y Y Y Y Y Y Y Y Y Y I I J I Y q.",
"*  .I S D D I Y Y Q Q Q Q Q Y Q E E E E 3 +.E E Q E E E #.Q #.Y Q . #.Y . Y Q Q Y Q Q Y Q Q Q Y Q Q Y Q Q Q Q Y Q Q Q Q Q Q Q Q E E Q E Y I J J D ~ q.",
"> { D S D I I Y Y Q Y Q Q Q Y $.E Q E Q 3 +.E Q Q E E . #.. #.Q Y . #.Q Q #.Y Q Y #.#.#.Q Y #.#.#.Q Q Y Q Q Q Q Q Q Q Y Y Q Q Q Q Q E Y Y I I D D Q q.",
"* { D S D D Y Y Q Q Q Q Q Q $.$.$.Q Q Q 4 +.Q Q Q Q E #.Y . Y #.Q . #.Q . #.Q Q #.. . #.Q . #.. Q #.Q Q Q Q Q Q Q Q Q Q Q Q @.@.@.@.@.@.@.@.@.I D Q q.",
"> ) D V D D Y Q Q Q Q Q Q $.$.$.$.$.Q Q 4 +.Q Q Q Q . #.#.#.#.#.Q . #.Q . #.Q . #.Q . #.Q . #.Q . #.Y Q Q Q Q Q Q Q Q Q Y . @.@.@.@.@.@.@.@.@.J D E q.",
"* ) S S D I I Y Y Q Q Q 2 4 4 $.3 Q E Q 3 +.E Q Q E . #.. . . #.Y . #.Y . #.Y . #.Y . #.Y . #.Q . #.Q Q Q Q Y Q Q Q Q Q Q . @.@.@.@.@.@.@.@.@.D D E 0.",
"* ( S V S D I Y Y Q Q Y Q Y 4 $.E E E E 3 +.E E Y Y #.Q Q Y . Y #.. #.Y . #.Y . Y #.#.#.Y . #.Y . #.Y Q Q Q Y Q Y Q Q Q Y . . . . . . @.@.@.D D S Y q.",
"* ~ V v V S D I Y Y Y Y Y Y 4 $.Y Y Y Y 2 +.Y Y Y . Y Y Y Y I . Y . Y Y . Y Y Y #.. . #.I . Y Y . Y Y Y Y Y Y Y Y Y Y Y Y Y I I Y I @.@.@.D S S V I q.",
"% Q V c V V S H I I I Y I I 2 $.I I I I 2 +.I U I I Y I I I I I I I I I I I I . I #.#.I I I I I I D Y I I I I I I I I I I Y I I I @.@.@.D S S S V D 6.",
"% Q v x c V V S D D D D D D 2 $.H D D D 2 +.D D D D D D D #.D D D D D #.D D #.D . . D S I D D D D D D D D D D D D D D D D D D D @.@.@.@.S S V v v D 6.",
"% Y x l x v V V S S S S S S 2 $.S S S S 2 +.S S D S S S . #.#.S S S #.#.S . S S S S S S S S S S D S S S S S S S S S S S S S S . @.@.@.S V S V v v S 6.",
"% U l h l c M V V V V S S V > $.V S S V > +.V S S S V V . #.#.V V . #.#.V V #.S V #.V #.#.V V V S S V V S S V V V S V S S V V @.@.@.V V V v v x x V 3.",
"% Y h f h x $.v v V V v M M > +.V v v V > +.V v v V v V . #.v #.v #.. #.v . #.v . #.#.. v #.V V v V V v V v v V v V V v V v @.@.@.V V v x x x h h V 3.",
"% Y f a f $.$.x c c v v c c +.+.+.v v x > +.v v v v v v . #.. #.. #.. #.v . #.x . #.x x . #.x x v v v v v v v v v x v v x @.@.@.@.@.@.@.@.@.@.f f v 3.",
"% Y a t $.$.$.$.$.$.$.$.$.+.+.+.+.+.h h > +.h l h h x h . #.. #.. #.. #.h . #.h . #.h h . #.h h x h h h h h x h h h h h . @.@.@.@.@.@.@.@.@.@.a a v ,.",
"% U a * * $.$.* = = > * X X +.+.+.f f f = +.f f f f f f . #.. #.. #.. #.f . #.f . #.f f . #.f f f f f f f f f f f f f f . @.@.@.@.@.@.@.@.@.@.a t h :.",
"% U u 9 * % $.u a u u a a * * +.u a u a * +.u a a t t a . #.. t #.t . #.t . #.a . #.t a . #.a a a a a a a t a a a a a a . . . . . . . . . . q q q f =.",
"$ I t 7 7 % q q q e q q q q * q q e q q * +.q q t q q t . #.q . #.q . #.q . #.q . #.q q . #.q q q q q q q q q q q q q q q q q q q q q t 7 q 7 7 7 f =.",
"* H e 7 5 5 7 7 7 9 7 q 9 9 9 7 7 q 7 7 % +.9 9 7 7 q 7 . q 7 . 7 7 . 7 7 . 7 7 . 7 q 7 . 7 7 7 7 7 7 7 7 7 7 q 7 q 7 q 7 q 7 7 7 q 7 7 7 7 7 5 7 t &.",
"% ( x f g h h g g g h h h h h h h h h h = h h h h h h h h h h h h x h h x h h x h h h x h x x x x x x x x x v x x x x v x x v v v x v v v v v v v D :.",
"O c D S S S S S S S V S S S S S S S S S S S S S S S S S S S S S S S D D S S D D D D D I D I D I I I I I Y Y Y Y Y Q Q Y Q Q Q ( Q ( ( ( ( ( ( ( ) { { ",
". O O O O O O O O $ O $ O O O O O O O O O O $ O O O O O O O O $ O $ O $ $ O $ $ $ O $ $ $ $ $ $ $ $ O $ $ $ $ $ $ $ $ $ $ * $ $ $ * $ $ * * * * * $ * "
};
