/* XPM */
static char *NinjaMesh_WeldCollapse[] = {
/* columns rows colors chars-per-pixel */
"75 24 131 2",
"   c black",
".  c gray1",
"X  c gray2",
"o  c #060606",
"O  c #070707",
"+  c gray3",
"@  c #090909",
"#  c gray4",
"$  c #0B0B0B",
"%  c #0C0C0C",
"&  c gray5",
"*  c #0E0E0E",
"=  c gray6",
"-  c #101010",
";  c #111111",
":  c gray7",
">  c #131313",
",  c gray13",
"<  c #222222",
"1  c #232323",
"2  c gray15",
"3  c #2C2C2C",
"4  c #2D2D2D",
"5  c gray18",
"6  c #2F2F2F",
"7  c gray19",
"8  c #313131",
"9  c #323232",
"0  c gray20",
"q  c #343434",
"w  c #353535",
"e  c gray21",
"r  c #373737",
"t  c gray22",
"y  c #393939",
"u  c #3A3A3A",
"i  c gray23",
"p  c #3C3C3C",
"a  c gray24",
"s  c #3E3E3E",
"d  c #3F3F3F",
"f  c gray25",
"g  c #414141",
"h  c gray26",
"j  c #434343",
"k  c #444444",
"l  c gray27",
"z  c #464646",
"x  c gray28",
"c  c #484848",
"v  c #494949",
"b  c gray29",
"n  c #4B4B4B",
"m  c #4C4C4C",
"M  c gray30",
"N  c #4E4E4E",
"B  c gray31",
"V  c #505050",
"C  c #515151",
"Z  c gray32",
"A  c #535353",
"S  c gray33",
"D  c #555555",
"F  c #565656",
"G  c gray34",
"H  c #585858",
"J  c gray35",
"K  c #5A5A5A",
"L  c #5B5B5B",
"P  c gray36",
"I  c #5D5D5D",
"U  c gray37",
"Y  c #5F5F5F",
"T  c #606060",
"R  c gray38",
"E  c #626262",
"W  c gray39",
"Q  c #646464",
"!  c #656565",
"~  c gray40",
"^  c #676767",
"/  c #686868",
"(  c DimGray",
")  c #6A6A6A",
"_  c gray42",
"`  c #6C6C6C",
"'  c #6D6D6D",
"]  c gray43",
"[  c #6F6F6F",
"{  c gray44",
"}  c #717171",
"|  c #727272",
" . c gray45",
".. c #777777",
"X. c gray47",
"o. c red",
"O. c #5EACBF",
"+. c #03B3DE",
"@. c #7DE6FF",
"#. c #838383",
"$. c #8B8B8B",
"%. c #909090",
"&. c #939393",
"*. c #959595",
"=. c gray59",
"-. c #979797",
";. c #989898",
":. c gray60",
">. c #9A9A9A",
",. c #9B9B9B",
"<. c gray61",
"1. c #9D9D9D",
"2. c gray62",
"3. c #9F9F9F",
"4. c #A0A0A0",
"5. c gray63",
"6. c #A2A2A2",
"7. c gray64",
"8. c #A4A4A4",
"9. c #A5A5A5",
"0. c gray65",
"q. c #A7A7A7",
"w. c gray66",
"e. c #A9A9A9",
"r. c #AAAAAA",
"t. c gray67",
"y. c #ACACAC",
"u. c gray68",
"i. c #AEAEAE",
"p. c gray69",
"a. c #B4B4B4",
/* pixels */
"> #.-.&.&.-.-.;.;.;.<.<.<.<.4.4.<.4.4.4.4.9.4.9.9.9.9.e.9.e.e.e.e.e.e.e.u.e.u.u.u.u.u.u.p.u.u.u.u.u.u.p.u.u.u.u.u.u.u.u.u.u.p.u.u.u.u.u.u.u.u.u.u.u.a.",
"* X.^ E ^ ^ ^ / / ] / ] ] / / ] ] ] ] ] ] ] ] ] ] ] ] ] } ] ] } ] } } } } } } } ] } } } } } } } } } } } } } } } } } } } } } } } } } } } ] } ] ] ] ..e.",
"> } L S S L o.P U U U U U U Y U U U U U U o.U U U U U U U U U U U U U U U U U U U U U U U U U U U U U U U U U U E U U U U U U U U U U U U L L S S U 9.",
"* } L A S o.o.o.                        o.o.o.E U E U E U E U E E U E U U E U E E U E U E E U E E U E E E U E U E U E U E U E E U E U U U L S L L ^ 9.",
"> ] S A d h o.o.@.@.@.  @.@.@.@.  @.@.O.o.o.E U E E U E E E E U E E U E E E E U E E U E E U E E E U E E E U E E E E E U E E U E U E E U U L L S S E 9.",
"* ] S A S h @ @.o.@.@.  @.@.@.@.  @.@.o.O.  E E E E E E E E E E E E E E E E E E E E E E E E E E E E E E E E E E E E E E E E E E E E E E U U L L S E 9.",
"> / S B S L > O.@.o.@.  @.@.@.@.  @.o.@.@.  E E E E E E E E E E E E E E E E E E E E E E E E E E E E E E E E E E E E E E E E E E E E E E U U L S S U 9.",
"* / A A S S * @.O.@.o.  @.@.@.@.  o.@.@.@.  E E E E +.+.+.U E E U E E E U E E E +.E U +.E E E E E E E U E E E U E U E E E U E E E E E U U L L S S U 9.",
"* ^ B B A S           o.        o.          U E U +.    U +.E Y E Y E U U E U   +.U   +.U E U U E U U E E U E E U E U U E U E U U E U U U L S S A U 9.",
"* E B B B A o @.@.@.O.  o.o.o.o.  @.@.@.@.  U U +.U U U   U +.U U L +.+.+.U U   +.U   +.U U U +.+.+.U U U +.U +.+.U U U U +.+.+.U U U L +.+.+.A B L 4.",
"* E v v B B * @.@.@.@.  o.o.o.o.  @.@.@.@.  L   +.L L L L   P L U +.    L +.L   +.U   +.U L +.    L +.L   +.+.  L +.L L +.    L +.U L +.    A +.B S 9.",
"@ E x x x B > @.@.@.@.  o.o.o.o.  @.@.@.@.  S   +.S S L S S S S   +.S S   +.S   +.S   +.S   S S S   +.S   +.S S   +.S   +.S S   S S   +.A A   +.v S 4.",
"* U x h c v - @.@.@.@.  o.o.o.o.  @.@.@.@.  A   +.A A A A A A A   +.A A   +.A   +.A   +.S A A +.+.+.+.S   +.A A   +.A   S +.+.+.A A   +.+.+.+.+.v A <.",
"@ U x h k c           o.        o.          A   +.A B B V V +.V   +.V V   +.A   +.B   +.B A +.      +.A   +.A B   +.B A       A +.B   +.      x x B 4.",
"@ L h d h h o @.@.@.o.  @.@.@.O.  o.@.@.@.  B   v +.B v m +.v B   +.m m   +.v   +.v   +.v   +.B B +.+.v   +.+.v   +.B v +.v B   +.B   +.v x x +.h B <.",
"* U d y d d * @.@.o.@.  @.@.@.@.  @.o.@.@.  v v   v +.+.+.c v v   v +.+.+.v v   +.v   +.v   v +.+.  +.v   +.v +.+.v v   v +.+.+.x v   x +.+.+.d d v <.",
"* U y r y d * @.o.@.@.  @.@.@.@.  O.@.o.@.  k h h       h h h h h       h h h   h h   h h h     h   h h   +.    h h h h       h h h x       d d y v ;.",
"@ L y r r y o.o.@.@.@.  @.@.@.@.  @.O.@.o.o.d d d d d d d d d d d d d d d d d d d d d h d d d d d d d d   +.d d d d d d d d d d d d d y d y y y r h -.",
"* U r 7 7 o.o.o.                        o.o.o.y y y y y y y y y y y y y y y y y y y y y y y y y y y y y   y y y y y y r y y y y y y y r r r r 7 7 h &.",
"@ L r 4 1 1 o.7 0 0 0 0 0 0 0 0 0 0 0 2 2 o.r 7 0 0 0 0 7 r 7 0 r 7 r 7 r 7 7 r r 7 7 7 r 7 r 7 7 r 7 7 r 7 7 r 7 r 7 r 7 7 r 7 7 r 7 r 7 7 4 7 4 h $.",
"@ L r 3 4 , 4 4 4 7 4 7 7 7 4 4 7 4 7 4 , 7 4 7 4 7 4 7 7 4 4 4 4 7 4 7 4 4 7 4 4 4 7 4 4 4 4 4 7 7 4 4 7 7 4 7 7 4 7 4 7 4 7 7 4 4 7 4 4 4 4 3 4 y $.",
"* ^ k d h h h h f h h h h h h h h h h f h h h h h f h h h k k h h h h x h x x h x h x x x x x x x x x x x x x x v x x x v v v v v x v v v v v v v S -.",
"o c S A A A A A A A A A A A A A A A A A A A A A A A A A A A A A A S A S S S S S S L S S S L L L L L L L L U U U U U U E E E E E E ^ ^ ^ ^ ^ ^ ^ / ] ] ",
"  o @ o o @ o o + + o + + o @ @ + + + + o + + + + + o + + + + + @ @ o @ @ @ @ @ @ @ @ @ @ @ @ @ @ @ @ @ @ * @ @ @ * * @ * @ * * * * @ * @ * * * * @ * "
};
