/* XPM */
static char *NinjaMesh_PivMinX[] = {
/* columns rows colors chars-per-pixel */
"84 24 130 2",
"   c #1C0A0A",
".  c gray8",
"X  c #1E1E1E",
"o  c #3E0505",
"O  c #3E0D0D",
"+  c #251E1E",
"@  c #252525",
"#  c #2B2727",
"$  c #2C2C2C",
"%  c #332222",
"&  c #343434",
"*  c #3C3C3C",
"=  c #4A0505",
"-  c #4F1E1E",
";  c #660707",
":  c #7C0909",
">  c #751212",
",  c #522E2E",
"<  c #592E2E",
"1  c #453232",
"2  c #374243",
"3  c #3C4242",
"4  c #444444",
"5  c #4B4B4B",
"6  c #4D5555",
"7  c #445759",
"8  c #455C5D",
"9  c #545454",
"0  c #5C5C5C",
"q  c #6B4646",
"w  c #4C6567",
"e  c #4B6568",
"r  c #4F6C6F",
"t  c #526263",
"y  c #5E6363",
"u  c #506D6F",
"i  c #547174",
"p  c #5F7577",
"a  c #597679",
"s  c #537B7E",
"d  c #5A7A7D",
"f  c #646464",
"g  c #696969",
"h  c #6A7070",
"j  c #747474",
"k  c #7C7C7C",
"l  c #830404",
"z  c #8F0101",
"x  c #940000",
"c  c #9C0202",
"v  c #A70000",
"b  c #AB0202",
"n  c #A40909",
"m  c #B60202",
"M  c #BA0000",
"N  c #B10C0C",
"B  c #9E2E2E",
"V  c #C40000",
"C  c #8D7070",
"Z  c #827F7F",
"A  c #A37878",
"S  c #5A7F81",
"D  c #5C8A8E",
"F  c #668386",
"G  c #63898D",
"H  c #6D8C8E",
"J  c #708C8F",
"K  c #608F93",
"L  c #718D90",
"P  c #639194",
"I  c #6B9396",
"U  c #66979C",
"Y  c #6E9599",
"T  c #6D999C",
"R  c #789497",
"E  c #71979A",
"W  c #7A9598",
"Q  c #73989B",
"!  c #7E9A9D",
"~  c #679CA0",
"^  c #769EA2",
"/  c #7A9FA2",
"(  c #67A0A6",
")  c #75A1A5",
"_  c #7BA1A4",
"`  c #7FA7AB",
"'  c #73ABB0",
"]  c #71B0B6",
"[  c #7AB2B6",
"{  c #73B6BC",
"}  c #7BB3B9",
"|  c #7DB8BE",
" . c #76BAC0",
".. c #79BDC3",
"X. c #7CC4CA",
"o. c #7ECDD4",
"O. c #848484",
"+. c #838F8F",
"@. c #898A8B",
"#. c #85999B",
"$. c #949494",
"%. c #9E9090",
"&. c #9B9B9B",
"*. c #80A6AA",
"=. c #83ADB1",
"-. c #85B2B7",
";. c #82BBBF",
":. c #8DBABE",
">. c #A6A6A6",
",. c #ABABAB",
"<. c #B4B4B4",
"1. c #BEBEBE",
"2. c #82BCC2",
"3. c #84C1C7",
"4. c #83C4CA",
"5. c #8BC2C8",
"6. c #84C9CF",
"7. c #82CFD6",
"8. c #8CCDD2",
"9. c #85D0D7",
"0. c #8BD1D7",
"q. c #85D3DA",
"w. c #8AD5DC",
"e. c #81D8DF",
"r. c #83D8E0",
"t. c #8BDAE2",
"y. c #92DDE3",
"u. c #C3C3C3",
"i. c #C9C9C9",
"p. c #DADADA",
/* pixels */
"X g O.O.O.O.@.O.O.O.O.O.O.O.O.O.O.O.O.O.O.J j g O.O.O.O.O.O.O.O.O.O.O.O.O.O.O.O.O.@.O.O.O.O.O.O.O.O.O.O.O.O.O.O.@.O.O.O.O.O.O.O.@.O.O.O.O.O.@.O.O.O.O.@.O.O.O.O.O.O.$.>.",
"X $ g g g g g g g g g g g g g g g g g f f f f g g g g g g g g g g g g g g g g g g g g g g g g g g g g g g g g g g g g g g g g g g g g g g g g g g g g g g g g g g g O.$.",
"@ & 4 4 4 4 4 5 4 4 4 5 5 4 4 4 4 4 4 3 1 * g ,.4 4 4 4 4 5 4 4 4 4 4 5 5 4 4 4 4 4 4 4 4 4 5 4 4 5 4 4 4 4 4 4 4 4 5 4 4 5 4 4 4 4 4 4 4 4 4 4 5 4 4 4 4 4 4 4 5 4 g O.",
"X * 4 4 4 4 4 4 4 4 4 4 4 4 4 4 4 5 1 * & & $.i.5 4 4 4 4 4 4 4 4 4 4 4 4 4 4 4 4 4 4 4 4 4 4 4 4 4 4 4 4 4 4 4 4 4 4 4 4 4 4 4 4 4 4 4 4 4 4 4 4 4 4 4 4 4 4 4 4 4 f Z ",
"X & 4 4 4 4 4 4 4 4 4 4 4 4 4 4 4 4 3 & $ & <.u.0 4 4 4 4 4 4 4 4 4 4 4 4 4 4 4 4 4 4 4 4 4 4 4 4 4 4 4 4 4 4 4 4 4 4 4 4 4 4 4 4 4 4 4 4 4 4 4 4 4 4 4 4 4 4 5 4 4 f Z ",
"@ & 4 4 4 4 4 4 4 4 4 4 4 4 4 4 4 4 * & @ 5 u.1.@.4 4 4 4 4 4 4 4 4 4 4 4 4 4 4 4 4 4 4 4 4 4 4 4 4 4 4 4 4 4 4 4 4 4 4 4 4 4 4 4 4 4 4 4 4 4 4 4 4 4 4 4 4 4 4 4 4 g O.",
"X & 4 4 4 4 4 4 4 4 4 4 4 4 4 4 4 4 * $ @ 5 <.1.O.4 4 4 4 4 4 4 4 4 4 4 4 4 4 4 4 4 0 j O.j 9 5 g k k y 0 g y 4 4 4 4 4 4 4 4 4 4 5 0 j j 9 9 j j f 4 4 4 4 4 4 4 4 g k ",
"X & 4 4 4 4 4 4 4 4 4 4 4 4 4 4 4 4 * $ @ X 0 $.4 4 4 4 4 4 4 4 4 4 4 4 4 4 4 4 4 4 7.e.9.Z 5 D e.e.=.0 8.3.f 4 4 4 4 4 4 4 4 4 4 t t.8.O.f I t.;.f 4 4 4 4 4 4 4 4 g Z ",
"X * 4 4 4 4 4 4 4 4 4 4 4 4 4 4 4 4 * $ @ X 5 k 4 4 4 4 4 4 4 4 4 4 4 4 4 4 3 4 3 4 o.r.e.+.4 T o.o.` 9 4 g g 0 g j j j k g 4 1 3 3 I t.-.h q.9.h 9 4 4 4 4 4 4 4 4 g Z ",
"X * 4 4 4 4 4 4 4 4 5 4 4 4 4 4 4 4 * & # @ 9 O.4 4 4 4 4 4 4 4 4 4 4 4 4 3 * * 1 3 o.9.9.! 4 ..o.9.) 9 9.8.g Q y.-.w.y.:.O.9 3 3 * 1 7.w.3.t.I 9 5 4 4 4 4 4 4 4 4 f Z ",
"X & 4 4 4 4 4 4 4 4 4 4 4 4 4 4 4 4 4 & $ $ 9 O.5 4 4 4 4 5 4 4 4 4 4 4 1 3 & * * & 9.} 3./ 9 4.T o.R * o.X.9 I t.| 4 2.y.#.g * * * * i t.w.4.g 9 4 4 4 4 4 4 5 4 4 f J ",
"X * 4 4 4 4 4 4 4 4 4 4 4 4 4 4 4 4 4 & $ $ 6 +.4 4 4 4 4 4 4 4 4 4 4 4 3 * & & & & 9.[ ) [ p 3.a 4.I * o.X.5 K t.H 4 P t.! y & & & & 3 X.w.` k 5 4 4 4 4 4 4 4 4 4 g Z ",
"X & 4 4 4 4 4 4 4 4 4 4 4 4 4 4 4 4 3 * & % q C 1 4 4 4 4 4 4 4 4 4 4 3 * * & $ $ $ 9.} a 5.) } t 6.I & o. .4 K e.J * P t.R f & $ & $ ~ t.e.q.@.j 4 4 4 4 4 4 4 4 4 g Z ",
"X & 4 4 4 4 4 4 4 4 4 4 4 4 4 4 4 4 3 & % l m N c - 4 4 4 4 4 4 4 4 4 1 * & $ $ # @ 0.| 7 8.8.T e w.I & o.X.3 D e.L * P e.R 0 $ $ $ e o.X.d e.;.O.f 4 4 4 4 4 4 4 4 g Z ",
"X & 4 4 4 4 4 4 4 4 4 4 4 4 4 4 4 1 & $ ; m V V m c 1 4 4 4 4 4 4 4 4 3 * $ $ $ @ @ 9.| @ 0.w.i e t.G & o. .& D e.F * K e.H 9 & # $ { t.u * ] e._ h 5 4 4 4 4 4 4 4 g Z ",
"X * 4 4 4 4 4 4 4 5 4 4 4 4 4 4 4 * & @ : v M M v n , 4 4 4 4 4 4 4 3 * * & $ @ @ @ 0.| @ ' t.3 e t.s $ o.} $ D r.u * P e.i 4 $ $ s r.( & * 6 o.o.y 5 4 4 4 4 4 4 4 f Z ",
"@ & 4 4 4 4 4 4 4 4 4 4 4 4 4 5 1 * & 5 %.B v v c A O.5 4 4 4 4 4 4 4 3 * & $ # @ @ @ @ @ @ # $ # # $ $ # $ $ $ & & * * * * & $ $ $ $ $ & 3 3 4 4 4 4 4 4 4 4 4 4 4 g Z ",
"X & 4 4 4 4 4 4 4 4 4 3 3 1 g 1.j 0 &.k 5 > x x x < y $.@.0 <.&.5 4 4 3 * & $ $ @ @ @ @ $ @ $ $ $ $ $ $ $ $ & $ & & * * * & & & $ $ $ & & 3 1 4 4 4 4 4 4 4 4 4 4 4 g Z ",
"X & 4 4 4 4 4 4 4 4 3 * & J 1.i.p.Z * X .   o = O # $ & 4 ,.1.u.<.g 4 4 3 & & & $ $ $ $ $ $ $ & $ $ & & $ & & & & & * * * & & & & & & & * 3 4 4 4 4 4 4 4 4 4 4 4 4 f Z ",
"X * 4 4 4 4 4 4 4 4 * & &.i.,.>.>.& @ X . X X + @ $ $ @ @ 0 &.>.i.i.h 1 3 * & & $ & $ & & & & & & & & & & & & & & * 1 3 * * * & & & & & * 1 3 3 4 4 4 4 4 4 4 4 4 4 f J ",
"X & 4 4 4 4 4 4 3 * & g j y 6 3 & & & $ # # $ $ & $ $ @ X @ & 4 0 g O.0 4 * * & * & * & * & * * * * * * & * * * * 3 1 3 3 * * * & * * 3 3 1 4 4 4 4 4 4 4 4 4 4 4 4 g Z ",
"X * 4 4 4 4 4 4 * & # @ + X @ $ & & * * & & & * 2 * & @ X X X @ $ * 1 4 3 3 * 3 * * * * * * * * * * * * 3 * 3 3 * 4 3 4 4 3 3 * 3 3 1 3 3 3 4 4 4 4 4 4 4 4 4 4 4 4 f Z ",
"X $ & & & & & & $ # @ X X @ @ $ & & & & & & & & & & $ @ @ X X @ @ $ & & * & & & & & & & & & & & & & & & & & & & & & & & & & & & & & & & & & & & * & & & & & * & & & $ y ",
"X @ @ # # # @ @ @ @ X X X X X @ @ @ @ @ @ @ # # @ @ @ @ @ X X X X @ @ $ @ @ @ @ @ @ @ @ # @ @ @ @ @ @ @ @ @ @ @ # @ @ @ # @ @ # @ @ # @ @ @ @ @ @ @ $ @ @ @ @ @ # @ + X "
};
