/* XPM */
static char *Ninja_UV_Icon[] = {
/* columns rows colors chars-per-pixel */
"32 32 137 2",
"   c #101010",
".  c gray8",
"X  c #161616",
"o  c #181818",
"O  c #191919",
"+  c gray10",
"@  c #1B1B1B",
"#  c gray11",
"$  c #1D1D1D",
"%  c #1E1E1E",
"&  c gray12",
"*  c #202020",
"=  c gray13",
"-  c #222222",
";  c #232323",
":  c gray14",
">  c #252525",
",  c gray15",
"<  c #272727",
"1  c #282828",
"2  c gray16",
"3  c #2A2A2A",
"4  c gray17",
"5  c #2C2C2C",
"6  c #2D2D2D",
"7  c gray18",
"8  c #2F2F2F",
"9  c gray19",
"0  c #313131",
"q  c #323232",
"w  c gray20",
"e  c #343434",
"r  c #353535",
"t  c gray21",
"y  c #373737",
"u  c gray22",
"i  c #393939",
"p  c #3A3A3A",
"a  c gray23",
"s  c #3C3C3C",
"d  c gray24",
"f  c #3E3E3E",
"g  c #3F3F3F",
"h  c gray25",
"j  c #414141",
"k  c gray26",
"l  c #434343",
"z  c #444444",
"x  c gray27",
"c  c #464646",
"v  c gray28",
"b  c #484848",
"n  c #494949",
"m  c gray29",
"M  c #4B4B4B",
"N  c #4C4C4C",
"B  c #4E4E4E",
"V  c gray31",
"C  c #505050",
"Z  c #515151",
"A  c gray32",
"S  c #535353",
"D  c gray33",
"F  c #555555",
"G  c #565656",
"H  c gray34",
"J  c #585858",
"K  c gray35",
"L  c #5A5A5A",
"P  c #5B5B5B",
"I  c gray36",
"U  c #5D5D5D",
"Y  c #5F5F5F",
"T  c #606060",
"R  c gray38",
"E  c #626262",
"W  c gray39",
"Q  c #646464",
"!  c #656565",
"~  c #676767",
"^  c DimGray",
"/  c gray42",
"(  c #6C6C6C",
")  c #6D6D6D",
"_  c gray43",
"`  c gray44",
"'  c #717171",
"]  c gray45",
"[  c #767676",
"{  c gray47",
"}  c gray48",
"|  c gray49",
" . c #7F7F7F",
".. c #808080",
"X. c #818181",
"o. c #848484",
"O. c #868686",
"+. c #888888",
"@. c gray54",
"#. c gray55",
"$. c #8D8D8D",
"%. c #8E8E8E",
"&. c #909090",
"*. c gray57",
"=. c #929292",
"-. c #939393",
";. c gray58",
":. c #959595",
">. c #979797",
",. c #989898",
"<. c gray60",
"1. c #9A9A9A",
"2. c #9B9B9B",
"3. c gray61",
"4. c #9D9D9D",
"5. c gray62",
"6. c #A0A0A0",
"7. c gray63",
"8. c gray64",
"9. c #A5A5A5",
"0. c gray65",
"q. c gray66",
"w. c #A9A9A9",
"e. c gray67",
"r. c #ACACAC",
"t. c #AEAEAE",
"y. c #AFAFAF",
"u. c #B1B1B1",
"i. c gray70",
"p. c #B4B4B4",
"a. c gray71",
"s. c #B6B6B6",
"d. c #B7B7B7",
"f. c gray72",
"g. c #B9B9B9",
"h. c gray77",
"j. c gray100",
/* pixels */
"Y $.&.*.-.:.>.,.2.3.4.6.7.8.9.0.q.w.e.r.t.y.u.u.i.p.a.s.d.f.g.h.",
"j E Q ~ ^ ( _ ' ] [ { } |  .X.o.O.+.@.#.%.&.=.;.:.>.<.1.3.4.5.g.",
"g T E Q ~  . . .' ] [ { } |  . . . .+.@.#.%.&.=.;. . . .1.3.4.f.",
"d U P D Z  . . .j.j.j.j.j.j.j. . . .j.j.j.j.j.j.j. . . .<.1.3.d.",
"a P C u 4  . . .J K I U F h t  . . ./ ) _ ` Q N g  . . .>.<.1.s.",
"p J m 2 o - j.h j l x c d 2 % 3 j.V C A D F m 9 : g j.;.:.>.<.a.",
"u G N 0 * 8 j.Z D F J K Z u 2 p j.! ~ ^ / ) E l 9 N j.=.;.:.>.p.",
"y S A g 0 l j.E Q ~ ^ ( ^ Z d F j.} |  .X.o...E m Q j.&.=.;.:.i.",
"r Z S c y m j.T E Q ~ ^ ( K c U j.{ } |  .X.o.) F ` j.%.&.=.;.u.",
"w B Z l t  . . .T E Q ~ ^ J x  . . .{ } |  .X./ D  . . .%.&.=.u.",
"q N m p 5  . . .j.j.j.j.j.j.j. . . .j.j.j.j.j.j.j. . . .#.%.&.y.",
"9 m j 3 #  . . .m M B C b q :  . . .U T R W L f 6  . . .@.#.%.t.",
"8 v s = . # j.t y i p s e ; + : j.x c b m M j 4 * i j.O.+.@.#.r.",
"6 x d < + , j.l c v m M x 9 ; q j.J K I U T G a 4 z j.o.O.+.@.e.",
"4 k k w < y j.Z S G J P K x e b j.^ ( _ ' ] ` G j L j.X.o.O.+.w.",
"3 h k u 5 s j.B Z S G J P M s C j.~ ^ ( _ ' ] T M W j. .X.o.O.q.",
"1 f h t 4  . . .B Z S G J m p  . . .~ ^ ( _ ' U m  . . . .X.o.0.",
"< s a 7 ;  . . .j.j.j.j.j.j.j. . . .j.j.j.j.j.j.j. . . .|  .X.9.",
", p e = X  . . .s f g k s 3 %  . . .C Z D F B r <  . . .} |  .8.",
": u 8 +   X ; 4 5 7 8 0 4 $ X % 0 p s d f h u > # q U [ { } | 7.",
"; t 9 - + = 7 t u p s f u 4 : 7 g m M B C Z m u 8 h R ] [ { } 6.",
"- e w 9 8 e a h k x v m b l k v A J P U T E Y J F U ^ ' ] [ { 4.",
"* q e t u p s f h f s j.m N n v j.M j.P U T I H j.^ ( _ ' ] [ 3.",
"& 9 q e t u p s f e 2 j.v m f 0 j.e j.J P U B d j.~ ^ ( _ ' ] 2.",
"% 7 9 q e t u p s 7 * j.x v y , j.6 i j.J F h j.C Q ~ ^ ( _ ' ,.",
"$ 5 7 9 q e t u p 6 & j.k x r > j.t 6 j.G v w j.L E Q ~ ^ ( _ >.",
"# 4 5 7 9 q e t u 4 % j.h k e ; j.f 5 u j.a j.m U T E Q ~ ^ ( :.",
"@ 2 4 5 7 9 q e t 3 $ j.f h 0 - j.x e 5 j.8 j.A P U T E Q ~ ^ -.",
"+ 1 2 4 5 7 9 q e 1 # j.s f 9 = j.v s 4 < j.l G J P U T E Q ~ *.",
"O , 1 2 4 5 7 9 q 3 % ; j.j.j.j.t x l w , j.N S G J P U T E Q &.",
"o > , 1 2 4 5 7 9 8 < % # $ - 7 s k x p 7 f B Z S G J P U T E $.",
". o O + @ # $ % & * * # @ # * > 3 4 6 5 3 8 w r y u p a d g j Y "
};
