/* XPM */
static char *NinjaUV_NinjaMapping[] = {
/* columns rows colors chars-per-pixel */
"64 32 256 2",
"   c #020203",
".  c #030C0C",
"X  c #0A0A0A",
"o  c #000509",
"O  c #1A0E0F",
"+  c #000C10",
"@  c #091414",
"#  c #00141E",
"$  c #0D1A1A",
"%  c #051615",
"&  c #141414",
"*  c #1C1C1C",
"=  c #141D1D",
"-  c #381819",
";  c #321616",
":  c #001C23",
">  c #00222C",
",  c #142222",
"<  c #1C2524",
"1  c #1C2928",
"2  c #18282A",
"3  c #002A36",
"4  c #002E3B",
"5  c #002630",
"6  c #00303D",
"7  c #232323",
"8  c #242C2D",
"9  c #2B2B2B",
"0  c #342A2B",
"q  c #332222",
"w  c #2E2F30",
"e  c #223231",
"r  c #2F3534",
"t  c #343434",
"y  c #393333",
"u  c #3B3B3B",
"i  c #343A3A",
"p  c #5C1E1F",
"a  c #413F18",
"s  c #49292A",
"d  c #5F292A",
"f  c #423B3A",
"g  c #513F3F",
"h  c #622C2D",
"j  c #7C3133",
"k  c #004006",
"l  c #5C521F",
"z  c #5C4624",
"x  c #664828",
"c  c #756B3D",
"v  c #013441",
"b  c #003A4A",
"n  c #013847",
"m  c #163A43",
"M  c #273E44",
"N  c #343D40",
"B  c #5A3F40",
"V  c #7C3F40",
"C  c #014254",
"Z  c #014A5C",
"A  c #164856",
"S  c #2A4244",
"D  c #364546",
"F  c #244B55",
"G  c #374B50",
"H  c #004E63",
"J  c #01566B",
"K  c #02586E",
"L  c #005C74",
"P  c #005E79",
"I  c #365963",
"U  c #3B5B67",
"Y  c #04637B",
"T  c #1C6476",
"R  c #39636D",
"E  c #434343",
"W  c #4C4C4C",
"Q  c #494646",
"!  c #554A4A",
"~  c #5C4546",
"^  c #4F5658",
"/  c #545454",
"(  c #5B5B5B",
")  c #5B5150",
"_  c #654D4F",
"`  c #6D4C4C",
"'  c #6F4647",
"]  c #714B4C",
"[  c #714648",
"{  c #62595A",
"}  c #675657",
"|  c #7A5656",
" . c #7A5F5F",
".. c #5F5D60",
"X. c #4A6368",
"o. c #5B6364",
"O. c #5E6968",
"+. c #646565",
"@. c #6B6B6B",
"#. c #6B6462",
"$. c #7F6B6C",
"%. c #636D78",
"&. c #706F70",
"*. c #6F7474",
"=. c #737373",
"-. c #7C7272",
";. c #7C7C7C",
":. c #BC393D",
">. c #BD363B",
",. c #F1020A",
"<. c #F40C14",
"1. c #FE0C13",
"2. c #EC131A",
"3. c #EA181F",
"4. c #FD1116",
"5. c #F4151D",
"6. c #FD161C",
"7. c #EA1D25",
"8. c #FD1A22",
"9. c #F21C23",
"0. c #C2373B",
"q. c #CC393E",
"w. c #EF242A",
"e. c #FF232B",
"r. c #FD2D34",
"t. c #FF353C",
"y. c #FF383F",
"u. c #F5383D",
"i. c #855234",
"p. c #DA3B41",
"a. c #ED3F45",
"s. c #F03D43",
"d. c #8E4042",
"f. c #814748",
"g. c #98494A",
"h. c #8A4E50",
"j. c #825254",
"k. c #8B595A",
"l. c #965557",
"z. c #9B5455",
"x. c #985659",
"c. c #975C5D",
"v. c #A15658",
"b. c #B05254",
"n. c #827357",
"m. c #BB7349",
"M. c #A75F61",
"N. c #8A6869",
"B. c #916262",
"V. c #9A6A6A",
"C. c #996D69",
"Z. c #986F71",
"A. c #8F7372",
"S. c #887E7A",
"D. c #927372",
"F. c #9B7373",
"G. c #967B7C",
"H. c #A46465",
"J. c #AB6B6C",
"K. c #A06D6F",
"L. c #BA6566",
"P. c #B26869",
"I. c #A57172",
"U. c #AD797B",
"Y. c #B77476",
"T. c #AB6C77",
"R. c #D84A4F",
"E. c #D64F53",
"W. c #D15A5E",
"Q. c #C3585B",
"!. c #FB4047",
"~. c #F1484D",
"^. c #EE4D53",
"/. c #FD4B52",
"(. c #E8565B",
"). c #F45559",
"_. c #C75F62",
"`. c #EA5F63",
"'. c #F55E63",
"]. c #CA626A",
"[. c #D66469",
"{. c #C56C75",
"}. c #DB7578",
"|. c #F26267",
" X c #00800C",
".X c #00BE12",
"XX c #508436",
"oX c #5DB12F",
"OX c #6FA634",
"+X c #00C112",
"@X c #00DA15",
"#X c #29DA1F",
"$X c #00EB16",
"%X c #00E616",
"&X c #00F317",
"*X c #00FF18",
"=X c #05F618",
"-X c #C0845A",
";X c #C38561",
":X c #016983",
">X c #006C8A",
",X c #01728E",
"<X c #0F768F",
"1X c #007492",
"2X c #007897",
"3X c #007798",
"4X c #007C9D",
"5X c #357687",
"6X c #897C8B",
"7X c #AC7D81",
"8X c #AB7C8B",
"9X c #0184A5",
"0X c #088AAA",
"qX c #1B8EAA",
"wX c #028EB0",
"eX c #0292B5",
"rX c #0296BB",
"tX c #0399BE",
"yX c #0A9ABF",
"uX c #7C8386",
"iX c #798B92",
"pX c #029BC3",
"aX c #03A4CD",
"sX c #0FA3C7",
"dX c #16A6C9",
"fX c #12A3C7",
"gX c #03A9D1",
"hX c #838383",
"jX c #8A8A8A",
"kX c #9B928F",
"lX c #939393",
"zX c #9C9C9C",
"xX c #929C9C",
"cX c #A19C9B",
"vX c #A4A4A4",
"bX c #A7A7A8",
"nX c #AAAAAA",
"mX c #B1A8A6",
"MX c #B5B0AF",
"NX c #B6B5B5",
"BX c #B5BEBD",
"VX c #BDBDBD",
"CX c #C08C8E",
"ZX c #BFC0C0",
"AX c #CFCFD0",
"SX c #DBDBDB",
"DX c #D4D7D7",
"FX c #C8C8C8",
"GX c #DEE5E5",
"HX c #E3E3E3",
"JX c #EEE6E3",
"KX c #E5EBEB",
"LX c #EBECEC",
"PX c #F4F3F3",
"IX c #FFFFFF",
"UX c #FCF8F6",
/* pixels */
"7 zXzXlXzXzXzXzXNXzXzXzXvXzXvXzXVXvXvXvXvXvXvXvXVXbXbXbXnXbXbXnXVXnXbXnXnXbXbXnXFXvXnXnXnXnXnXnXVXnXnXnXbXnXnXbXVXnXnXnXnXnXnXnX",
"* jX;.;.;.hX;.hXzXhX;.hXhXhXhXhXzXhXhXhXS.uXhXhXvXhXjXhXG.I.L.P.U.7XY.L.P.G.jXjXbXhXhXjXhXjXjXhXbXjXjXhXjXhXjXjXvXjXhXjXjXhXjXnX",
"* ;./ / ^ / / / hX( / ( ( ( ( / hX( ( ( / ( ^ ( hX( _ l.c.{ I T <X0XqX5X..x.z.` hX( ( ( ( ( ( ( hX( ( ( ( ( ( ( 6X/ ( / ( / ..lX",
"* =.W W W ! / / ;./ / / / / / / ;./ / / / / / / ;.` v.) < 4 Z 9XpXpXtX9XL m ! M.V./ / / / / / / ;./ / / / / / / ;./ W / W W / lX",
"* ;.W W W / / / hX/ / ( / / / ( S./ ^ / ( / / W  .M.r . 3 H 1XeXpXtXpXpX9XP n i J.| / / / / / ( hX/ ( / / ( ( / ;./ / / / W / lX",
"7 =.W W W / / ( *X( ( ( ( ( ( ( *X( ( ( ( ^ ! g  .<   : C Y 0XdXdXdXfXsXpX9XL 3 , H.] ( ( ( ( ( *X( ( ( ( ( ( ( *X( / / / W ( lX",
"* =.W / / / ( *X*X*X( ( ( ( ( *X*X*X( ( / W Q c D , y _ N.T.{.].[.[.].{.8XjX%.U 2 e c.{ ( ( ( *X*X*X( ( ( ( ( *X*X*X/ / / W / lX",
"* lX;.;.;.hX*X*X*X*X*XhXjXhX*X*X*X*X*XhX=.+.XXD.| Q.^.t.e.6.4.<.<.<.<.1.1.8.r.~._.| S.I.hXjX*X*X*X*X*XhXhXhX*X*X*X*X*XhXhX;.hXMX",
"* &.W / / / ( *X*X*X......( ..*X*X*X( / Q E Y.(.t.8.5.2.3.7.7.7.7.7.7.7.7.3.2.5.8.t.`.}.+...( *X*X*X+.( +.( ( *X*X*X( / / / / lX",
"* &.W W / / ( ( *X( ..o.....( ..*X( / W u V.r.<.<.2.5.5.8.8.8.8.8.8.8.8.8.8.5.5.2.<.<.r.7Xo.....*X( ( +.( ( +.{ *X( ( / / / / lX",
"* @.W W / / / ( hX( ( { ( ..( ( hX/ W u 9 9.1.e.r.t.!.~.q.q.0.>.>.>.>.0.q.q.~.!.s.r.8.1.5.N.( ( hX( ( ( ( ( ( ( hX( / / / W / jX",
"* &.W W W / / ( hX( ( ( ( ( ( ( hX/ E w 7 a.R.b.x.' s 0 y Q / o.*.*.o./ E y 0 s [ c.b.R.s.F.( ( hX( ( ( ( ( ( ( hX( / / / W / lX",
"& @.Q W W / ( ( hX( ( ( ( / ( ( ;.W t 9 * F.1 & . 8 o.xXBXDXGXKXKXLXKXGXDXBXxXO.7 X & < B.-.( ( hX( ( ( ( ( ( ( hX/ / W W W / lX",
"* @.Q Q W W / / *X( / ( ( ( ( / $XQ t * & `     +.hX@.nXIXIXIXIXIXIXIXIXIXPXcX@.lX+.    ~ k./ ( *X( / ( ^ ( ( / *X( / / W W / jX",
"* @.E W W W / *X*X*X/ / ( / / *X$X+X9 * & ]   ;.PXbXuX( ( NXKXLXIXIXLXHXnX/ ( uXnXPX;.  ~ l./ *X*X*X/ ( ^ / / *X*X*X/ W W W W jX",
"& jX*.*.;.-.*X*X*X*X*X;.hXS.*X*X$X.X X9 7 ] $ AXIXIXIXNX& 9 ( zXPXLXjX+.7 t DXIXIXIXHX@ B I.*X*X*X*X*X;.S.hX*X*X*X*X*X;.-.=.;.bX",
"& @.Q Q Q W W *X*X*X/ / / / / *X$X.X9 * & j.% MXIXIXPXW X W zXSXIXIXDXVX9 & ( HXIXIXVX. [ k./ *X*X*X/ / / / / *X*X*XW W W Q W jX",
"& ..N Q Q W W / *XW / / / W W / $XN 7 * & h.@ N FXIXIX..  & AXIXIXIXIXGX*   w LXIXFXi . V.}.j._ #X/ W / W / / / *XW W W Q Q W jX",
"& +.z Q E W W W ;./ / W W / / / =.f 9 * = j r   F iXNXmX=.lXPXIXJXJXIXUXcX#.kXNXuXS   7 [.y.(.[._./ / W / W W / ;.W W Q Q Q Q uX",
"& +.M D E Q W W ;.W W W W W W W =.u 9 * & h {   # 4 A I X...( / G G ^ o.o.X.R A 4 :   W |.,.).W.N.W / W / W W W ;.W Q Q Q D W hX",
"& +.f E E Q W W ;.W W W W W W W %.z 9 * & - B.$ . 4 4 v J >X,X,X9X9X2X2X4XY b 6 3 + @ F.e.'.z.! ;.W W W W W W W ;.W Q E E z G 6X",
"& ..u N E E Q Q *XW W W W Q W W &Xu w * & & f./   . 4 n Z 1XtXaXpXpXpXpXwX:XZ v +   D |.,.~.g.~ =XW Q W W W W W *XQ Q D E D E uX",
"& ( u f N E D *X*X*XQ Q Q Q W *X=X@Xw 7 & O ; C.e     : Z ,XeXpXrXtXtXtX9XJ :     * CX/.w.w.|.;XoX*XW Q Q Q Q *X*X*XE B E N E ;.",
"& hX@.@.&.&.*X*X*X*X*X*.=.=.*X*X*X%X.Xu 9 * k a F.,   6 K ,XeXtXtXtXtXwXY 5     $ V.i.g._.W.m.-XOX*X*X=.*.=.*X*X*X*X*X&.&.@.=.zX",
"& ( t t i u u =X*X*Xf D B N N =X*X$Xt 9 * & & k z F.e   5 :XtXtXtXtXtXtXrXJ o 1 D.x & * 0 f f =X*X*XE f D f E *X*X*Xu u u i u ;.",
"& ( t t y i i u *Xu u u u N u i *XN t 9 * & & X k p v.!   3 eXpXrXrXtXaX2X: f H.l * * * 7 9 i y *Xu u u u i u u *Xu u t y t u ;.",
"& / t t r w t t +.t y t i t i i +.y w w 7 * & & * & ; d.#.. C aXgXgXgX>X> ) v.s u * * * 9 9 0 t +.t t t y t t t +.t t t t t t =.",
"& ( t t t t t r +.t t t t w w r +.t t w 9 7 * & * X @ O j N.S J >X:XL F N.d.q 7 W 9 9 9 9 9 w t +.t t t t t t t +.t t t t t t =.",
"& +.u E D z B N =.E E E E E z D &.E B N i t 9 7 0 & & X & s g.D.&.&.D.z.h 8 t N @.u u u u E E Q =.E E E Q E E E =.E Q Q Q E W ;.",
"& @.{ ( ....( ..jX( ..{ ( ( ..( hX..( ( ( ^ W E W 9 < * * * * * 7 * 9 y z ^ ....jX+.+.+.+.+.+.+.jX@.+.+.+.@.@.+.jX@.+.@.@.+.&.uX",
"  7 9 9 8 9 w 9 9 9 9 9 9 9 9 9 w 9 9 9 9 9 9 9 7 * & & O X & X & * * 7 9 9 w w 9 t w t t w t t t t y t y i t y i y u t u y w t ",
"  X X X o . o X X X X   X X X   X X X X X X X   X X   X       X   o o X X X X X X X X X X X X X X X X X X X X @ X X X X X X X X "
};
