/* XPM */
static char *NinjaMesh_DupFace[] = {
/* columns rows colors chars-per-pixel */
"75 24 154 2",
"   c gray2",
".  c #0A0A0A",
"X  c #141414",
"o  c #141A1A",
"O  c #1C1C1C",
"+  c #072A2A",
"@  c #142525",
"#  c #1B2323",
"$  c #143D3D",
"%  c #1D3E3E",
"&  c #242424",
"*  c #2D2D2D",
"=  c #333333",
"-  c #343939",
";  c #3B3B3B",
":  c #034040",
">  c #094040",
",  c #055151",
"<  c #0F5656",
"1  c #025C5C",
"2  c #1C5555",
"3  c #204545",
"4  c #2D4242",
"5  c #264848",
"6  c #324343",
"7  c #3B4343",
"8  c #324C4C",
"9  c #245A5A",
"0  c #3B5F5F",
"q  c #026363",
"w  c #0E6363",
"e  c #016F6F",
"r  c #027777",
"t  c #127575",
"y  c #216262",
"u  c #206C6C",
"i  c #316262",
"p  c #3E6363",
"a  c #336B6B",
"s  c #257676",
"d  c #434343",
"f  c #4C4141",
"g  c #434C4C",
"h  c #4A4A4A",
"j  c #584F4F",
"k  c #415050",
"l  c #545454",
"z  c #565858",
"x  c #5D5D5D",
"c  c #416464",
"v  c #516464",
"b  c #586262",
"n  c #616161",
"m  c #6D6D6D",
"M  c #717171",
"N  c #7A7A7A",
"B  c #078484",
"V  c #018E8E",
"C  c #188B8B",
"Z  c #029191",
"A  c #039D9D",
"S  c #149C9C",
"D  c #248989",
"F  c #01A4A4",
"G  c #0DA4A4",
"H  c #00ACAC",
"J  c #08ADAD",
"K  c #17A3A3",
"L  c #1EA2A2",
"P  c #01B2B2",
"I  c #01BBBB",
"U  c #0BBCBC",
"Y  c #26A4A4",
"T  c #52BCBC",
"R  c #72A4A4",
"E  c #76ABAB",
"W  c #03B3DE",
"Q  c #02C3C3",
"!  c #0AC7C7",
"~  c #03CCCC",
"^  c #08CACA",
"/  c #1DC3C3",
"(  c #11C9C9",
")  c #1ECBCB",
"_  c #02D3D3",
"`  c #01DCDC",
"'  c #0DDCDC",
"]  c #17D2D2",
"[  c #12DBDB",
"{  c #1AD9D9",
"}  c #00E5E5",
"|  c #09E4E4",
" . c #00EAEA",
".. c #18E0E0",
"X. c #1CEBEB",
"o. c #00F8F8",
"O. c #21E2E2",
"+. c #25EAEA",
"@. c #29EAEA",
"#. c #3FF6F6",
"$. c #76C7C7",
"%. c #7FC5C5",
"&. c #73CDCD",
"*. c #7ACACA",
"=. c #71D0D0",
"-. c #7FD9D9",
";. c #42EFEF",
":. c #838383",
">. c #8C8A8A",
",. c #938282",
"<. c #988686",
"1. c #8F9292",
"2. c #959595",
"3. c #9C9B9B",
"4. c #A38D8D",
"5. c #B19999",
"6. c #8BAFAF",
"7. c #9FA6A6",
"8. c #92A8A8",
"9. c #A4A4A4",
"0. c #ADA6A6",
"q. c #A4AAAA",
"w. c #ADADAD",
"e. c #B3A4A4",
"r. c #BCA7A7",
"t. c #B6ADAD",
"y. c #BFA9A9",
"u. c #B4B4B4",
"i. c #BEBDBD",
"p. c #C8B0B0",
"a. c #99CECE",
"s. c #8FE5E5",
"d. c #ACF1F1",
"f. c #B5F4F4",
"g. c #C4C4C4",
"h. c #CCCDCD",
"j. c #D4CCCC",
"k. c #DDCBCB",
"l. c #D2D3D3",
"z. c #DED5D5",
"x. c #D7D9D9",
"c. c #DEDCDC",
"v. c #E1CBCB",
"b. c #E2D0D0",
"n. c #EAD7D7",
"m. c #E7DEDE",
"M. c #ECDBDB",
"N. c #C2E1E1",
"B. c #D4E5E5",
"V. c #C2F5F5",
"C. c #CDF3F3",
"Z. c #D6F4F4",
"A. c #F5E4E4",
"S. c #F2EAEA",
/* pixels */
"X :.2.2.2.2.2.2.2.3.3.3.3.3.3.3.9.3.9.9.9.9.9.9.9.9.0.9.0.9.q.q.0.0.0.w.w.q.t.w.t.w.w.w.w.w.t.w.w.u.w.w.t.w.w.t.w.w.t.w.w.w.w.w.t.w.w.w.w.w.0.w.w.w.u.",
". N m n m n m m m m m m m m m m m m m m m m m M M m m M M M M M M M M M M M M M M M M M M M M M M M M M M M M M M M M M M M M M M M M M M M M m m N q.",
". M z l z z x x x x x x x x x b x x x x x x x x x x x b x n x n x x x x n x x x x x x n n x b x x x b x x x x n b x x x x x b n x n x x x x z z x b 0.",
"X M l z n >.9.q.e.0.9.0.r.5.3.2.N n n n x n n n n n x n x n n n b n n n n x n b n n n n n n n x n x n n n n n n n n n n n x n n x n n n x z z x z n 9.",
"X n ; m N 9.w.t.r.8.E 6.q.e.i.i.>.n n n n n n n n n n n n n n n n n n n n n n n n n n n n n n n n n n n n n n n n n n n n n n n n n n n x x x j j n 0.",
"X x * u.h.p.t.0.R L G K Y T N.S.2.n n n n n n n n n n n n n n n n n n n n n n n n n n n n n n n n n n n n n n n n n n n n n n n n n n n x x x z l n 9.",
". l O l.B.c.n.a./ I P F I ..d.n.N x k i c v b n n n n n n n n n n n n n n n n n n n n n n n n n n n n n n n n n n n n n n n n n n n n n x x x z z n 9.",
"X l X h.x.m.A.s.O.{ ) ( ` X.f.k.z 7 w Z B t u a c l W W W W W n n n n n n n n n n n n n n n x x z W x z W n n n n n n n x z W n n n n x x x z z l x 9.",
". l o g.l.z.n.-.[ [ ] '  .X.V.r.g < H G V V F U C * W * * = h W n x n n n n x n x x n n x n n h - W l h l n n n n n n n h ; W n n n x x x x z l l x 9.",
". h X g.h.j.b.&.~ ~ ^ `  .+.C.4.8 Z Q J A F _ U y * W d d d ; d W x l W x l l W z l W h W W x h * W l h W x z h W W W z ; W W W z h W W W z l l h z 9.",
". l X g.h.j.v.&.~ ~ Q _ } +.Z.<.5 V I H F U | C 6 * W x x l ; = W h - W x h ; W h = W W = d W d * W h ; W l d W * = d W * X W h d W * = d W j h h z 9.",
". h X i.h.j.v.*.~ ~ Q _  .+.Z.,.3 V I H F Q ` s ; * W z z z d = W ; * W l d * W ; & W ; = = W d * W ; * W h ; ; d - * W ; O W d = W ; = * W l h h z 9.",
". h X g.h.j.k.$.~ Q Q _ } #.B.j $ F P H H Q ' a ; * W l l l ; & W ; & W j d & W ; & W h ; * W ; & W d & W h f ; W W W W ; * W d & W W W W W h h h l 3.",
". h X i.h.j.v.*.! Q Q ~  .;.N * $ P I H H _ U k ; * W l l l ; & W ; * W l ; & W ; & W l ; & W ; & W ; * W h ; W * O O W ; & W ; O W * & & ; h h d l 3.",
". h X x m >.r.a.! Q I ` o.D ; & , P P F H _ K 8 ; & W h h h = W d ; & W h ; & W ; & W W ; & W ; & W ; & W d * W = & W W ; & W ; & W - = = W d d ; l 3.",
". l & O X & d 0 Z P Q } P 6 ; & 1 P P F H ` S g - O W W W W W = d ; & * W W W W ; O W * W W ; ; & W - & W ; & * W W X W ; O W W & * W W W ; d d ; h 3.",
". z = * & & X X + $ r F 2 ; - # q P H A H ` C 7 = & O & & & = ; f ; = & O O & = = O W & & = ; = * ; = & ; ; = & & & & = ; O & ; = & O & = ; ; ; ; h 2.",
". x ; = = = = & & X @ $ - ; * @ e P H A I Q 9 d ; = * * * = ; ; ; ; ; = = * = ; * O W = = ; ; ; = ; ; ; ; ; ; = = ; = ; ; = = ; ; = = = = ; ; = ; f 2.",
". x ; = = = = = * * & = ; = * @ 1 F F F Q G 4 ; = ; ; ; = ; ; ; ; ; ; ; ; - - ; * & * ; ; ; ; ; - ; ; ; - - ; ; ; ; - ; ; ; = ; ; - ; - ; = = = = ; 2.",
". x = * * * = = = = = = = = & O . . X . X & * = = = = = = = = = = = = = = = = = = * = = = = = = = = = = = = = = = = = = = = = = = = = = = = = * = d >.",
". l = * * & * = * = * * * = * & & & & & & * * = * = * * * * * * * * * = * * * = * = * = = * * * * * = * * = = * * * * * * * * * * = * * * * * * * = >.",
". m h ; d d ; d ; d d d d d d ; d d d ; d d d d d ; d d d d d d d d d d d d d d d d d d d f d h h f d f d d d h h h h h h f h h h h h h h h h h h z 3.",
". h l l h l l l l l l l l l l l l h l l l l l l l l l l l l l l l l l l l l l l z l l z z z z x z x z x x x x n x x n n n n n n n n n m n n n m n m m ",
"      . . .   . .     .     .   . . .     .     . .     .   .     . . . . . . . . . . . . . . . . . . . . . . . . . . . X . . . X . . . . X . . X . . "
};
