/* XPM */
static char *NinjaUV_MoveArrowUP[] = {
/* columns rows colors chars-per-pixel */
"75 24 129 2",
"   c black",
".  c #010101",
"X  c #020202",
"o  c #040404",
"O  c gray2",
"+  c #070707",
"@  c gray3",
"#  c #090909",
"$  c gray4",
"%  c #0B0B0B",
"&  c #0C0C0C",
"*  c gray5",
"=  c #0E0E0E",
"-  c gray6",
";  c #101010",
":  c #111111",
">  c gray7",
",  c #2C2C2C",
"<  c #2D2D2D",
"1  c gray18",
"2  c #2F2F2F",
"3  c gray19",
"4  c #313131",
"5  c #323232",
"6  c gray20",
"7  c #343434",
"8  c #353535",
"9  c gray21",
"0  c #373737",
"q  c gray22",
"w  c #393939",
"e  c #3A3A3A",
"r  c gray23",
"t  c #3C3C3C",
"y  c gray24",
"u  c #3E3E3E",
"i  c #3F3F3F",
"p  c gray25",
"a  c #414141",
"s  c gray26",
"d  c #434343",
"f  c #444444",
"g  c gray27",
"h  c #464646",
"j  c gray28",
"k  c #484848",
"l  c #494949",
"z  c gray29",
"x  c #4B4B4B",
"c  c #4C4C4C",
"v  c gray30",
"b  c #4E4E4E",
"n  c gray31",
"m  c #505050",
"M  c #515151",
"N  c gray32",
"B  c #535353",
"V  c gray33",
"C  c #555555",
"Z  c #565656",
"A  c gray34",
"S  c #585858",
"D  c gray35",
"F  c #5A5A5A",
"G  c #5B5B5B",
"H  c gray36",
"J  c #5D5D5D",
"K  c gray37",
"L  c #5F5F5F",
"P  c #606060",
"I  c gray38",
"U  c #626262",
"Y  c gray39",
"T  c #646464",
"R  c #656565",
"E  c gray40",
"W  c #676767",
"Q  c #686868",
"!  c DimGray",
"~  c #6A6A6A",
"^  c gray42",
"/  c #6C6C6C",
"(  c #6D6D6D",
")  c gray43",
"_  c #6F6F6F",
"`  c gray44",
"'  c #717171",
"]  c #727272",
"[  c gray45",
"{  c #767676",
"}  c gray47",
"|  c #00C000",
" . c #00CB00",
".. c #00D500",
"X. c #00F400",
"o. c green",
"O. c #838383",
"+. c gray52",
"@. c #898989",
"#. c gray55",
"$. c gray56",
"%. c #929292",
"&. c gray58",
"*. c #959595",
"=. c gray59",
"-. c #979797",
";. c #989898",
":. c gray60",
">. c #9A9A9A",
",. c #9B9B9B",
"<. c gray61",
"1. c #9D9D9D",
"2. c gray62",
"3. c #9F9F9F",
"4. c #A0A0A0",
"5. c gray63",
"6. c #A2A2A2",
"7. c gray64",
"8. c #A4A4A4",
"9. c #A5A5A5",
"0. c gray65",
"q. c #A7A7A7",
"w. c gray66",
"e. c #A9A9A9",
"r. c #AAAAAA",
"t. c gray67",
"y. c #ACACAC",
"u. c gray69",
"i. c gray100",
/* pixels */
"> O.=.%.=.=.=.=.=.:.=.:.<.:.<.<.<.<.4.<.4.4.4.8.4.4.8.w.8.8.w.w.w.w.w.w.y.w.y.w.y.y.y.y.y.y.y.y.y.y.y.y.y.y.y.y.y.y.w.y.y.y.y.y.y.y.y.y.y.y.w.w.y.u.u.",
"= } W U W W W ~ ~ ~ _ ~ _ ~ _ _ _ _ _ _ _ _ _ _ ' _ _ _ _ ' ' _ _ ' _ ' ' ' ' ' ' ' ' ' ' ' ' ' ' ' ' ' ' ' ' ' ' ' ' ' ' ' ' ' ' ' ' ' _ _ _ _ _ { 8.",
"> ' G V G V G J J J J J J J J J J J J J J J U J J J J J J J J J J J J J J i.J J J J J J J J J J J J J J J J J J J J J J J J J U J J J J H G A G G J 4.",
"> ' G B V V G J U J U U U U J U U J U U U J J U U J U U U J U U U J U U i.. i.U J U U J U U U J U U U U J U U J U U U U U U J U P P U P J G G V V T 4.",
"= _ V B V G G J U J U U U U J U U U U J J U U U U U U U U J J U J U U i.. . . i.U U U U J U U U U J J U U U U U U J U U U U J U U P U J J G G V V U 4.",
"= _ B B V V J J U U U U U U U U U U U U U U U U U U U U U U U U U U i.. . . . . i.U U U U U U U U U U U U U U U U U U U U U U U U U U P J G G G V U 4.",
"= ~ V B V V J U J U U U U U U U U U U U U U U U U U U U U U U U U i.. $ . . . . O i.U U U U U U U U U U U U U U U U U U U U U U U U U U P J G A V J 4.",
"= ~ B n V G G J U U U U J U U U U J U U U U U U U U J U U U U U . i.i.i.. . . i.i.i.U U U U U J U U U U U J U U U U U U J U U U P U P U J H G V V J 4.",
"= W B n B V G J J J U J U U J U J U J U U J U J U J U J J U U J . . . i.. . . i.. J U U U J U U J U U J J U J U J U U J U U J U P P P J J G V V B G <.",
"= U n z B V V J J J J J J J J J J G J J J J J J J J J J J J J J J J . i.. . . i.J J J G J J J J J J J J J J J J J J J J J J J J J J J H H V V B n G 4.",
"$ U z z z B B V G G G J G J G G G G G G G J G J G G G G G G G G G G . i.. . . i.G J G G J G G G G G G G G G G G G G G J G G G G G G G G A B B n x V <.",
"$ U j j z z n B V V V V V V V V G V V V V V V V V V V G V V V V V V . i.i.i.i.i.V V V V V V V V V V V G V V V V V V V V V V V V V V V V V B n z z V <.",
"= J j s j z n n B B B B V B B B B B B B B B B B V B B B B B B B B B . . . . . B V B B B B B B B V B B B B B B B B B B B V B B B B B B B m n z z k m :.",
"$ J j s s z z n n n n n B n n n B n n n n n B n B n B n n n n B n B n n B n m m n B n B n n n n B n n B n n B n n B n n B n n B n B m n n z z j j n :.",
"= J s y s s j j z n z n n z n z n z n z z n n z n z z z z n n z z n z n | ..| x z n z z n z n n z n z n z n z n z n z n z n z n x x x z k j j s s z =.",
"$ J y e y s s j j j z j j j z j j j j z j j j j j z j z z j j z z j j  .X.o.X. .z j j z j j j j j j j j j z j j j j j z j j j j k k z j j s s i y z =.",
"$ J e 0 e y y s s j s s j s s s j s s s j s s j s j s s j s s s d s | X.o.o.o.X.| s s j s j s s s j s s s j s s j s j s s j s s j s s d s i y r e j %.",
"$ J e 0 0 0 e y y y y y y y y y y y y y y y y y y y y y y y y y y ; ..o.o.o.o.o...y y y y y y y y y y y y y y y y y y y y y y y y y y y y r e q 0 s $.",
"$ G 0 3 3 0 0 0 e e 0 e e e 0 e e e 0 e e e e e e e e 0 e e 0 e e = | X.o.o.o.X.| e e e e e e e e e e e e e 0 e e e e e e e e e e e e e 0 q 0 7 3 i #.",
"= G 0 < < 3 3 3 3 0 3 0 3 0 3 0 3 0 3 0 3 0 3 3 3 0 3 0 3 0 3 0 3 = =  .X.o.X. .0 3 3 0 3 3 0 3 3 3 0 3 3 0 3 0 3 0 3 3 0 3 3 0 3 7 3 7 3 3 < 2 3 y @.",
"= V 0 < < , < < < < 3 < 3 < 3 < 3 < 3 < < 3 3 < < 3 < 3 < < 3 < 3 2 = & | ..| 2 < < 3 3 < < 3 < 3 3 < < < 3 < 3 3 < < < < < < 3 < 2 2 < < < , , < 0 O.",
"$ W j y s s s s s s s s s s s s s s s s s s s s s s s s s s j s d d s > > > d d j s s j s j j j j j j j j j j j j j z z z j z z k z z k z k z z z V %.",
"$ j V B B B B B B B B B B B B B B B B B B B B B B B B B B B B B B V V V V V V B G V V G V G G G G G G G G J J J J U U J U U U U U T T W W W W W W ^ _ ",
". O $ O O $ O O $ O O $ $ O O $ $ O O $ O $ O $ O $ O $ O $ O $ @ @ @ @ $ O $ $ $ O $ $ $ $ $ $ $ $ $ $ $ $ = $ $ $ $ = $ = $ = = & = & & = = = = $ = "
};
