/* XPM */
static char *NinjaMesh_DetachFace[] = {
/* columns rows colors chars-per-pixel */
"75 24 113 2",
"   c gray2",
".  c #0A0A0A",
"X  c #131313",
"o  c #1C1E1E",
"O  c #192424",
"+  c #1D2C2C",
"@  c #0A3C3C",
"#  c #163C3C",
"$  c #242424",
"%  c #232D2D",
"&  c #2D2D2D",
"*  c #203535",
"=  c #333333",
"-  c #3B3B3B",
";  c #0F4949",
":  c #0C5353",
">  c #065858",
",  c #195151",
"<  c #195A5A",
"1  c #2B4242",
"2  c #254A4A",
"3  c #324A4A",
"4  c #3A4B4B",
"5  c #2F5252",
"6  c #2D5F5F",
"7  c #086060",
"8  c #066C6C",
"9  c #0D6D6D",
"0  c #057676",
"q  c #067D7D",
"w  c #087878",
"e  c #127575",
"r  c #1E7070",
"t  c #256262",
"y  c #206969",
"u  c #286D6D",
"i  c #3C6565",
"p  c #207676",
"a  c #207B7B",
"s  c #347A7A",
"d  c #444444",
"f  c #454949",
"g  c #4B4B4B",
"h  c #534E4E",
"j  c #445252",
"k  c #485151",
"l  c #545454",
"z  c #535858",
"x  c #5D5D5D",
"c  c #4B6060",
"v  c #576161",
"b  c #5E6363",
"n  c #616161",
"m  c #616868",
"M  c #6D6D6D",
"N  c #756A6A",
"B  c #717171",
"V  c #7A7A7A",
"C  c #0B8080",
"Z  c #018B8B",
"A  c #148181",
"S  c #1B8C8C",
"D  c #039494",
"F  c #019B9B",
"G  c #129D9D",
"H  c #258080",
"J  c #2A8484",
"K  c #289393",
"L  c #01A4A4",
"P  c #08A7A7",
"I  c #00ABAB",
"U  c #09ACAC",
"Y  c #00B3B3",
"T  c #0BB4B4",
"R  c #00BCBC",
"E  c #15B9B9",
"W  c #18BDBD",
"Q  c #03B3DE",
"!  c #04C3C3",
"~  c #00C9C9",
"^  c #08C8C8",
"/  c #02D4D4",
"(  c #09D2D2",
")  c #04DBDB",
"_  c #02E3E3",
"`  c #838383",
"'  c #8B8A8A",
"]  c #908585",
"[  c #928D8D",
"{  c #959595",
"}  c #9C9C9C",
"|  c #A4A4A4",
" . c #A9A0A0",
".. c #ADADAD",
"X. c #B5A9A9",
"o. c #AFB0B0",
"O. c #B3B3B3",
"+. c #BBBABA",
"@. c #C5C5C5",
"#. c #CEC2C2",
"$. c #CCCCCC",
"%. c #D6CACA",
"&. c #D3D4D4",
"*. c #DBDCDC",
"=. c #E4D8D8",
"-. c #DFE1E1",
";. c #E3E3E3",
":. c #E8E0E0",
">. c #E7E9E9",
",. c #EBEBEB",
"<. c #EFF0F0",
"1. c #F4F2F2",
"2. c #FCF4F4",
/* pixels */
"X ` { { { { { { } { { } } } | } | } | | | | | | | | | | | | ..| ........................X.o.....O.......O.........X.....X.o.o...O.................O.O.",
". V M n n n M M M M M M M M M M M M M M M M B N B M B B B N B B B M B B M M B M B N B B B B B B B B B B B B B B B B B B B B B B B B B B B M M M M B ..",
"X B x l l x z x x x x n x b x x x x x n x x n x x x b x x x x x b x x x x x x x x n x n b x x x x x x n x x n n b x x x x x x b x x x x x x l x x n | ",
"X M l x x M ' | | { { { O.O...| | +.@.' b x n x n n x b n n n n x b n n n n n n x n n n b x n n n n x n n x n n b b n n n n x b x n n n x x x l l n | ",
"X M f n B V | o.| | } ..$.&.@.+.O.&.*.{ n n n n n n b n n n n n n n n n n n n n n n n n n n n n n n n n n n n n n n n n n n n n n n n n x x x l l n | ",
"X x = | @.$.&.@.+...+.&.;.;.*.&.$.;.;.[ n n b b n n n n n n n n n n n n n n n n n n n n n n n n n n n n n n n n n n n n n n n n n n n n x x x l l n | ",
". x & @.;.=.;.;.*.*.;.,.;.;.=.-.*.,.:.V x k t u i c b b b m n n n n m n n n n n n n n n n n n n n n n n n n n n n n n n n n n n n n n n x x l x l n | ",
"X x & ..&.&.*.*.-.>.<.;.*.*.*.&.&.<.=.m k , D D C e r H J s n x h Q Q Q Q Q n n n n n n n n n x l Q n n n n n n n n n n n n n x l Q n n x x x l l n | ",
". l $ ..$.&.&.&.&.*.>.=.*.*.*.&.&.1.#.z 2 D P D Z D Y ) / E n g = Q & & = g Q n n n n n n n n h - Q n n n n n n n n n n x n n g - Q n n n x x l l x | ",
"X l & | @.$.$.&.$.&.>.>.*.*.&.&.&.2.X.j 9 ! T P F L / _ ) W x f & Q f f d - f Q x l g Q Q Q l - Q Q Q x f Q Q Q x x x g Q Q x f & Q g Q Q l l l g x | ",
". l $ } @.$.$.$.@.&.,.<.,.;.;.&.*.1.| 3 w R R I I ^ ) U G K x d & Q x l l - = Q l d Q & = d Q = X Q g - Q & = d Q l d Q = d Q d $ Q Q = - Q l h g x | ",
". l % { +.@.&.$.$.$.*.>.;.,.;.;.=.2.| 3 w R Y I I ( ( A r s l d & Q l l l - & Q d = Q - = & Q - o Q g - - - = = Q f & Q - - g - $ Q - = = Q g g f l | ",
". l $ { +.@.$.@.@.$.&.&.;.;.;.*.>.2.] - q R I I I / ^ y 6 i l - & Q l l l - & Q - $ Q Q Q Q Q - & Q h - - Q Q Q Q - & Q h f g - $ Q h - $ Q g f f l } ",
". l $ } @.%.&.&.@.@.*.;.&.$.&.*.1.%.f * D R I I Y / T 5 4 k h - & Q k h l - & Q - o Q & $ $ - - & Q h - Q $ $ o Q - $ Q h l l - & Q g - $ Q g f f h | ",
". l $ n B ` O.&.$.$.;.@.n l ` O.+.N = # L R I L Y _ G 4 d g g - $ Q h g f = Q - - o Q - = = Q - $ Q - & Q = $ Q Q - $ Q f d Q - $ Q h - $ Q f d d h } ",
". l & $ $ $ f M ' @.+.x = & & f l - = ; I Y I I Y ) S f f f g = o Q Q Q Q Q = d - & & Q Q Q - - o Q Q & & Q Q o Q - $ & Q Q d = $ Q f = $ Q d - - f } ",
". x = & & $ $ $ & M x - - - = = - - & : I Y I L R ) r d d d f = o o o $ & = - - - = $ $ & = - = $ $ = = o $ & & = - = $ $ = - = & = - - & = - - - g { ",
". x - = = = = & $ = = - - - - - - = % > I Y L L ! ) t 4 - - - - = & = & = - d - - - = & = - - - = = - - = = = = - - - = = - - - = - - - = - - - = d { ",
". x - = = = = = = = = - - - - = - = + 8 I I L L ~ U 1 - - = - - - - - = = - - - - - - = = - - - - - = - - - - = - - - - - - - - = - - - = = = = = d { ",
". n = & & & = = = = = = = = = = = & O > F L L L ~ e = = = = = = = = = = = = = = = = = = = = = = = = = = = = = = = = = = = = = = = = = = = = = & = - [ ",
". x - & & & & & & = & & & & = & & & o @ 0 Z Z D P < & & & & & & & & = & = & & = = & & = = & & = & & & = & & & = = & & = & & = & & & = & & & & & & = ' ",
". n f - d - d d - d d d d d d - d - & $ $ O $ $ = - d d d d d d d d d d d d d d d d d d d d d d f f d d d f g d d g d g d g d g g h f g g f g d g l { ",
". f l l l l l h l l l l l l l l l h g f d d d f g l l l l l l l l l h l h l l l l l l x l x x x x x x x x n x n n x n n n n n n n n n M n M M M M M N ",
"      .     .   .     .     .       .   . . .   .     .     . . .   . . . . . . . .   .   . . .   . . . . . . . . . . . . . . X . X . . . . . . . . . "
};
