/* XPM */
static char *NinjaMesh_Mirror_X[] = {
/* columns rows colors chars-per-pixel */
"75 24 184 2",
"   c black",
".  c gray1",
"X  c gray2",
"o  c #070707",
"O  c gray3",
"+  c #090909",
"@  c gray4",
"#  c #0B0B0B",
"$  c #0C0C0C",
"%  c gray5",
"&  c #0E0E0E",
"*  c gray6",
"=  c #101010",
"-  c #111111",
";  c gray7",
":  c #131313",
">  c gray8",
",  c #151515",
"<  c #161616",
"1  c gray9",
"2  c #181818",
"3  c #191919",
"4  c gray10",
"5  c #2C2C2C",
"6  c #2D2D2D",
"7  c gray18",
"8  c #2F2F2F",
"9  c gray19",
"0  c #313131",
"q  c #323232",
"w  c gray20",
"e  c #343434",
"r  c #353535",
"t  c gray21",
"y  c #373737",
"u  c gray22",
"i  c #393939",
"p  c #3A3A3A",
"a  c gray23",
"s  c #3C3C3C",
"d  c gray24",
"f  c #3E3E3E",
"g  c #3F3F3F",
"h  c gray25",
"j  c #414141",
"k  c gray26",
"l  c #434343",
"z  c #444444",
"x  c gray27",
"c  c #464646",
"v  c gray28",
"b  c #484848",
"n  c #494949",
"m  c gray29",
"M  c #4B4B4B",
"N  c #4C4C4C",
"B  c gray30",
"V  c #4E4E4E",
"C  c gray31",
"Z  c #505050",
"A  c #515151",
"S  c gray32",
"D  c #535353",
"F  c gray33",
"G  c #555555",
"H  c #565656",
"J  c gray34",
"K  c #525759",
"L  c #585858",
"P  c gray35",
"I  c #5A5A5A",
"U  c #5B5B5B",
"Y  c gray36",
"T  c #5D5D5D",
"R  c gray37",
"E  c #5F5F5F",
"W  c #5A5F60",
"Q  c #606060",
"!  c gray38",
"~  c #626262",
"^  c gray39",
"/  c #646464",
"(  c #656565",
")  c gray40",
"_  c #676767",
"`  c #686868",
"'  c DimGray",
"]  c #6A6A6A",
"[  c gray42",
"{  c #6C6C6C",
"}  c #6D6D6D",
"|  c gray43",
" . c #6F6F6F",
".. c gray44",
"X. c #717171",
"o. c #727272",
"O. c gray45",
"+. c #777777",
"@. c gray47",
"#. c red",
"$. c #03B0DA",
"%. c #05B1DA",
"&. c #03B2DD",
"*. c #03B3DE",
"=. c #04B3DE",
"-. c #06B4DE",
";. c #0BB5DF",
":. c #0EB6DF",
">. c #10B7E0",
",. c #12B7E0",
"<. c #13B8E0",
"1. c #16B9E0",
"2. c #1DBBE1",
"3. c #21BCE1",
"4. c #21BCE2",
"5. c #26BDE3",
"6. c #29BEE3",
"7. c #2BBFE3",
"8. c #2EC0E4",
"9. c #2FC0E4",
"0. c #30C1E4",
"q. c #31C1E4",
"w. c #32C1E4",
"e. c #36C2E5",
"r. c #3AC4E5",
"t. c #3BC4E5",
"y. c #3FC5E6",
"u. c #42C6E6",
"i. c #47C8E7",
"p. c #49C8E7",
"a. c #4AC8E7",
"s. c #4BC9E7",
"d. c #4DC9E8",
"f. c #4ECAE8",
"g. c #4FCAE8",
"h. c #51C6E2",
"j. c #51CBE8",
"k. c #53CBE8",
"l. c #54CBE9",
"z. c #55CCE9",
"x. c #57CCE9",
"c. c #5ACDE9",
"v. c #5BCEEA",
"b. c #5DCEEA",
"n. c #63D0EB",
"m. c #6CD3EC",
"M. c #6DD3EC",
"N. c #6FD3EC",
"B. c #74D5ED",
"V. c #78D6ED",
"C. c #7DD8EE",
"Z. c #838383",
"A. c #8B8B8B",
"S. c #909090",
"D. c #939393",
"F. c #959595",
"G. c gray59",
"H. c #979797",
"J. c #989898",
"K. c gray60",
"L. c #9A9A9A",
"P. c #9B9B9B",
"I. c gray61",
"U. c #9D9D9D",
"Y. c gray62",
"T. c #9F9F9F",
"R. c #A0A0A0",
"E. c gray63",
"W. c #A2A2A2",
"Q. c gray64",
"!. c #A4A4A4",
"~. c #A5A5A5",
"^. c gray65",
"/. c #A7A7A7",
"(. c gray66",
"). c #A9A9A9",
"_. c #AAAAAA",
"`. c gray67",
"'. c #ACACAC",
"]. c gray68",
"[. c #AEAEAE",
"{. c gray69",
"}. c #B4B4B4",
"|. c #80D9EE",
/* pixels */
": Z.H.D.H.H.H.H.K.K.K.U.U.U.U.R.R.R.R.R.R.!.!.!.!.!././././.).).).).).`.'.'.'.'.'.'.'.{.'.{.'.{.'.{.'.{.'.{.'.{.'.{.'.{.'.{.'.{.'.{.'.{.'.'.].].].{.}.",
"& @._ ~ _ _ _ ` ` | | ` ` | ` | | | | | | | | | ..| | | ................X...X.X.X.X.X.X.X.X.X.X.X.X.X.X.X.X.X.X.X.X.X.X.X.X.X.X.X.X.X.X. . .| { { +.).",
": X.U F U F U T T T T T T T ~ T T T T Q T T T T W T T Q T T T T T T T T T T T T T T T T T T T T T T T ~ T T T T T T T T T T T T T T T Y Y U L L L ! !.",
"& X.U D F F U T T ~ ~ ~ ~ #.T ~ Q Q Q W Q Q ~ Q ~ T -.Q ~ W ~ ! -.Q ~ *.~ Q Q ~ ~ ~ ~ T ~ ~ ~ T ~ ~ T ~ Q ~ ~ W ~ Q ~ Q ~ Q ~ ~ ! ! ! T T Y U L F / !.",
": | F D F U U T T Q ~ i.~ #.~ 7.~ ~ ! ! ! ! ! ! ~ . *.*.W ~ T *.-.W . ! ~ ~ Q ~ ~ T ~ ~ ~ ~ ~ T ~ ~ ~ ~ ~ ~ ! ! Q ~ Q ~ ~ Q ~ Q ! ! ! ! T Y L L L ! !.",
"& | F D F F T T ~ ~ u.k.~ #.3 3.i.^ ~ ~ ! ^ ! ^ Q . *.*.~ ~ . $.*.~ ! *.~ ~ *.~ *.~ *.~ *.~ ~ *.*.*.~ ~ ~ *.~ *.~ ~ ~ ~ ~ ~ ~ ~ ~ ~ ~ ! ! Y U L F ! !.",
": ` F C F F T ~ ~ 7.a.v.~ #.3 %.e.n.! ^ ^ ! ^ ! ~ . $.! -.~ *.. *.~ . $.Q . *.*.~ . *.*.~ ~ *.. . ~ *.~ . *.*.! ~ ~ ~ ~ ~ ~ ~ ~ ~ ~ ~ ! T Y U F F T !.",
"& ` D D F U U T ,.7.f.v.~ #.3 %.1.l.B.! ! ! ! ! Q . *.. *.. *.. *.~ . *.Q . *.Q T . *.~ T . *.~ T . *.T . $.! ! Q ~ Q ~ Q ~ Q ~ ! ! ! ! T Y U F F ! !.",
"& _ C C D F L *.,.0.f.l.Q #.3 %.*.e.m.|.Q Q ! ! T . $.. *.. $.. *.Q . *.T . *.T ~ . *.T T . *.! T . *.! . *.T ~ Q Q ~ Q Q Q Q #.#.! ! T Y U #.#.D U !.",
"& / C M C D *.*.:.0.f.l.T #.3 $.*.,.k.B.C.T Y Y T . *.. *.. *.. *.Y . *.U . *.U T . *.T U . *.U T . *.T . *.T T T T T T T T , #.#.#.Y Y U #.#.#.C U !.",
"$ ^ N n N *.*.*.-.7.f.l.U #.3 $.*.*.q.b.m.B.Y U U . *.. J *.U . *.U . $.U . *.U U . *.U U . $.U U . *.U . $.U U U U U Y U Y 3 , #.#.U U , #.#.C N L !.",
"$ ~ b c *.*.*.*.-.5.i.k.F #.1 $.*.*.,.r.d.l.h.F D . *.F . *.F . *.F . *.F . *.F D . *.F F . F *.*.*.F F . *.F F F F F F F F L , , #.#.F #.#.C N n F R.",
"$ T c : : *.*.*.*.<.y.k.D #., $.*.*.*.2.7.7.K D D . D D . D D . D D . D D . D D D . D D D D . . . D D D . D D D D D D D F D D D > #.#.#.#.#.N n b D R.",
"$ Y x g = : *.*.*.*.8.i.D #., $.*.*.*.;.,.C D C C C C C C C C C C C D C C C D C C C C C D C C D C C C C C D C C C C C D D C D C > > #.#.#.N n c x C U.",
"$ T j f j : : *.*.*.<.r.N #.> $.*.*.*.-.n C n C C n n C N N N N M N N N n N N N n n C C n C n n C n n C C n n C C n C n n C n C N : #.#.#.b x j g C U.",
"$ T g s f g = : *.*.*.3.b #.: $.*.*.*.b b c n n c n n c b b b b b b b b n b b b n n c n n c n n c n n c n c n n c n #.#.#.#.b c b #.#.#.#.#.x g f n I.",
"$ T s y p f f = : *.*.*.j #.: $.*.*.j x j x j x j l l l l l j x x j x j x j x j j x j j j x j j j c j j j c j j c : #.#.#.#.j x : #.#.: #.#.s s p b J.",
"$ Y p e t u a s = = *.*.f #.: *.*.s f f f f f f f f f f f f f f f f f f f f f f f f f f f f f f g f f g f f f f f & & : = f f f #.#.f & & #.#.u t x H.",
"$ Y u 9 q e t y u & & *.p #.* *.u p p p p p p u p p p p p p p p p u p p p u p p p p p p p p p p p p p p p p p p p p p p u p p #.#.#.p u & #.#.#.e j D.",
"# U t 7 7 7 q q w q & e q #.& q q w q q q w w q w q q e q w q q q q q e q q q q e q e q e q e q q t q q q q q q q q q q q q & #.#.q q e & $ #.#.9 g A.",
"$ L t 5 5 5 7 7 8 8 8 9 9 9 8 8 9 9 8 7 7 9 9 8 9 8 8 9 8 8 8 9 9 7 9 7 9 7 9 7 7 7 7 7 7 7 7 7 7 7 7 7 q 7 q 7 9 7 9 7 7 7 & $ 7 7 9 7 7 $ + 5 5 u A.",
"& _ x f j j j g j j j j j j j j j j j j j j j j j j j j j l l j j x j x j c x x c x x c c c c c c c c c c c c n c b c n n b b b n n n b n n n n n F J.",
"o b J D D D D D D D D D D D D D D D D D D D D D D D D D D D D D D F F F F F F F L F F L L L U Y U U U T T T T T ! T ! T ~ ~ ~ ~ ~ / / _ _ _ _ _ ` { | ",
". X o o o o o o + o o o o o o o o o + o o o + o o o o + o o o + o + o + + + + + + + + + + + + + + + + + + + & + + $ $ $ $ $ $ & & $ & $ & & & & & + = "
};
