/* XPM */
static char *NinjaMesh_EdgeSoft[] = {
/* columns rows colors chars-per-pixel */
"75 24 174 2",
"   c black",
".  c gray1",
"X  c gray2",
"o  c #070707",
"O  c gray3",
"+  c #090909",
"@  c gray4",
"#  c #0B0B0B",
"$  c #0C0C0C",
"%  c gray5",
"&  c #0E0E0E",
"*  c gray6",
"=  c #101010",
"-  c #111111",
";  c gray7",
":  c #131313",
">  c gray8",
",  c #151515",
"<  c #2C2C2C",
"1  c #2D2D2D",
"2  c gray18",
"3  c #2F2F2F",
"4  c gray19",
"5  c #313131",
"6  c #323232",
"7  c gray20",
"8  c #343434",
"9  c #353535",
"0  c gray21",
"q  c #373737",
"w  c gray22",
"e  c #393939",
"r  c #3A3A3A",
"t  c gray23",
"y  c #3C3C3C",
"u  c gray24",
"i  c #3E3E3E",
"p  c #3F3F3F",
"a  c #025A6F",
"s  c gray25",
"d  c #414141",
"f  c gray26",
"g  c #434343",
"h  c #444444",
"j  c gray27",
"k  c #464646",
"l  c gray28",
"z  c #484848",
"x  c #494949",
"c  c gray29",
"v  c #4B4B4B",
"b  c #4C4C4C",
"n  c gray30",
"m  c #4E4E4E",
"M  c gray31",
"N  c #505050",
"B  c #515151",
"V  c gray32",
"C  c #535353",
"Z  c gray33",
"A  c #555555",
"S  c #565656",
"D  c gray34",
"F  c #585858",
"G  c gray35",
"H  c #5A5A5A",
"J  c #5B5B5B",
"K  c gray36",
"L  c #5D5D5D",
"P  c gray37",
"I  c #5F5F5F",
"U  c #606060",
"Y  c gray38",
"T  c #626262",
"R  c gray39",
"E  c #646464",
"W  c #656565",
"Q  c gray40",
"!  c #676767",
"~  c #686868",
"^  c DimGray",
"/  c #6A6A6A",
"(  c gray42",
")  c #6C6C6C",
"_  c #6D6D6D",
"`  c gray43",
"'  c #6F6F6F",
"]  c gray44",
"[  c #717171",
"{  c #727272",
"}  c gray45",
"|  c #777777",
" . c gray47",
".. c #3B7F90",
"X. c #3C8091",
"o. c #3D8191",
"O. c #3F8292",
"+. c #408393",
"@. c #428494",
"#. c #438595",
"$. c #478797",
"%. c #4A8998",
"&. c #4C8A9A",
"*. c #4E8C9B",
"=. c #508D9C",
"-. c #518E9C",
";. c #538F9E",
":. c #5892A0",
">. c #5993A1",
",. c #5B94A2",
"<. c #5D95A3",
"1. c #6097A5",
"2. c #6198A5",
"3. c #6299A6",
"4. c #659BA8",
"5. c #679CA9",
"6. c #699DAA",
"7. c #6C9FAC",
"8. c #6DA0AC",
"9. c #6EA0AD",
"0. c #6FA1AD",
"q. c #70A2AE",
"w. c #71A2AE",
"e. c #74A4B0",
"r. c #75A5B1",
"t. c #77A6B2",
"y. c #78A7B2",
"u. c #7AA8B4",
"i. c #7BA9B4",
"p. c #7CAAB5",
"a. c #7EABB6",
"s. c #03B3DE",
"d. c #838383",
"f. c #8B8B8B",
"g. c #909090",
"h. c #939393",
"j. c #959595",
"k. c gray59",
"l. c #979797",
"z. c #989898",
"x. c gray60",
"c. c #9A9A9A",
"v. c #9B9B9B",
"b. c gray61",
"n. c #9D9D9D",
"m. c gray62",
"M. c #9F9F9F",
"N. c #80ACB7",
"B. c #83AEB9",
"V. c #84AFB9",
"C. c #85AFBA",
"Z. c #8AB3BD",
"A. c #8DB5BE",
"S. c #8EB5BF",
"D. c #A0A0A0",
"F. c gray63",
"G. c #A2A2A2",
"H. c gray64",
"J. c #A4A4A4",
"K. c #A5A5A5",
"L. c gray65",
"P. c #A7A7A7",
"I. c gray66",
"U. c #A9A9A9",
"Y. c #AAAAAA",
"T. c gray67",
"R. c #ACACAC",
"E. c gray68",
"W. c #AEAEAE",
"Q. c gray69",
"!. c #B4B4B4",
"~. c #92B8C1",
"^. c #93B9C2",
"/. c #98BCC5",
/* pixels */
": d.l.h.h.l.l.l.x.x.v.b.b.b.D.D.D.D.D.D.H.H.H.H.P.H.P.P.P.P.Y.T.Y.Y.T.T.T.T.W.W.W.W.W.W.W.W.W.W.W.W.W.W.W.W.W.W.W.W.W.W.W.W.W.W.E.E.E.E.E.E.E.E.E.Q.!.",
"&  .! T ! ! ! ~ ~ ( ( ( ` ~ ~ ` _ _ _ _ _ _ ` ' ' ` ` ' ' ' ' ' ' ' ' ' ' { ' ' ' ' { ' ' } ' } } ' ' } } ' ' } } ' } ' ' } } ' [ [ [ [ [ ` ` ` ~  .T.",
": [ J Z a a J P P P P P P P I P I I I a a I I I I I P P I I I I P I I I I I I I I I I I I I I I I I I I I I I I I I I I I I I P P P P P P J Z J Z P J.",
"& [ J , a a a P T P T P P T I T I I a a a I I I I I I I I I I I I I I I I I I I T I I I I I I I I I I I I I I I I I I I I I I I T P T P P J J Z J ! J.",
": ` Z , a %.a a a a a a a a a a a a a 9.a I T I T I I T I R I T T I T I R I T I I T I I T I T I R I I T I R I T T I T I T I T I T T P P P J J Z Z T J.",
"& ` Z , a #.%.*.>.1.5.7.r.B.Z.~.A.B.i.e.a T R T R R T T T R T T R T R R R T R R T R R R R T R R R R T T T R T T R T R R R T R R T T T T P P J J Z T J.",
": ~ Z , a #.%.-.>.1.5.q.r.a.A./.~.C.i.e.a R R R R R T R T R T R T T R R R R R T R R R R T T R R R R T R T T T T T T R R R R R T T T T T P P J Z Z T J.",
"& ~ V , a #.%.-.>.1.5.9.y.a.~./.~.C.i.e.a T I T I T I T I T I T T I I R I I T I I R I I T I I T I T I T s.s.s.s.T I I R I I T I T P T s.s.s.J Z Z P D.",
"$ ! V ; a #.%.-.>.1.5.q.y.N.A./.~.C.i.e.a I I I Y P Y P Y P Y P I I I I I I I I I I I I I I I I T P T s.      T s.I I I I T I I P T s.    s.Z Z V J J.",
"% ! M ; a @.%.-.>.3.5.7.y.N.A./.~.C.i.e.a L L L P L P P P L P K P L P I L L I L I L P I L L I L P P   s.P P P   s.P L P s.s.s.P P s.s.s.s.s.s.V b P D.",
"& T b ; a @.%.-.>.3.5.q.y.N.A./.~.C.i.w.a H H H K G K S K G K K H H L G H H G G H H L G H H G G J J   s.J J J   L H H s.    L s.    s.    s.V V b J J.",
"$ T z ; a @.%.-.>.1.5.q.t.N.S./.~.C.i.9.a S S S S S S S S S S S S S S A S S S G S S S A S S S G Z V   Z s.s.s.s.A A   s.S Z   s.J   s.Z   s.b b z Z D.",
"$ P z % a +.%.-.,.2.5.q.t.N.A./.~.C.i.7.a V Z V V V Z V V V Z V A V A M A A A M A V A M A A A M V V V         V s.V   s.A A   s.V   s.V   s.b z z V D.",
"$ K g : a +.%.-.>.2.5.9.t.N.S./.~.C.i.5.a M B M M M M V B M B M M M M M M M M M M M M M M M M M V V V s.V V V   s.V   s.M M   s.V   s.b   s.z j j V b.",
"$ P g % a o.%.-.>.1.5.9.t.N.S./.~.C.i.3.a M b b b b n b b b b b n n n n n n b b n n n n n n b b b b   s.z b n   s.n   s.b b   s.b   s.b   s.j j d b b.",
"$ P d % a ..%.-.,.1.5.9.t.N.S./.~.C.i.3.a z z z z z z z z z z x z z z z z z z z z z z z z z z z z z   j s.s.s.s.z z   z s.s.s.z z   s.z   s.s.d i b b.",
"$ P e % a o.&.-.>.1.5.q.t.N.S./.S.Z.i.,.a g g g g g g g g g g g j d j d j d j d j d j d j d j d j d j         d j d j       d j d   j d     i i e j x.",
"$ K e & a a %.-.>.1.5.q.t.N.S./.S.V.i.&.a i i i i i i i i i i i i i i i i i i i i i i i i i i i i i i i i i i i i i i i i i i i i i i i i e e e 9 j l.",
"$ K 0 $ & a a -.,.1.5.q.t.N.A./.^.V.;.a a e e e e e e e e e e e e e e e e e e e e e e e e e e e e e e e e e e e e e e e e e e e e e e e 9 e 9 5 5 d h.",
"$ K 0 1 $ $ a a a %.,.q.t.N.i.7.-.a a a 7 7 7 7 7 7 7 7 7 7 7 7 9 5 9 5 9 5 9 5 9 5 9 5 9 5 9 5 9 5 9 5 9 5 9 5 9 5 9 5 9 5 9 5 9 5 9 5 5 5 3 3 3 i h.",
"$ J 9 < < $ $ $ a a a a a a a a a a $ 1 1 1 1 5 1 1 4 1 5 1 1 1 3 3 3 3 5 3 3 5 3 5 3 3 5 3 3 3 3 3 5 3 3 3 5 3 3 3 3 5 3 3 3 3 5 5 3 3 3 3 3 < < 9 f.",
"$ ! j i d d d % : % : % : ; % : % g g g g g g g g g g g g g h g d j j d d j d j d j j d j j j j j j j j j j j z j z j z z z z z z z z z z z j z j J x.",
"O z S V V V V V V V V V V V V V V V V V V V V V V V V V V V V V V V V Z Z Z Z Z Z Z J Z J Z Z J J J J J P P J P T P T P T T T ! T T ! ! ! ! ! ! ~ ~ [ ",
". . O O O O O O O O O O O O O O O $ O O O O O O O O O O O O O O @ @ o @ o @ @ @ @ @ @ @ @ @ @ @ @ @ @ @ @ & @ @ & @ @ & @ @ & @ & & @ @ & & & & & @ & "
};
