/* XPM */
static char *NinjaUV_MoveArrowUPL[] = {
/* columns rows colors chars-per-pixel */
"75 24 127 2",
"   c black",
".  c #020202",
"X  c gray2",
"o  c #070707",
"O  c gray3",
"+  c #090909",
"@  c gray4",
"#  c #0B0B0B",
"$  c #0C0C0C",
"%  c gray5",
"&  c #0E0E0E",
"*  c gray6",
"=  c #101010",
"-  c #111111",
";  c gray7",
":  c #2C2C2C",
">  c #2D2D2D",
",  c gray18",
"<  c #2F2F2F",
"1  c gray19",
"2  c #313131",
"3  c #323232",
"4  c gray20",
"5  c #343434",
"6  c #353535",
"7  c gray21",
"8  c #373737",
"9  c gray22",
"0  c #393939",
"q  c #3A3A3A",
"w  c gray23",
"e  c #3C3C3C",
"r  c gray24",
"t  c #3E3E3E",
"y  c #3F3F3F",
"u  c gray25",
"i  c #414141",
"p  c gray26",
"a  c #434343",
"s  c #444444",
"d  c gray27",
"f  c #464646",
"g  c gray28",
"h  c #484848",
"j  c #494949",
"k  c gray29",
"l  c #4B4B4B",
"z  c #4C4C4C",
"x  c gray30",
"c  c #4E4E4E",
"v  c gray31",
"b  c #505050",
"n  c #515151",
"m  c gray32",
"M  c #535353",
"N  c gray33",
"B  c #555555",
"V  c #565656",
"C  c gray34",
"Z  c #585858",
"A  c gray35",
"S  c #5A5A5A",
"D  c #5B5B5B",
"F  c gray36",
"G  c #5D5D5D",
"H  c gray37",
"J  c #5F5F5F",
"K  c #606060",
"L  c gray38",
"P  c #626262",
"I  c gray39",
"U  c #646464",
"Y  c #656565",
"T  c gray40",
"R  c #676767",
"E  c #686868",
"W  c DimGray",
"Q  c #6A6A6A",
"!  c gray42",
"~  c #6C6C6C",
"^  c #6D6D6D",
"/  c gray43",
"(  c #6F6F6F",
")  c gray44",
"_  c #717171",
"`  c #727272",
"'  c gray45",
"]  c #767676",
"[  c gray47",
"{  c #00C000",
"}  c #00CB00",
"|  c #00D500",
" . c #00F400",
".. c green",
"X. c #838383",
"o. c gray52",
"O. c #898989",
"+. c gray55",
"@. c gray56",
"#. c #929292",
"$. c gray58",
"%. c #959595",
"&. c gray59",
"*. c #979797",
"=. c #989898",
"-. c gray60",
";. c #9A9A9A",
":. c #9B9B9B",
">. c gray61",
",. c #9D9D9D",
"<. c gray62",
"1. c #9F9F9F",
"2. c #A0A0A0",
"3. c gray63",
"4. c #A2A2A2",
"5. c gray64",
"6. c #A4A4A4",
"7. c #A5A5A5",
"8. c gray65",
"9. c #A7A7A7",
"0. c gray66",
"q. c #A9A9A9",
"w. c #AAAAAA",
"e. c gray67",
"r. c #ACACAC",
"t. c gray69",
"y. c gray100",
/* pixels */
"; X.&.#.&.&.&.&.&.-.&.-.>.-.>.>.>.>.2.>.2.2.2.6.2.2.6.0.6.6.0.0.0.0.0.0.r.0.r.0.r.r.r.r.r.r.r.r.r.r.r.r.r.r.r.r.r.r.r.r.r.r.r.r.r.r.r.r.r.r.0.0.r.t.t.",
"& [ R P R R R Q Q Q ( Q ( Q ( ( ( ( ( ( ( ( ( ( _ ( ( ( ( _ _ ( ( _ ( _ _ _ _ _ _ _ _ _ _ _ _ _ _ _ _ _ _ _ _ _ _ _ _ _ _ _ _ _ _ _ _ _ ( ( ( ( ( ] 6.",
"; _ D N D N D G G G G G G G G G G G G G G G P G G G G G G G G G G G G G P G G G G G G G G G G G G G G J G G G G J G G G G G G J G G G G F D D D D G 2.",
"; _ D M N N D G P G P P P P G P P G P P P G G P P G P P P G P P P G P P G G P P G P P J P P P G P G P P G P P G P P P G P G P P J P P J G D Z N N I 2.",
"& ( N M N D D G P G P P P P G P P P P G G P P P P P P P P G G P P P G P P P P P J P P J J P P J P P P J P P P P J P P J P P P P J P P G G D D N Z P 2.",
"& ( M M N N G G P P P P P P P P P P P P P P P P P P P P P P P P P P P P P P P P P P P P P P P P P P P P P P P P P P P P P P P P P P P J G D D D N J 2.",
"& Q N M N N G P G P P P P P P P P P P P P P P P P P P P P P P P P P P P P P P P P P P P P P P P P P P P P P P P P P P P P P P P P P P P J G D N N G 2.",
"& Q M v N D D G P P P P G P P P P G P P P P P P P P G P P P P P P P y.y.y.y.y.y.y.P P J P P P P P P J P J P P J P P P P J P P J P P J P G G D Z N G 2.",
"& R M v M N D G G G P G P P G P G P G P P G P G P G P G G P P G G . y.. . . . . y.G P P J P G P P G P J P G P J G P P J P G P J J P J G G D N N M D >.",
"& P v k M N N G G G G G G G G G G D G G G G G G G G G G G G G G G . y.. . . . y.D G G G G G G G G G G G G G G G G G G G G G G G G G G F F N M M v D 2.",
"@ P k k k M M N D D D G D G D D D D D D D G D G D D D D D D D D D . y.. . . . . y.D D D D D D D D D D D D D D D D D D F D G D D F D D D Z M M v v N >.",
"@ P g g k k v M N N N N N N N N D N N N N N N N N N N D N N N N M . y.. . . . . . y.N M Z N N N N N Z N N N N N N N N N N N N N N N N M M M v k k M -.",
"& G g p g k v v M M M M N M M M M M M M M M M M N M M M M M M M M . y.. y.. . . . . y.M M M M M M M M M M M M M M M M M N M M M M M M M v v l g g M -.",
"@ G g p p k k v v v v v M v v v M v v v v v M v M v M v v v v M v . y.y.. y.. . . y.v M v v v v M v M v v v v M M v v v M v M v M v v v v k k g a v -.",
"& G p r p p g g k v k v v k v k v k v k k v v k v k k k k v v k k . . k . . y.. y.k v l { | { v k v k l l v k v k l l v k v k l v k l k k g g p p k &.",
"@ G r q r p p g g g k g g g k g g g g k g g g g g k g k k g g k k g g g g . . y.g g g }  ... .} g g g k g k g g g k g k g g g k g g k g g p p u r k &.",
"@ G q 8 q r r p g p p g p p g p p p g p p g p p g p p g p p p p p g a a a a . a a a {  ....... .{ a a a a a a g p p p p a g p p a a a a p u e e q g #.",
"@ G q 8 8 8 q r r r r r r r r r r r r r r r r r r r r r r r r r r r r r r r r r r * | ..........| r r r r r r r r r r r r r r r r r r r r q q q 8 p @.",
"@ D 8 1 1 8 8 8 q q q q q q q 8 q q q 8 q q q q q q q q q q q q q q q q q q q q q & {  ....... .{ q q q q q q q q q q q q q q q q q q q 8 9 8 4 1 u +.",
"& D 8 > > 1 1 1 1 1 8 1 8 1 1 8 8 1 1 8 1 1 8 1 1 1 8 1 8 1 1 8 4 1 4 1 8 1 4 4 1 & & }  ... .} 1 4 4 4 1 8 1 4 8 1 1 8 1 4 4 4 4 4 1 4 1 1 > < < r O.",
"& N 8 > > : > > 1 > 1 1 1 1 > > 1 1 > > 1 1 > 1 > > 1 1 > > 1 > < < < < > < < > 1 > & # { | { > 1 1 > > > < > < < < < > 1 > 1 < > < < < > : > : > 8 o.",
"@ R g r p p p p r p p p p p p p p p p p p p p p p p p p p g p p a a a a p g g p g a a ; ; * g a g g g g g g g k g g g k k g g k k k k g k k k g g N #.",
"@ g N M M M M M M M M M M M M M M M M M M M M M M M M M M M M M M M N N M N N N Z N Z N N D D D D D D D F G G G J J P G P P P I P I I R R R R R Q Q ( ",
". X @ X X @ X X @ X @ X @ X @ X @ X @ X X @ @ X @ X X @ @ X @ X @ O O @ O O @ @ @ @ @ @ @ @ @ @ @ @ @ @ @ @ # # # # @ & # @ & & & # & & # & & & & @ & "
};
