/* XPM */
static char *NinjaUV_SnapTopR[] = {
/* columns rows colors chars-per-pixel */
"84 24 104 2",
"   c gray8",
".  c #1B1B1B",
"X  c #1E1E1E",
"o  c gray16",
"O  c #2D2D2B",
"+  c gray18",
"@  c #2F2F2E",
"#  c #2F2F2F",
"$  c #323231",
"%  c #323232",
"&  c gray20",
"*  c #353535",
"=  c gray21",
"-  c #373736",
";  c #373737",
":  c #383833",
">  c #3A3A34",
",  c #383836",
"<  c #3B3B37",
"1  c gray22",
"2  c #393938",
"3  c #393939",
"4  c gray23",
"5  c #3F3F3A",
"6  c #3C3C3C",
"7  c gray24",
"8  c #43433E",
"9  c #46463E",
"0  c #47473E",
"q  c gray25",
"w  c #414140",
"e  c gray26",
"r  c #434343",
"t  c #474741",
"y  c #464642",
"u  c #444444",
"i  c gray27",
"p  c #464645",
"a  c #4E4E44",
"s  c #4D4D4B",
"d  c #4E4E4A",
"f  c #505047",
"g  c #535347",
"h  c #525248",
"j  c #525249",
"k  c #53534A",
"l  c #53534C",
"z  c #55554C",
"x  c #54544F",
"c  c #58584F",
"v  c #545450",
"b  c #565651",
"n  c #585853",
"m  c #5F5F52",
"M  c #5B5B55",
"N  c #5D5D57",
"B  c #5E5E56",
"V  c #606055",
"C  c #626255",
"Z  c #63635A",
"A  c #63635B",
"S  c #656559",
"D  c #67675A",
"F  c #64645C",
"G  c #66665D",
"H  c gray39",
"J  c #656565",
"K  c gray40",
"L  c #676766",
"P  c #676767",
"I  c #6A6A60",
"U  c #6C6C61",
"Y  c #696968",
"T  c #6A6A69",
"R  c #717161",
"E  c #737363",
"W  c #717165",
"Q  c #727266",
"!  c #71716D",
"~  c #7D7D6F",
"^  c #747471",
"/  c #7F7F78",
"(  c #44FF00",
")  c #808079",
"_  c #80807A",
"`  c #82827A",
"'  c #83837B",
"]  c #83837C",
"[  c #86867E",
"{  c #818181",
"}  c gray51",
"|  c #848484",
" . c #878785",
".. c #8A8A80",
"X. c #8C8C82",
"o. c #8C8C89",
"O. c #8D8D8A",
"+. c #8E8E8B",
"@. c #91918D",
"#. c #92928E",
"$. c #929292",
"%. c #939393",
"&. c #A4A4A4",
"*. c gray100",
/* pixels */
"  H { { { { { { { { { { { { { { { { { { { { { { { { { { { { { { { { { { { { { { { { { { { { { { { { { { { { { { { { { { { { { { { {  .O.#.#.O.o.o.o.o.o.o.O.#.#.O. .%.&.",
". + K K K K K K K K K K K K K K K K K K K K K K K K K K K K K K K K K K K K K K K K K K K K K K K K K K K K K K K K K K K K K K K K ! ` ( ..[ ` _ _ _ _ / ` [ ( ] ^ { $.",
"X ; u u u u u u u u u u u u u u u u u u u u u u u u u u u u u u u u u u u u u u u u u u u u u u u u u u u u u u u u u u u u u r 7 r l ( ( ( *.*.*.*.*.*.*.*.( ( ( B T { ",
"X ; u u u u u u u u u u u u u u u u u u u u u u u u u u u u u u u u u u u u u u u u u u u u u u u u u u u u u u u u u u u u r r 5 , u C ( E S c c c c z k m E ( Q M T { ",
"X ; u u u u u u u u u u u u u u u u u u u u u u u u u u u u u u u u u u u u u u u u u u u u u u u u u u u u u u u u u u u u u r 1 + , g *.V a 5 5 5 5 , > 0 m *.I M P { ",
"X ; u u u u u u u u u u u u u u u u u u u u u u u u u u u u u u u u u u u u u u u u u u u u u u u u u u u u u u u u u u u u r r 1 + > a *.c u ; & ; ; + o * k *.A v K { ",
"X ; u u u u u u u u u u u u u u u u u u u u u u u u u u u u u u u u u u u u u u u u u u u u u u u u u u u u u u u u u u u u r r 4 $ , z *.m d 7 7 7 7 ; @ > z *.A l K { ",
"X ; u u u u u u u u u u u u u u u u u u u u u u u u u u u u u u u u u u u u u u u u u u u u u u u u u u u u u u u u u u u u u u 5 * 8 z *.F v u u u u 7 * 8 z *.F v K { ",
"X ; u u u u u u u u u u u u u u u u u u u u u u u u u u u u u u u u u u u u u u u u u u u u u u u u u u u u u u u u u u u u u u 7 ; 5 v *.F v u u u r 7 ; 5 c *.F v K { ",
"X ; u u u u u u u u u u u u u u u u u u u u u u u u u u u u u u u u u u u u u u u u u u u u u u u u u u u u u u u u u u u u u u 7 & 5 z *.F v u u u u 7 ; 5 c *.F v K { ",
"X ; u u u u u u u u u u u u u u u u u u u u u u u u u u u u u u u u u u u u u u u u u u u u u u u u u u u u u u u u u u u u u u 4 ; 8 z *.F v u u u r 7 $ 5 c *.F v K { ",
"X ; u u u u u u u u u u u u u u u u u u u u u u u u u u u u u u u u u u u u u u u u u u u u u u u u u u u u u u u u u u u u u u 5 ; 8 C *.Q A v v v v k u a S *.I M K { ",
"X ; u u u u u u u u u u u u u u u u u u u u u u u u u u u u u u u u u u u u u u u u u u u u u u u u u u u u u u u u u u u u u u 7 , u D ( ~ Q F F F F B c m E ( Q M T { ",
"X ; u u u u u u u u u u u u u u u u u u u u u u u u u u u u u u u u u u u u u u u u u u u u u u u u u u u u u u u u u u u u u r 5 , 0 ( ( ( *.*.*.*.*.*.*.*.( ( ( N T { ",
"X ; u u u u u u u u u u u u u u u u u u u u u u u u u u u u u u u u u u u u u u u u u u u u u u u u u u u u u u u u u u u u u r 4 $ , g ( S m z c z c k a g C ( F v T { ",
"X ; u u u u u u u u u u u u u u u u u u u u u u u u u u u u u u u u u u u u u u u u u u u u u u u u u u u u u u u u u u u r r r , @ O , 0 t 8 5 8 5 8 , > > u k v s T { ",
"X ; u u u u u u u u u u u u u u u u u u u u u u u u u u u u u u u u u u u u u u u u u u u u u u u u u u u u u u u u u u u u u r 4 & + $ ; , ; ; ; ; $ $ + + ; r u u K { ",
"X ; u u u u u u u u u u u u u u u u u u u u u u u u u u u u u u u u u u u u u u u u u u u u u u u u u u u u u u u u u u u u r r 8 4 1 4 4 7 7 7 4 7 7 4 4 1 4 7 u u K { ",
"X ; u u u u u u u u u u u u u u u u u u u u u u u u u u u u u u u u u u u u u u u u u u u u u u u u u u u u u u u u u u u u u u r r r r r u u u u u r r r r r r u u K { ",
"X ; u u u u u u u u u u u u u u u u u u u u u u u u u u u u u u u u u u u u u u u u u u u u u u u u u u u u u u u u u u u u u u u r r u r u u u u u u u u u r u u u K { ",
"X ; u u u u u u u u u u u u u u u u u u u u u u u u u u u u u u u u u u u u u u u u u u u u u u u u u u u u u u u u u u u u u u u u u u u u u u u u r u u u r u u u K { ",
"X ; u u u u u u u u u u u u u u u u u u u u u u u u u u u u u u u u u u u u u u u u u u u u u u u u u u u u u u u u u u u u u u u u u u u u u r u u r r u u r r u u K { ",
". + ; ; ; ; ; ; ; ; ; ; ; ; ; ; ; ; ; ; ; ; ; ; ; ; ; ; ; ; ; ; ; ; ; ; ; ; ; ; ; ; ; ; ; ; ; ; ; ; ; ; ; ; ; ; ; ; ; ; ; ; ; ; ; ; ; ; ; ; ; ; 1 1 1 ; 1 1 1 ; ; ; + K ",
"  . X X X X X X X X X X X X X X X X X X X X X X X X X X X X X X X X X X X X X X X X X X X X X X X X X X X X X X X X X X X X X X X X X X X X X X X X X X X X X X X X .   "
};
