/* XPM */
static char *NinjaMesh_PivMinZ[] = {
/* columns rows colors chars-per-pixel */
"84 24 127 2",
"   c #1C0A0A",
".  c gray8",
"X  c #1E1E1E",
"o  c #3E0505",
"O  c #3E0D0D",
"+  c #251E1E",
"@  c #252525",
"#  c #2B2727",
"$  c #2C2C2C",
"%  c #332222",
"&  c #343434",
"*  c #373D3E",
"=  c #3B3B3B",
"-  c #4A0505",
";  c #4F1E1E",
":  c #660707",
">  c #7C0909",
",  c #751212",
"<  c #522E2E",
"1  c #592E2E",
"2  c #453232",
"3  c #3A4445",
"4  c #444444",
"5  c #444C4D",
"6  c #4B4B4B",
"7  c #415557",
"8  c #4D5555",
"9  c #535353",
"0  c #535E5F",
"q  c #5C5C5C",
"w  c #6B4646",
"e  c #4A6365",
"r  c #4A6769",
"t  c #4D6A6C",
"y  c #5D6262",
"u  c #536E71",
"i  c #596F72",
"p  c #557174",
"a  c #5A7477",
"s  c #567B7F",
"d  c #5A7A7D",
"f  c #656565",
"g  c #626B6B",
"h  c #696969",
"j  c #64797B",
"k  c #737373",
"l  c #7D7D7D",
"z  c #830404",
"x  c #8F0101",
"c  c #940000",
"v  c #9C0202",
"b  c #A70000",
"n  c #AB0202",
"m  c #A40909",
"M  c #B60202",
"N  c #BA0000",
"B  c #B10C0C",
"V  c #9E2E2E",
"C  c #C40000",
"Z  c #8D7070",
"A  c #827F7F",
"S  c #A37878",
"D  c #567E81",
"F  c #5B7E81",
"G  c #627E81",
"H  c #5C8285",
"J  c #5F868A",
"K  c #5D8C90",
"L  c #618386",
"P  c #6B8587",
"I  c #60868A",
"U  c #638A8D",
"Y  c #6D898B",
"T  c #738D8F",
"R  c #678D91",
"E  c #639195",
"W  c #659498",
"Q  c #6D9598",
"!  c #7A9597",
"~  c #759699",
"^  c #739B9F",
"/  c #6D9DA1",
"(  c #74A2A6",
")  c #75A5AA",
"_  c #75AAAF",
"`  c #7EAAAE",
"'  c #70ACB2",
"]  c #7AAEB3",
"[  c #74B0B6",
"{  c #77B7BD",
"}  c #79B3B8",
"|  c #77B8BF",
" . c #7BBCC3",
".. c #7DC5CB",
"X. c #7FCDD4",
"o. c #7FD0D7",
"O. c #848484",
"+. c #848D8D",
"@. c #8A8989",
"#. c #949494",
"$. c #9E9090",
"%. c #9B9B9B",
"&. c #8AACAF",
"*. c #83ADB0",
"=. c #8AADB0",
"-. c #86B9BE",
";. c #A6A6A6",
":. c #ABABAB",
">. c #B4B4B4",
",. c #BEBEBE",
"<. c #86BDC2",
"1. c #80C0C6",
"2. c #89C2C6",
"3. c #83C4CA",
"4. c #8DC5CA",
"5. c #83CDD4",
"6. c #8CCCD1",
"7. c #82D0D6",
"8. c #82D3DA",
"9. c #8AD7DE",
"0. c #81D8DF",
"q. c #84D8E0",
"w. c #8CDBE2",
"e. c #93DDE4",
"r. c #C3C3C3",
"t. c #C9C9C9",
"y. c #DADADA",
/* pixels */
"X h O.O.O.O.O.O.O.@.O.O.O.O.O.O.@.O.O.O.O.O.k h O.O.O.@.O.O.@.O.O.O.O.O.@.O.O.O.O.@.O.O.O.O.O.@.O.O.O.O.O.O.O.O.O.@.O.O.O.O.O.@.@.O.O.O.O.O.@.O.O.O.O.O.O.O.@.A @.A #.;.",
"X $ h h h h h h h h h h h h h h h h h f f y f h f h f h h h h h h h h h h h h h h h h h h h h h h h h h h h h h h h h h h h h h h h h h h h h h h h h h h h h h h h O.#.",
"X & 4 4 4 4 4 6 4 4 4 4 4 6 4 4 4 4 4 4 = = h :.4 4 4 4 4 4 6 4 4 4 4 4 4 4 4 4 4 4 4 4 4 4 4 4 4 4 4 4 4 4 4 6 4 4 4 4 4 4 4 4 4 4 4 4 4 4 4 4 4 4 4 4 4 4 6 4 4 4 h A ",
"@ = 4 4 4 4 4 4 4 4 4 4 4 4 4 4 4 4 = = & & #.r.6 4 4 4 4 4 4 4 4 4 4 4 4 4 4 4 4 4 4 4 4 4 4 4 4 4 4 4 4 4 4 4 4 4 4 4 4 4 4 4 4 4 4 4 4 4 4 4 4 4 4 4 4 4 4 4 4 4 h A ",
"X & 4 4 4 4 4 4 4 4 4 4 4 4 4 4 4 4 = & $ & >.r.q 4 4 4 4 4 4 4 4 4 4 4 4 4 4 4 4 4 4 4 4 4 4 4 4 4 4 4 4 4 4 4 4 4 4 4 4 4 4 4 4 4 4 4 4 4 4 4 4 4 4 4 4 4 4 4 4 4 f A ",
"X & 4 4 4 4 4 4 4 4 4 4 4 4 4 4 4 4 = & @ 4 r.,.@.4 4 4 4 4 4 4 4 4 4 4 4 4 4 4 4 4 4 4 4 4 4 4 4 4 4 4 4 4 4 4 4 4 4 4 4 4 4 4 4 4 4 4 4 4 4 4 4 4 4 4 4 4 4 4 4 4 h O.",
"X & 4 4 4 4 4 4 4 4 4 4 4 4 4 4 4 4 = $ @ 9 >.r.O.4 4 4 4 4 4 4 4 4 4 4 4 4 4 4 4 4 6 h O.l q 6 q k O.k q q h 9 4 4 4 4 4 4 4 4 4 4 6 q h k k O.P f 4 4 4 4 4 4 4 4 f A ",
"X = 4 4 4 4 4 4 4 4 4 4 4 4 4 4 4 4 = $ @ X q #.4 4 4 4 4 4 4 4 4 4 4 4 4 4 4 4 4 4 U 0.0.&.k 4 ..q.0.k U w.T q 4 4 4 4 4 4 4 4 4 4 Q w.w.w.w.q.<.k 4 4 4 4 4 4 4 4 h A ",
"X & 4 4 4 4 4 4 4 6 4 4 4 4 4 4 4 3 = $ @ @ 6 l 4 4 4 4 4 4 4 4 4 4 4 4 4 4 = 4 4 4 J 0.q.-.h 8 o.o.o.k 4 9 k f h l k k l h 4 4 4 4 = 4 4 4  .w.~ q 4 4 4 4 4 4 4 4 f O.",
"X = 4 4 4 4 4 4 4 4 4 4 4 4 4 4 4 4 = & # @ 8 O.4 4 4 4 4 4 4 6 4 4 4 4 4 4 4 = = = J 9.5.3.h d 0. .X.f U q.! P w.2.4.e.4.@.f 3 = = = = = / w.( 9 6 4 4 4 4 4 4 4 4 f A ",
"@ & 4 4 4 4 4 4 4 4 4 4 4 4 4 4 4 4 4 & $ $ 9 O.6 4 4 4 4 4 4 4 4 4 4 4 4 = = = = & H w.] 3.g U { ' ..q J 9.Y a w.6.5 Q e.=.k = * = = * d w...6 4 4 4 4 4 4 6 4 4 4 h A ",
"X & 4 4 4 4 4 6 4 4 4 4 4 4 4 4 4 4 4 & $ $ 9 +.4 4 4 4 4 4 4 4 4 4 4 4 = = & & & & H 9.L 2.j ] U ) 3.6 H o.F p 9.) 4 a e.*.h = & & & 3 8.3.0 4 4 4 4 4 4 4 4 4 4 4 f A ",
"X & 4 4 4 4 4 4 4 4 4 4 4 4 4 4 4 4 2 = $ % w Z 2 4 4 4 4 4 4 4 4 4 4 4 = = & $ $ $ F w.e <.^ 2.p _ 3.6 H o.H u 9.( 4 p w.` h = & & *  .9.p 4 4 4 4 4 4 4 4 4 4 4 4 f A ",
"X = 4 4 4 4 4 4 4 4 4 4 4 4 4 4 4 4 3 & % z M B v ; 4 4 4 4 4 4 4 4 4 = = & & $ $ # d e.e ( 6.6.3 ] 5.4 H o.s t q.( 6 p q.` h & & & ' o.Q q 9 4 4 4 4 4 4 4 4 4 4 4 f A ",
"X & 4 4 4 4 4 4 4 4 4 4 4 4 6 4 4 = = $ : M C C M v 2 4 4 4 4 4 4 4 4 4 = & & $ @ @ s e.e s 9.3.$ { 5.& D o.t t o./ = p q.( f & & * q.[ h k k k k h 4 4 4 4 4 4 4 4 h A ",
"X = 4 4 4 4 4 4 4 4 4 4 4 4 4 4 4 = & @ > n N N n m < 4 4 4 4 4 4 4 4 4 = & $ $ @ @ d e.e 7 e.W @ { 5.$ H q.t t o.K = u 0.E 6 & & 3 o.q.9.0.0.0.o.q 4 4 4 4 4 4 4 4 f T ",
"X = 4 4 4 4 4 4 4 4 4 4 4 4 4 6 4 & & 6 $.V b b v S O.6 4 4 4 4 4 4 4 = = & & $ @ @ X @ @ @ @ $ $ $ $ $ $ $ $ & $ & = = = = & & & & & & = 4 4 4 4 4 4 4 4 4 4 4 4 4 h A ",
"X & 4 4 4 4 4 4 4 4 4 4 4 = h ,.k q %.l 6 , c c c 1 y #.@.q >.%.6 4 4 4 = = $ $ $ @ @ @ $ @ $ $ $ @ $ $ $ $ $ $ & & & = = & & & & & & = = 4 4 4 4 4 4 4 4 4 4 4 4 4 h P ",
"X = 4 4 4 4 4 4 4 4 4 = & A r.t.y.l = X .   o - O # & $ 4 :.,.r.>.h 4 4 4 = & & $ $ $ $ $ $ $ $ & $ $ $ $ $ & & & & = = = & & & & & = = = 4 4 = 4 4 4 4 4 4 4 4 4 4 f A ",
"X & 4 4 4 4 4 4 4 = = & #.t.:.;.;.& @ X . X X + @ $ $ @ @ q %.;.t.t.h 4 = = = & & & & $ & & & & & & & & & & & & & = 3 = = = = & & & & = = 4 4 4 4 4 4 4 4 4 4 4 4 4 f O.",
"X & 4 4 4 4 4 4 3 = & h l q 9 4 & & & $ $ @ $ $ & & $ @ X @ & 4 q k O.q 3 2 3 = & = & = = & = = & = = = & = = = = = = = 2 = = = = = = = 3 = 4 4 4 4 4 4 4 4 4 4 4 4 h A ",
"X & 4 4 4 4 4 4 = & # @ X X @ $ & & = = & & & = = & $ $ X X X @ & & = 4 4 4 = = = = = = = = = = = = = = = = = 4 4 = 4 4 4 3 = = 3 2 = = 4 4 4 4 4 4 4 4 4 4 4 4 4 4 f A ",
"X $ & = = & & & $ $ @ @ X X @ $ & & & & & & & & & & $ @ @ @ @ X @ $ & & & & & & & & & & & & & & & & & & & & & & & & & & & & & & & $ & & & & & & & & = & & & * & & & # y ",
"X @ @ @ @ @ @ @ @ X X X X X X @ @ @ @ @ @ @ @ # $ @ @ @ X X X X X @ @ @ @ @ @ @ @ @ @ @ @ @ @ @ @ @ @ @ @ @ @ @ @ @ @ $ @ @ @ @ @ @ @ @ @ @ @ @ @ @ @ @ @ # @ @ # @ + + "
};
