/* XPM */
static char *NinjaUV_MoveArrowRight[] = {
/* columns rows colors chars-per-pixel */
"75 24 133 2",
"   c black",
".  c #010101",
"X  c #020202",
"o  c #040404",
"O  c gray2",
"+  c #070707",
"@  c gray3",
"#  c #090909",
"$  c gray4",
"%  c #0B0B0B",
"&  c #0C0C0C",
"*  c gray5",
"=  c #0E0E0E",
"-  c gray6",
";  c #101010",
":  c #111111",
">  c gray7",
",  c #131313",
"<  c gray8",
"1  c #151515",
"2  c #161616",
"3  c #2C2C2C",
"4  c #2D2D2D",
"5  c gray18",
"6  c #2F2F2F",
"7  c gray19",
"8  c #313131",
"9  c #323232",
"0  c gray20",
"q  c #343434",
"w  c #353535",
"e  c gray21",
"r  c #373737",
"t  c gray22",
"y  c #393939",
"u  c #3A3A3A",
"i  c gray23",
"p  c #3C3C3C",
"a  c gray24",
"s  c #3E3E3E",
"d  c #3F3F3F",
"f  c gray25",
"g  c #414141",
"h  c gray26",
"j  c #434343",
"k  c #444444",
"l  c gray27",
"z  c #464646",
"x  c gray28",
"c  c #484848",
"v  c #494949",
"b  c gray29",
"n  c #4B4B4B",
"m  c #4C4C4C",
"M  c gray30",
"N  c #4E4E4E",
"B  c gray31",
"V  c #505050",
"C  c #515151",
"Z  c gray32",
"A  c #535353",
"S  c gray33",
"D  c #555555",
"F  c #565656",
"G  c gray34",
"H  c #585858",
"J  c gray35",
"K  c #5A5A5A",
"L  c #5B5B5B",
"P  c gray36",
"I  c #5D5D5D",
"U  c gray37",
"Y  c #5F5F5F",
"T  c #606060",
"R  c gray38",
"E  c #626262",
"W  c gray39",
"Q  c #646464",
"!  c #656565",
"~  c gray40",
"^  c #676767",
"/  c #686868",
"(  c DimGray",
")  c #6A6A6A",
"_  c gray42",
"`  c #6C6C6C",
"'  c #6D6D6D",
"]  c gray43",
"[  c #6F6F6F",
"{  c gray44",
"}  c #717171",
"|  c #727272",
" . c gray45",
".. c #767676",
"X. c gray47",
"o. c #00C000",
"O. c #00CB00",
"+. c #00D500",
"@. c #00F400",
"#. c green",
"$. c #838383",
"%. c gray52",
"&. c #898989",
"*. c gray55",
"=. c gray56",
"-. c #929292",
";. c gray58",
":. c #959595",
">. c gray59",
",. c #979797",
"<. c #989898",
"1. c gray60",
"2. c #9A9A9A",
"3. c #9B9B9B",
"4. c gray61",
"5. c #9D9D9D",
"6. c gray62",
"7. c #9F9F9F",
"8. c #A0A0A0",
"9. c gray63",
"0. c #A2A2A2",
"q. c gray64",
"w. c #A4A4A4",
"e. c #A5A5A5",
"r. c gray65",
"t. c #A7A7A7",
"y. c gray66",
"u. c #A9A9A9",
"i. c #AAAAAA",
"p. c gray67",
"a. c #ACACAC",
"s. c gray69",
"d. c gray100",
/* pixels */
"> $.>.-.>.>.>.>.>.1.>.1.4.1.4.4.4.4.8.4.8.8.8.w.8.8.w.y.w.w.y.y.y.y.y.y.a.y.a.y.y.a.a.a.a.a.a.a.a.a.a.a.a.a.a.a.a.a.a.a.a.a.a.a.a.a.a.a.a.a.y.a.a.a.s.",
"= X.^ E ^ ^ ^ ) ) ) [ ) [ ) [ [ [ [ [ [ [ [ [ [ } [ [ [ [ } } [ [ } [ } } } } } } } } } } } } } } } } } } } } } } } } } } } } } } } } } [ [ [ [ [ ..y.",
"> } L S L S L I I I I I I I I I I I I I I I E I I I I I I I I I I I I I E I I I I I I I I I I I I I I E I I I I I I I I I I I I I I I I I L S S L I 8.",
"> } L A S S L I E I E E E E I E E I E E E I I E E I E E E I E E E I E E I I E E E E E I E E E I E E I E E E E I E I E E E I E E E I E E I L L L S E 8.",
"= [ S A S L L I E I E E E E I E E E E I I E E E E E E E E I I E E E E I E E E E E I E E E E I E E E E E I E E E E E E I E E E E E E I I I L L L S E 8.",
"= [ A A S S I I E E E E E E E E E E E E E E E E E E E E E E E E E E E E E E E E E E E E E E E E E E E E E E E E E E E E E E E E E E E E I L L S S E 8.",
"= ) S A S S I E I E E E E E E E E E E E E E E E E E E E E E E E E E E E E E E E E E E E E E E E E E E E E E E E E E E E E E E E E E E E I I L S S I 8.",
"= ) A B S L L I E E E E I E E E E I E E E E E E E E I E E E E E I E E E E E I E E E E I E E E d.d.I E E E E E I I E E E E E I E E E I E I I L L S I 8.",
"= ^ A B A S L I I I E I E E I E I E I E E I E I E I E I I E E I E I E E o.+.o.T T T T T I E . d.. d.E I E E I E E I E E I E I E I E E I I L S S A I 8.",
"= E B b A S S I I I I I I I I I I L I I I I I I I I I I I I I I I I I O.@.#.@.O.I I I d.d.d.d.d.$ . d.I I I I I I I I I I I I I I I I L L S S A B L 4.",
"$ E b b b A A S L L L I L I L L L L L L L I L I L L L L L L L L L L o.@.#.#.#.@.o.L . d.. . . . . . . d.L L L L L I L I L I L L I L L L L A A B B S 4.",
"$ E x x b b B A S S S S S S S S L S S S S S S S S S S L S S S S S 2 +.#.#.#.#.#.+.S . d.. . . . . . . . d.S S S S S S S S S S S S S S S A B B b b A 1.",
"= I x h x b B B A A A A S A A A A A A A A A A A S A A A A A A A A 2 o.@.#.#.#.@.o.A . d.. . . . . . . d.A A A A A A A A S A A A A A A A B B b x x B 1.",
"$ I x h h b b B B B B B A B B B A B B B B B A B A B A B B B B A V > < O.@.#.@.O.B A . d.d.d.d.d.. . d.B A B B B B B A B A B A B B B B B B b b x h A 1.",
"= I h a h h x x b B b B B b B b B b B b b B B b B b b b b B B b m m > > o.+.o.m b b . . . . . d.$ d.B b B b B b b B B b B b b b b B b b b x x h h b >.",
"$ I a u a h h x x x b x x x b x x x x b x x x x x b x b b x x b c c b > > > c c b x b x x b . d.d.x b x x x x b x x x x x b x b b x b x x h h h a b >.",
"$ I u r u a a h h x h h x h h h x h h h x h h x h x h h x h h h h x h h h x h h h x h h x h . . h h x h x h h x h h h h x h h x x h h x a h a u u x -.",
"$ I u r r r u a a a a a a a a a a a a a a a a a a a a a a a a a a a a a a a a a a a a a a a a a a a a a a a a a a a a a a a a a a a a a u u u r r h =.",
"$ L r 7 7 r r r u u r u u u r u u u r u u u u u u u u r u u r u u u r u u u u u u u r u u r u u u u u u u u u u u u u u u u u u u u u u u r r r 7 h =.",
"= L r 4 4 7 7 7 7 r 7 r 7 r 7 r 7 r 7 r 7 r 7 7 7 r 7 r 7 r 7 r r 7 r 7 r 7 7 r r 7 r 7 r 7 r 7 7 7 r 7 7 7 r 7 r 7 7 r 7 r 7 7 7 r 7 7 7 7 4 4 7 a %.",
"= S r 4 4 3 4 4 4 4 7 4 7 4 7 4 7 4 7 4 4 7 7 4 4 7 4 7 4 4 7 4 4 4 4 7 4 7 7 4 4 4 7 4 4 4 7 4 7 4 4 4 4 7 4 7 7 4 4 4 4 4 4 7 4 4 7 4 4 4 3 3 4 r $.",
"$ ^ x a h h h h h h h h h h h h h h h h h h h h h h h h h h x h h x x h h x x h x h h x h x x x x x x x x x x x x x b b b b b b b b b b b x b b x S -.",
"$ x S A A A A A A A A A A A A A A A A A A A A A A A A A A A A A A A A A S S S S S S L S S L L L L L L L I I I I I E E I E E E E E E ^ ^ ^ ^ ^ ) ) ) [ ",
". O $ O O $ O O $ O O $ $ O O $ $ O O $ O $ O $ O $ O $ O $ O $ O $ $ O O $ $ $ $ $ $ $ $ $ $ $ $ $ $ $ $ $ $ = $ $ $ = $ = $ = = = $ = $ = = = = $ = "
};
