/* XPM */
static char *NinjaMesh_AlignPivMaxY[] = {
/* columns rows colors chars-per-pixel */
"75 24 134 2",
"   c black",
".  c gray1",
"X  c #040404",
"o  c gray2",
"O  c #070707",
"+  c gray3",
"@  c #090909",
"#  c gray4",
"$  c #0B0B0B",
"%  c #0C0C0C",
"&  c gray5",
"*  c #0E0E0E",
"=  c gray6",
"-  c #101010",
";  c #111111",
":  c gray7",
">  c #131313",
",  c gray8",
"<  c #151515",
"1  c #161616",
"2  c gray9",
"3  c #181818",
"4  c #191919",
"5  c #2C2C2C",
"6  c #2D2D2D",
"7  c gray18",
"8  c #2F2F2F",
"9  c gray19",
"0  c #313131",
"q  c #323232",
"w  c gray20",
"e  c #343434",
"r  c #353535",
"t  c gray21",
"y  c #373737",
"u  c gray22",
"i  c #393939",
"p  c #3A3A3A",
"a  c gray23",
"s  c #3C3C3C",
"d  c gray24",
"f  c #3E3E3E",
"g  c #3F3F3F",
"h  c gray25",
"j  c #414141",
"k  c gray26",
"l  c #434343",
"z  c #444444",
"x  c gray27",
"c  c #464646",
"v  c gray28",
"b  c #484848",
"n  c #494949",
"m  c gray29",
"M  c #4B4B4B",
"N  c #4C4C4C",
"B  c gray30",
"V  c #4E4E4E",
"C  c gray31",
"Z  c #505050",
"A  c #515151",
"S  c gray32",
"D  c #535353",
"F  c gray33",
"G  c #555555",
"H  c #565656",
"J  c gray34",
"K  c #585858",
"L  c gray35",
"P  c #595B5B",
"I  c #5A5A5A",
"U  c #5B5B5B",
"Y  c gray36",
"T  c #5D5D5D",
"R  c gray37",
"E  c #5F5F5F",
"W  c #606060",
"Q  c gray38",
"!  c #626262",
"~  c gray39",
"^  c #646464",
"/  c #656565",
"(  c gray40",
")  c #676767",
"_  c #686868",
"`  c DimGray",
"'  c #6A6A6A",
"]  c gray42",
"[  c #6C6C6C",
"{  c #6D6D6D",
"}  c gray43",
"|  c #6F6F6F",
" . c gray44",
".. c #717171",
"X. c #727272",
"o. c gray45",
"O. c #777777",
"+. c gray47",
"@. c red",
"#. c green",
"$. c #03B3DE",
"%. c #02CBDB",
"&. c #838383",
"*. c #8B8B8B",
"=. c #909090",
"-. c #939393",
";. c #959595",
":. c gray59",
">. c #979797",
",. c #989898",
"<. c gray60",
"1. c #9A9A9A",
"2. c #9B9B9B",
"3. c gray61",
"4. c #9D9D9D",
"5. c gray62",
"6. c #9F9F9F",
"7. c #A0A0A0",
"8. c gray63",
"9. c #A2A2A2",
"0. c gray64",
"q. c #A4A4A4",
"w. c #A5A5A5",
"e. c gray65",
"r. c #A7A7A7",
"t. c gray66",
"y. c #A9A9A9",
"u. c #AAAAAA",
"i. c gray67",
"p. c #ACACAC",
"a. c gray68",
"s. c #AEAEAE",
"d. c gray69",
"f. c #B4B4B4",
/* pixels */
"> &.>.-.>.>.>.>.<.<.<.4.4.4.4.7.7.7.7.7.7.q.q.w.w.w.w.t.t.t.t.t.t.a.t.a.a.a.a.a.a.a.d.a.a.d.a.d.a.a.d.a.a.a.a.a.d.a.a.a.a.a.a.d.a.s.s.a.s.a.a.a.a.s.f.",
"* +.) ! ) ) ) _ _ } } _ _ } _ } [ } } } } } } | } } } } } ....} } ......} ....} ........................................................} ..} [ [ O.a.",
"> ..U F U F U T T T T T T T ! T T W T T T @.T T T T T W T $.T T T T $.T T $.T T T T T T T T T T T T T ! T T T T T T T T T T T T T E E T U U K K K T w.",
"* ..U D F F U T T ! ! ! ! ! T ! W W W W 3 @.W W ! W W W $.! $.T ! . $.T . T ! ! T ! ! T ! ! ! T ! ! T ! ! ! ! T ! ! ! ! ! ! ! ! ! E E E T U U K K ! w.",
"> } F D F U U T T ! T ! ! ! T %.W ! W ! 3 @.W ! ! W W . $.. $.! T . $.! ! $.T ! T $.$.$.! T $.$.$.! ! T ! ! ! ! ! ! E ! T ! ! ! ! E ! T T U K K F ! w.",
"* } F D F F T T ! ! ! ! ! ! %.%.%.! ! ! 4 @.! ! ! ! W $.T . T $.! . $.! . $.! ! $.. . $.! . $.. ! $.! ! ! ! ! ! ! ! ! ! ! #.#.#.! ! ! ! E #.#.#.F ! w.",
"> _ F C F F T ! ! ! ! ! ! %.%.%.%.%.! ! 4 @.! ! ! ! . $.$.$.$.$.! . $.! . $.! . $.! . $.! . $.! . $.T ! ! ! ! ! ! ! ! ! . #.#.#.~ ! ~ E . #.#.#.F E w.",
"* _ D D F U U T T ! ! ! 2 4 4 %.3 ! W ! 3 @.W ! ! W . $.. . . $.T . $.T . $.T . $.T . $.T . $.! . $.! ! ! ! T ! ! E ! T . . #.#.#.E ! E #.#.#.G G T w.",
"* ) D C D F U T T ! ! T ! T 4 %.W W W W 3 @.W W ! T $.! ! T . T $.. $.T . $.T . T $.$.$.T . $.T . $.! T T ! T ! T ! ! E ! . . #.#.#.E #.#.#.K G D U w.",
"* ^ C b C D F U T T T T T T 4 %.T T T T 2 @.T T T . T T T T T . T . T T . T T T $.. . $.T . T T . T T T T T T T T T T T T T . #.#.#.. #.#.#.G Z C U w.",
"% ! C v C C D J U U U T U U 2 %.U U U U 2 @.U Y U U U U U U U U U U U U U U U . U $.$.U T U U U U F U U U U U U U U U T U U . . #.#.#.#.#.G Z Z N K 7.",
"% ! b c v C C D F F F F F F 2 %.J F F F 2 @.F F F D F F $.F F F F F $.F F F F F . . F D F F F F F F F U F F F F F F F F F F D . #.#.#.#.#.Z C N b G 8.",
"% T c z c b C C D D D D D D 2 %.D D D D 2 @.D D D D D . $.$.D D D $.$.D D D D D D D D D D D D D F D D D D D D D D D D D D D D . . #.#.#.Z C N b b D 8.",
"% Y z j z v N C C C C D D C > %.C D D C > @.C D D C C . $.$.D C . $.$.D C C $.$.$.C D $.C C C $.D D C C C D D C C C D D D C C C . #.#.#.N N b c z Z 4.",
"% T j g j c %.b b C C b N N > @.C b b C > @.C b b C b . $.b $.b $.. $.b C $.. . b $.. b $.b $.C b C C b C b b C b C C b b C b C . #.#.#.b b c z j N 4.",
"% T g a g %.%.c v v b b v v @.@.@.b b c > @.b b b c c . $.. $.. $.. $.c . c c c . $.c . $.. $.b b b b b b b b b b b b b b b b c . #.#.#.c z j h g b 4.",
"% T a t %.%.%.%.%.%.%.%.%.@.@.@.@.@.j j > @.j z j j j . $.. $.. $.. $.j j j $.$.$.$.j . c $.j j c j j j j j c j j j j j j j j c . #.#.#.h g s s s b <.",
"% Y a * * %.%.* = = > * X X @.@.@.g g g = @.g g g g g . $.. $.. $.. $.g g $.. . . $.g a $.g $.g g g g g g g g g g g g g g g g g . #.#.#.s a u u t z ;.",
"% Y u 9 * % %.u a u u a a * * @.u a u a * @.u a a a t . $.. t $.t . $.t . $.a t $.$.a . $.. $.a a a a a a t a a a a a a a a a t . . . t t t e e q h -.",
"$ U t 7 7 % q q q e q q q q * q q e q q * @.q q q q q . $.q . $.q . $.q . q $.$.. $.q $.q . q $.q q q q q q q q q q q q q q q q q q q t q 0 0 7 0 g =.",
"* J e 7 5 5 7 7 7 9 7 q 9 9 9 7 7 q 7 7 % @.9 9 7 7 9 . 9 9 . 7 7 . 7 7 7 . . q . 7 . 7 7 q . 7 7 7 7 7 7 7 7 q q 7 q 7 7 7 7 q 7 q 7 7 7 7 7 5 5 t *.",
"% ) c g h j j h h h j j j j j j j j j j = j j j j j j j j j j j j j c j c j j j j j j c j c j c c c c c c c b c c c c c b b b c b c b b b b b c b F <.",
"O v F D D D D D D D C D D D D D D D D D D D D D D D D D D D D D D D F F D D F F F F F U F U F U U U U U T T T T T ! T ! ! ! ! ) ! ) ) ) ) ) ) ) ` [ } ",
". O O O O O O O O $ O $ O O O O O O O O O O $ O O O O $ O O O $ $ O O $ $ O $ $ $ O $ $ $ $ $ $ $ $ O $ $ $ $ $ $ $ * $ $ $ $ * $ * $ $ * * * * * $ * "
};
