/* XPM */
static char *NinjaMesh_DeformerCopy[] = {
/* columns rows colors chars-per-pixel */
"115 24 139 2",
"   c black",
".  c #020202",
"X  c gray2",
"o  c #070707",
"O  c gray3",
"+  c #090909",
"@  c gray4",
"#  c #0B0B0B",
"$  c #0C0C0C",
"%  c #2A2A2A",
"&  c gray17",
"*  c #2C2C2C",
"=  c #2D2D2D",
"-  c gray18",
";  c #2F2F2F",
":  c gray19",
">  c #313131",
",  c #323232",
"<  c gray20",
"1  c #343434",
"2  c #353535",
"3  c gray21",
"4  c #373737",
"5  c gray22",
"6  c #393939",
"7  c #3A3A3A",
"8  c gray23",
"9  c #3C3C3C",
"0  c gray24",
"q  c #3E3E3E",
"w  c #3F3F3F",
"e  c gray25",
"r  c #414141",
"t  c gray26",
"y  c #434343",
"u  c #444444",
"i  c gray27",
"p  c #464646",
"a  c gray28",
"s  c #484848",
"d  c #494949",
"f  c gray29",
"g  c #4B4B4B",
"h  c #4C4C4C",
"j  c gray30",
"k  c #4E4E4E",
"l  c gray31",
"z  c #505050",
"x  c #515151",
"c  c gray32",
"v  c #535353",
"b  c gray33",
"n  c #555555",
"m  c #565656",
"M  c gray34",
"N  c #585858",
"B  c gray35",
"V  c #5A5A5A",
"C  c #5B5B5B",
"Z  c gray36",
"A  c #5D5D5D",
"S  c gray37",
"D  c #5F5F5F",
"F  c #606060",
"G  c gray38",
"H  c #626262",
"J  c gray39",
"K  c #676767",
"L  c #686868",
"P  c DimGray",
"I  c #6A6A6A",
"U  c gray42",
"Y  c #6C6C6C",
"T  c #6D6D6D",
"R  c gray43",
"E  c #6F6F6F",
"W  c gray44",
"Q  c #717171",
"!  c #727272",
"~  c gray45",
"^  c #747474",
"/  c gray46",
"(  c #767676",
")  c #777777",
"_  c gray47",
"`  c #797979",
"'  c gray48",
"]  c #7B7B7B",
"[  c #7C7C7C",
"{  c gray49",
"}  c #7E7E7E",
"|  c #7F7F7F",
" . c #03B3DE",
".. c #808080",
"X. c #818181",
"o. c gray51",
"O. c #838383",
"+. c #848484",
"@. c gray52",
"#. c #868686",
"$. c gray53",
"%. c #888888",
"&. c #898989",
"*. c gray54",
"=. c #8B8B8B",
"-. c gray55",
";. c #8D8D8D",
":. c #8E8E8E",
">. c gray56",
",. c #909090",
"<. c gray57",
"1. c #929292",
"2. c #939393",
"3. c gray58",
"4. c #959595",
"5. c gray59",
"6. c #979797",
"7. c #989898",
"8. c gray60",
"9. c #9A9A9A",
"0. c #9B9B9B",
"q. c gray61",
"w. c #9D9D9D",
"e. c gray62",
"r. c #9F9F9F",
"t. c #A0A0A0",
"y. c gray63",
"u. c #A2A2A2",
"i. c gray64",
"p. c #A4A4A4",
"a. c #A5A5A5",
"s. c gray65",
"d. c #A7A7A7",
"f. c gray66",
"g. c #A9A9A9",
"h. c #AAAAAA",
"j. c gray67",
"k. c #ACACAC",
"l. c gray68",
/* pixels */
"$ / / _ / _ _ _ { { { { { { X.X.X.X.@.@.@.@.@.&.&.&.&.;.;.;.;.;.,.,.,.3.3.3.3.7.7.7.7.7.q.q.q.q.t.q.t.t.t.t.a.a.t.a.a.a.g.g.a.g.g.g.g.g.k.k.k.k.k.k.k.k.k.k.k.k.k.k.k.k.k.k.k.k.k.k.k.k.k.k.k.k.k.k.k.k.k.k.k.k.k.k.k.k.k.k.k.k.k.k.k.",
"O / m m m B A B A A A A A A B A A A A A B A A A A A A A A A A A A A A A A A A A A A A A A A A A A A A A A A A A A A A A A A A A A A A A A A A A A A A A A A A A A A A A A A A A A A A A A A A A A A A A A A A A A A A A A B m B m m k.",
"O Q v m m B A A A F A F F F F F F F F F F F F F F F A A F F F F A F F F F F A F F F F F A F F F F F F A F F F F A F F F F F A F F F F F A F F F F F F A F F F F F F F F F F F F F F F F F F F F F F F F F F F F F F F A A B B B v v k.",
"$ E v m B B A A F F F F F F F F F F F F F F F F F F F F F F F J F F F F F F F F F F F F F F F F F F F F J F F F F F F F F F F F F F F J F F F F F F F F F F F J F F F F F F F F F F F F F F F F F F F F J F F F F F F F A A B m m m k.",
"$ E k v m B A A J F J F F F J F F J F F F F F F F J F J F F F F J F J F F F J F F J F F F F F F F J F J F F F F J F J F F F J F F F J F F F F F F J F J F F F F J F J F F F J F F J F F F F F F F F F F J F F F J F F F A A B m v v g.",
"O E v v B B A F J F J F J F J J F J J J J J J J F J F J J J J F J F J F J F J J F J J J J J J J F J F J J J J J J F J F J F J J J F J F J J J J F J F J J J J F J F J F J F J J F J J J J J J J J J J F J J J J J F J J F A B B v v k.",
"$ E k v m B A F F J J J J J J J J J J J J J J J J J J J J J J J J J J J J J J J J J J J J J J J J J J J J J J J J J J J J J J J J J J J J J J J J J J J J J J J J J J J J J J J J J J J J J J J J J J J J J J J J J J J F A B B v v k.",
"$ E k v m B A F F J J J F J J F J F J J  . . .F J J F J J F J J J F J J F J J F J F J J F J J F J  . . . . .J F J F J J F J J F J J  . .F J J F J J F J J F J J J F J J F J J F J F J J F J J F J F J J F J J F J F F F F B B m v v k.",
"O U k k m m B A F F F F F F F F F F F  .    F  .F F F F F F F F F F F F F F F F F F F F F F F F    .      F  .F F F F F F F F F F  .  F F F F F F F F F F F F F F F F F F F F F F F F F F F F F F F F F F F F F F F F A A B B m v k k.",
"$ U f k v m B B A A A A A A A A A A  .A A A   A  .A A A  . . .A A A  .A  . .A A  .A A A  .A A A    .A A A   A  .A A A  . . .A A  . . .A A  . . .A A A  .A  .A  .A  . .A A  . .A A A A  . . .A A A  .A  .A A A A A A A A B B v v k f k.",
"$ E a f k v m m B B B B B B B B B    .B B B B   B A B  .    B  .B    . .  B  .   .B B    .B B B    .B A B B    .A B  .    B  .     .B B  .    B  .B    . .B    . .  A  . .  B  .B B  .    B  .B    . .B B B B B A B B B m v v k k f k.",
"O U a a f f v v m m B m m m m B m    .m B m m m m m    .m m    .m    .B m    .  m  .m  .m m m m    .m m m m    .m    .m m    .m    .m    .m m    .m    .m m    .m m    .m m    .B    .m m    .m    .m m m m m m m m m m m v k f f f k.",
"O U e a a f k v v v v v m v v v v    .v v v v v v v    .v v    .m    .v v    .v    .   .v v v v    .v v v v    .v    . . . . .m    .v    .v v    .v    .v v    .v v    .v v    .v    . . . . .v    .m v v v v m v v v v k k k f a e k.",
"$ U e e a f f k k k v k k v v k v    .k k v k v  .v    .k v    .v    .k v    .v    .   .k v k v    .k v v k    .v    .      k v    .v    .k v    .v    .v k    .k v    .k v    .v    .      k v    .k v v k k k v k k v k f a a a e k.",
"$ J q q e a a f f k f k k f f f f   k  .f k f  .f k    .k f    .f    . .f    .f   k  .k f k f f    .f k f k  .f f    .f f k  .f    .k    .f f    .f    .f k    .k k    .f k    .f    .f k f  .f    .f k f k k f f f f f f a a e q q k.",
"$ U 6 q q e a a a a f a a f a f f a   a  . . .a f a   f  . . .f a    .f  . .f a f    .a f a f a    . . . . .f a f   f  . . .a f    .a   f  . . .f f    .a f    .a a    .f a    .a   f  . . .f a    .f a f a a f a f f a a a e q q q k.",
"$ U 1 6 q q e e a e a a e a a e a e a       a e a e a       a e a    .    a e a a    .a e a e a           a e a e a       a e a   a e a       a e a   e a e   a e a   a e a   a e a       a e a   a a e a a e a a e a e e e e q 6 6 g.",
"$ J < 1 1 6 q q q q q q q q e q e e e q q q e e q q q q q e q e q    .q q q e q q  .q e e q e q q q q e q q e e q q e q q e q q q q e e q q q e e e e e q q e e e q q e e q q q e q e q q q e q q q q q q q q q e q q q q q 6 1 1 < a.",
"O E ; ; < < 1 6 6 6 6 6 6 6 6 6 6 6 6 6 6 6 6 6 6 6 6 6 6 6 6 6 6   6 6 6 6 6 6   6 6 6 6 6 6 6 6 6 6 6 6 6 6 6 6 6 6 6 6 6 6 6 6 6 6 6 6 6 6 6 6 6 6 6 6 6 6 6 6 6 6 6 6 6 6 6 6 6 6 6 6 6 6 6 6 6 6 6 6 6 6 6 6 6 6 6 6 1 1 < < ; a.",
"$ E ; ; ; < < 1 1 1 1 1 1 1 1 1 1 1 1 1 1 1 1 1 1 1 1 1 1 1 1 1 1 1 1 1 1 1 1 < 1 < 1 1 1 1 1 < 1 1 1 1 1 1 < < 1 1 1 1 1 1 1 1 1 1 < < 1 1 1 1 1 1 1 1 1 1 < < 1 1 1 1 1 1 < < 1 1 1 1 1 1 < < < 1 1 1 1 1 1 1 1 1 1 < < < < ; ; ; a.",
"O U & & & ; ; ; ; ; ; ; ; ; ; ; ; ; < ; < ; ; < ; ; ; ; ; ; ; ; < ; ; ; ; < ; ; < ; ; ; ; < ; ; < ; ; ; ; ; ; ; ; ; < ; < ; ; < ; ; < ; ; ; ; < < ; < ; ; ; < ; < ; ; < ; ; < ; < ; < ; ; ; < ; < ; ; < < ; < ; ; < ; ; ; & ; & & ; t.",
"$ E & & & & % & & & & & & & & & & & & & & & & & & & & & & & & & & & & & & & & & & & & & & & & & & & & & & & & & & & & & & & & & & ; & & & & & ; & & & ; & & & & & & & & & ; & & & & & & & ; & & & & & & & & & & & ; & & & & & ; & & t.",
"O E E U E E U U E E U E E E E E E U E U E E U E E E U E E E E E U E E E E U E E U E E E E U E E E E E E E E E E E E E E E Q E Q / Q Q / / / _ / / _ _ _ _ { { { { { { { X.X.X.@.@.@.@.@.&.&.&.&.&.;.;.,.,.,.,.,.3.3.3.3.3.7.7.7.7.7.q.",
"  o o o o O O o O O o o o o O o O o o o o o o o O O o o o o O O o o o o o o o O o o o o o o o o o o o o o o o o o o O O o O o o O O O O O O O O O O                                                                                   "
};
