/* XPM */
static char *NinjaUV_SnapLS[] = {
/* columns rows colors chars-per-pixel */
"84 24 56 1",
"  c #131313",
". c #181816",
"X c #1E1E1E",
"o c #21211E",
"O c #242424",
"+ c #2A2A25",
"@ c #2D2D2C",
"# c #33332D",
"$ c #353535",
"% c #393934",
"& c #3D3D3B",
"* c #44443D",
"= c #49493F",
"- c #444444",
"; c #4B4B46",
": c #4C4C4A",
"> c #515147",
", c #55554D",
"< c #58584F",
"1 c #545450",
"2 c #5D5D54",
"3 c #5D5D5D",
"4 c #626255",
"5 c #64645B",
"6 c #69695D",
"7 c #666666",
"8 c #6C6C62",
"9 c #6C6C6A",
"0 c #727264",
"q c #74746B",
"w c #7B7B6D",
"e c #747471",
"r c #7A7A75",
"t c #2FFE01",
"y c #30FF00",
"u c #44FF00",
"i c #70FE3C",
"p c #7EFE4F",
"a c #7DFB50",
"s c #81817A",
"d c #8BFE60",
"f c #818181",
"g c #888887",
"h c #8B8B8A",
"j c #939393",
"k c #9F9F9F",
"l c #A4A4A4",
"z c gray68",
"x c gray70",
"c c #BBBBBB",
"v c #C3C3C3",
"b c #CACACA",
"n c #D0D0D0",
"m c #F0FEEA",
"M c #F7FCF5",
"N c #FEFEFE",
/* pixels */
" 7sfhhggfffffffffffffghggsffffffffffffffffffffffffffffffffffffffffffffffffffffffffjl",
"X@7erusreqee9eeeee9qrsuse977797777777777797777777777777777777777797777777777777777fj",
"X%:20uw05555555555447quq5::-------------------------------------------------------7f",
"X$-uuuydNNNNNNNNNNNmituuu1-------------------------------------------::--------:-:7f",
"X@%;6t05<<<<,<<<<<,><6tq5:-----------------------------------------:122111111112219f",
"X+@&>p<>&&&&&&&&&&%$*<p62:-----------------------------------------16uq855555560u9ef",
"X+@$;M,;$$$$$$$$$$#+%=N41----------------------------------------&->uuuNNNNNNNNuuurf",
"X@@%>N2;&&&&&&&&&&$#%<N51----------------------------------------%$;4u05111<,>40u0rf",
"X$$&1M41;---------&$&<N51-----------jl:--------------------------$@%,N2>&&*&%$=2N8ef",
"X#$&<N51-----------$&<N51---------&&v3l1------------------:------$@%;N<;$$$$#+%,N5ef",
"X@$&<N51----------&$&1N51--------&$$c&@z:------------------------&$%,N2:&&&&$@%,N5ef",
"X$$&,N41----------&$*,N51------hjhggv@ @x1----------:------------&$&<N51----&$&<N5qf",
"X$$&<N51----------&$&<N51----&&c-&$$$   $x:----------------------&$*1N51----&$&<N5ef",
"X@$&<M51----------&$&<N51---&$$z         $b----------------------&$&<N51----&$*<N5ef",
"X@$&<N51----------&$*,N31---&@Oz         7k----------------------&$&<N51----&$*<N5ef",
"X$%&<N51----------&$&<N71--&&@Ovgfffe.  7k-----------------------&%*4Nq51111:*>5N8ef",
"X$$&<M5<----------&$&<N51--&%@O-----b$ 7z$-----------------------&$-7uw055552<20u9ff",
"X@$&<M51----------&$&<N51---&$@@@OOXc$3z$------------------------&$-uuuNNNNNNNNuuteh",
"X$&;<d85,1,,111111:;>5p82:--&&$$@@OOnjl$-------------------------$$&1u74<<<<,;>4u7ef",
"X$&,8yw055555555552<20tw7:----&&&$@O-3$$-------------------------$@@$--*&&&&&%$-117f",
"X$&uuuydNNNNNNNNNNNmiyuuu1-------$$@@$$---------:----------------$$@$$$$%%$$$@@&--7f",
"X@%=4u04,,,<,<<<<,>;>6u05::------&$$$-----------------------------&$$&&-&&&&&&$&--7f",
".oO#*u;*$%%$$$$%%%##%=u,;&&$$%%$$$$$$$$$$$$$$$&$$&$&$$$&&$$$&$&$&$$$$$$$$$$&$$$$$$@7",
"   .X+oX.........   .o++OXXXXXXXXXXXXXXXXXXXXXXXXXXXXXXXXXXXXXXXXXXXXXXXXXXXXXXXXXX "
};
