/* XPM */
static char *NinjaMesh_FreezeTranslate[] = {
/* columns rows colors chars-per-pixel */
"75 24 186 2",
"   c gray1",
".  c gray2",
"X  c #070707",
"o  c gray3",
"O  c #090909",
"+  c gray4",
"@  c #0B0B0B",
"#  c #0C0C0C",
"$  c gray5",
"%  c #0E0E0E",
"&  c gray6",
"*  c #101010",
"=  c #111111",
"-  c gray7",
";  c #131313",
":  c gray8",
">  c gray9",
",  c #181818",
"<  c #191919",
"1  c #1D1D1D",
"2  c #1E1E1E",
"3  c gray12",
"4  c #202020",
"5  c gray13",
"6  c #222222",
"7  c #232323",
"8  c gray14",
"9  c gray15",
"0  c #282828",
"q  c gray16",
"w  c #2A2A2A",
"e  c gray17",
"r  c #2C2C2C",
"t  c #2D2D2D",
"y  c gray18",
"u  c #2F2F2F",
"i  c gray19",
"p  c #313131",
"a  c #323232",
"s  c gray20",
"d  c #343434",
"f  c #353535",
"g  c gray21",
"h  c #373737",
"j  c gray22",
"k  c #393939",
"l  c #3A3A3A",
"z  c gray23",
"x  c #3C3C3C",
"c  c gray24",
"v  c #3E3E3E",
"b  c #3E3F3F",
"n  c #3F3F3F",
"m  c gray25",
"M  c #414141",
"N  c gray26",
"B  c #434343",
"V  c #444444",
"C  c gray27",
"Z  c #464646",
"A  c gray28",
"S  c #484848",
"D  c #494949",
"F  c gray29",
"G  c #4B4B4B",
"H  c #4C4C4C",
"J  c gray30",
"K  c #4E4E4E",
"L  c gray31",
"P  c #505050",
"I  c #515151",
"U  c gray32",
"Y  c #535353",
"T  c gray33",
"R  c #555555",
"E  c #565656",
"W  c gray34",
"Q  c #585858",
"!  c gray35",
"~  c #5A5A5A",
"^  c #5B5B5B",
"/  c gray36",
"(  c #5D5D5D",
")  c gray37",
"_  c #5F5F5F",
"`  c #606060",
"'  c gray38",
"]  c #616363",
"[  c #626262",
"{  c #626263",
"}  c gray39",
"|  c #646464",
" . c #656565",
".. c gray40",
"X. c #676767",
"o. c #686868",
"O. c DimGray",
"+. c #6A6A6A",
"@. c gray42",
"#. c #6C6C6C",
"$. c #6D6D6D",
"%. c gray43",
"&. c #6F6F6F",
"*. c gray44",
"=. c #717171",
"-. c #727272",
";. c gray45",
":. c #777777",
">. c gray47",
",. c #028EA1",
"<. c #0293A5",
"1. c #0294A7",
"2. c #0298AA",
"3. c #0299AC",
"4. c #029CAF",
"5. c #029EB1",
"6. c #02A2B3",
"7. c #02A4B5",
"8. c #02A4B6",
"9. c #02A5B7",
"0. c #02A6B9",
"q. c #02AABB",
"w. c #02ACBD",
"e. c #02ACBE",
"r. c #02ADBF",
"t. c #02AEC0",
"y. c #02AFC1",
"u. c #02B2C3",
"i. c #02B4C6",
"p. c #02B6C7",
"a. c #02B7C8",
"s. c #02B8C8",
"d. c #02B9CA",
"f. c #02BBCC",
"g. c #02BDCE",
"h. c #02BFCF",
"j. c #02BFD0",
"k. c #03B3DE",
"l. c #02C1D1",
"z. c #02C3D4",
"x. c #02C5D4",
"c. c #02C6D6",
"v. c #02CADA",
"b. c #02CBDB",
"n. c #02CCDC",
"m. c #02CDDC",
"M. c #02CDDD",
"N. c #02CEDD",
"B. c #02CEDE",
"V. c #02CFDE",
"C. c #02D0DF",
"Z. c #02D1E0",
"A. c #02D2E1",
"S. c #02D2E2",
"D. c #838383",
"F. c #8B8B8B",
"G. c #909090",
"H. c #939393",
"J. c #959595",
"K. c gray59",
"L. c #979797",
"P. c #989898",
"I. c gray60",
"U. c #9A9A9A",
"Y. c #9B9B9B",
"T. c gray61",
"R. c #9D9D9D",
"E. c gray62",
"W. c #9F9F9F",
"Q. c #A0A0A0",
"!. c gray63",
"~. c #A2A2A2",
"^. c gray64",
"/. c #A4A4A4",
"(. c #A5A5A5",
"). c gray65",
"_. c #A7A7A7",
"`. c gray66",
"'. c #A9A9A9",
"]. c #AAAAAA",
"[. c gray67",
"{. c #ACACAC",
"}. c gray68",
"|. c #AEAEAE",
" X c gray69",
".X c #B4B4B4",
/* pixels */
"; D.L.H.L.L.L.L.I.I.I.R.R.R.R.Q.W.W.Q.Q.~.~.~.).).).).).).'.'.].].].].].}.{.}.}.}.|.|.|.|.|.}.|.|.|.|.|.|.|.|.|.|.|.}.|.|.|.|.|.}.|.|.|.|.}.{.}.}.|..X",
"% >.X.[ X.X.X.o.o.%.%.o.o.%.o.%.%.%.%.%.%.%.%.%.%.%.%.%.&.&.&.&.&.&.*.&.*.*.*.*.*.=.=.=.=.=.=.=.=.=.=.=.=.=.=.=.=.=.=.=.=.=.=.=.=.=.=.*.*.*.%.$.$.:.{.",
"; =.^ T ^ T ^ ( ( ( ( ( ( b.[ ( _ ( _ ( ( _ ( _ ( _ ( _ _ ( _ ( _ _ ( _ ( _ _ ( _ ( _ ( _ _ ( _ ( _ _ ( _ ( _ ( _ _ ( _ ( _ _ ( ` ( ( ( / ^ Q Q Q / /.",
"% =.^ Y T T ^ ( ( [ [ [ n.b.b.[ ` ` _ _ ` ` ` ` ` ` ` _ ` ` _ _ _ ` ` ` ` ` ` ` ` ` _ _ _ ` ` ` ` ` ` ` ` ` _ _ _ ` ` ` ` ` ` ` ` ` ` ( / / Q Q Q  .).",
"; %.T Y T ^ ^ ( _ ` [ b.b.x.b.n.[ [ ` [ [ ` [ [ [ [ ` [ ` [ ` [ [ ` [ ` [ [ ` [ ` [ ` [ [ ` [ ` [ [ ` [ ` [ ` [ [ ` [ ` [ [ ` [ ` [ ` ` ( ^ ^ Q T [ /.",
"% %.T Y T T ( ( [ [ v.b.l.p.l.C.n.[ [ [ [ [ [ [ [ [ [ [ [ [ [ [ [ [ [ [ [ [ [ [ [ [ [ [ [ [ [ [ [ [ [ [ [ [ [ [ [ [ [ [ [ [ [ [ [ [ [ [ ` ^ ^ Q T ` ).",
"; o.T L T T ( [ ` < , < d.u.f.< [ ] [ ] [ [ ] ] [ [ [ [ [ [ [ [ [ [ [ [ [ [ [ [ [ [ [ [ [ [ [ [ [ [ [ [ [ [ [ [ [ [ [ [ [ [ [ [ [ [ [ [ ( / ^ T T ` /.",
"% o.Y Y T ^ ^ ( _ [ [ , u.q.p.[ ` [ ` ` [ ` ` [ ` [ ` [ ` [ ` [ [ ~ L k.k.k.k.k.[ ` [ ` [ ` [ [ ` [ ` [ ` [ ` [ [ ` [ ` [ ` [ ` [ ` [ ` ( / ^ T T ` /.",
"& ..L J U T ~ n.( ` _ , q.7.e.` ` ` ` Z.[ _ ` ` ` ` ` ` ` ` ` ` _ L y k.y y v U ` _ _ ` ` ` ` _ ` ` _ [ ` _ ` ` _ _ _ _ ` ` ` ` ` ` ` ( / ^ T R Y / /.",
"& | L H L U C.C.( ( ( > 6.4.7.( ( ( > Z.S.( ( ( ( ( ( ( ( ( ( ( ( A q k.A A H W W Y k.Y k.T H k.k.k.( ( W H k.k.k.W H k.k.k.k.k.Q H k.k.k.Q R Y L ^ /.",
"# ] H S L C.C.z.g.p.e.7.2.<.3.0.t.d.l.x.Z.S.~ ~ ^ ^ ^ ^ ^ ^ ( ^ ^ V t k.^ W ^ ^ G p k.k.G V k.t a V k.U V k.t a V k.k r 0 5 k.G V k.t p m k.Y P H Q /.",
"# [ S S S.Z.v.j.p.u.0.5.1.,.1.5.0.t.a.g.v.Z.S.W T T Q T T T T T T m 9 k.k.k.k.T m 3 k.m m i k.m g y k.S y k.m g y k.S m i 3 k.m i k.m d i k.H H S R Q.",
"# _ S & ; Z.Z.c.j.a.t.0.3.<.2.7.t.d.g.x.C.Z.Y Y Y Y Y Y Y Y Y Y U m 3 k.q d G Y v 7 k.L v 7 k.k.k.k.k.m 7 k.k.k.k.k.U L k k.V v 8 k.k.k.k.k.H S S Y Q.",
"# ~ V M & ; Z.Z.: : : ; 7.5.6.; ; - - n.n.P P P Y L P P P P P P P l 7 k.x M H P v 9 k.P l 3 k.0 7 q M l 3 k.0 7 9 M H l k.x H l 2 k.0 8 9 x S A V P R.",
"# _ V v M ; ; Z.G H H ; w.7.q.H J J ; n.J J J G G J J G J G G G H k 9 k.H H H H k 9 k.H k 5 k.k f a k.k 5 k.k d f k.v r k.S H k 5 k.j d p k.A V M H R.",
"# ~ m l v m * A A S S ; i.w.u.S S S - S S S S S S S S S S S S G S g 8 k.S S S S f 8 k.S l q t k.k.k.m l 0 t k.k.k.l t k.k.k.k.k.0 t k.k.k.x M m v G Y.",
"# ( v g l m m m V V M = f.i.d.M B B B B B B B B B B B B B B B B V f q j V M V V f q f V m d 0 5 9 a m m a 9 5 9 a g 9 < 2 5 r f p 9 5 9 i x v x k S I.",
"% ~ l f g g l l b b C.n.j.a.l.v.n.v v v v v v v v v v v v v v v v x f k v v v v x j k v v k p t a l v v l a y a l l a y y y a k x p t d j x k j f V L.",
"# ~ k y a f g k k & & v.n.x.n.n.k k k k k k k k k k k k k k k k j k j k j k k k j k j k j j j k k l j k k k k k k k k l k k k k j k j j f j d p p m H.",
"# ~ g y y y p a a a $ # n.n.v.s p s s s s s s s s s s s s s s s d d d p d d p d d d d p d d d p a a a a a f a a a f a a a f a a d p d d p p i i i m G.",
"# ^ a r r r t y y y y # # v.y y i i i t i p i t t i i i t i i t t t i i i i t i t i i t i i t i p y t y y y t y i t i i y y y y i t i i t r r r r j F.",
"# ..S m M M M M m V V V = M V V M M M M M M B M M M M M M B B M V V V M M B V V V V V V V V A V A S A A S S A S S A A S G S S G S S S S G G S S S T L.",
"o S T U Y U U U U U U U U U U U Y Y Y Y Y Y Y Y Y Y Y Y Y Y Y Y Y R R R Y R R R Q T Q Q Q Q Q ^ ^ ~ ~ ~ ~ / ( ( ( ` ` ` ` [ ] ]  . . .X.X. .X.X.O.$.%.",
"    o o o o o o o o o o o o o o o X o X X o o o o o X o o o o o X X O X O O O O O O O O O # o # o o # # # # # # o # # # # # # % # % # # # % % % % o * "
};
