/* XPM */
static char *Ninja_buttonB[] = {
/* columns rows colors chars-per-pixel */
"32 32 256 2",
"   c #010101",
".  c #090202",
"X  c #0B0A06",
"o  c #060509",
"O  c #09070C",
"+  c #05090B",
"@  c #0B0B0B",
"#  c #060905",
"$  c #130404",
"%  c #190705",
"&  c #130B06",
"*  c #18070A",
"=  c #130D0D",
"-  c #1C0C0A",
";  c #0C120F",
":  c #11110F",
">  c #1F100A",
",  c #0E0E11",
"<  c #190D12",
"1  c #0F1010",
"2  c #131313",
"3  c #1A1210",
"4  c #171815",
"5  c #181A17",
"6  c #141618",
"7  c #16191A",
"8  c #1A1A1A",
"9  c #1B171B",
"0  c #270C0C",
"q  c #3A0E0E",
"w  c #26150E",
"e  c #29180F",
"r  c #241412",
"t  c #2D1A13",
"y  c #27181A",
"u  c #2B1D1A",
"i  c #2C1418",
"p  c #311C1C",
"a  c #18201C",
"s  c #332016",
"d  c #3F281E",
"f  c #201E20",
"g  c #3A1D25",
"h  c #1E2422",
"j  c #242424",
"k  c #282827",
"l  c #26272C",
"z  c #242A28",
"x  c #29292B",
"c  c #2C2426",
"v  c #342320",
"b  c #382821",
"n  c #382D2D",
"m  c #2E312E",
"M  c #2F3436",
"N  c #383639",
"B  c #3A362A",
"V  c #441414",
"C  c #471919",
"Z  c #491D1D",
"A  c #621919",
"S  c #781F1F",
"D  c #412717",
"F  c #451E24",
"G  c #412222",
"H  c #4C2424",
"J  c #462A26",
"K  c #4D2B2A",
"L  c #462E2E",
"P  c #5D2F26",
"I  c #532B2A",
"U  c #592D2F",
"Y  c #4B3529",
"T  c #54322D",
"R  c #5D3E2F",
"E  c #543626",
"W  c #4D2C31",
"Q  c #403238",
"!  c #403434",
"~  c #593630",
"^  c #513C35",
"/  c #5E3838",
"(  c #563633",
")  c #7B2424",
"_  c #7E2B2B",
"`  c #67382C",
"'  c #633B33",
"]  c #6A3E36",
"[  c #643B3A",
"{  c #6C3C3B",
"}  c #603534",
"|  c #5B453B",
" . c #6B443B",
".. c #6C4F3F",
"X. c #6A433A",
"o. c #72423B",
"O. c #7D473C",
"+. c #7B4B3E",
"@. c #754A3C",
"#. c #463945",
"$. c #464746",
"%. c #49484C",
"&. c #4B4149",
"*. c #5F4D40",
"=. c #5C4A48",
"-. c #514D4E",
";. c #57585A",
":. c #6F4A45",
">. c #6A4743",
",. c #724D42",
"<. c #7B4D44",
"1. c #765046",
"2. c #7A5445",
"3. c #76544C",
"4. c #7B534C",
"5. c #755F48",
"6. c #7F5E4F",
"7. c #6F5858",
"8. c #7F5E53",
"9. c #795A5A",
"0. c #616065",
"q. c #6F676E",
"w. c #65686B",
"e. c #7E696F",
"r. c #7D6C63",
"t. c #776F72",
"y. c #802E2E",
"u. c #962C2C",
"i. c #823232",
"p. c #863B3B",
"a. c #883E3E",
"s. c #9A3333",
"d. c #9E3B3B",
"f. c #804836",
"g. c #804B3C",
"h. c #8C543D",
"j. c #8B4343",
"k. c #804C42",
"l. c #884A45",
"z. c #8E4A4A",
"x. c #904F4F",
"c. c #875B41",
"v. c #82544C",
"b. c #8C594D",
"n. c #885C48",
"m. c #935746",
"M. c #905248",
"N. c #965C4A",
"B. c #8D5B53",
"V. c #805E59",
"C. c #885F5A",
"Z. c #855953",
"A. c #A24444",
"S. c #A64C4C",
"D. c #A95353",
"F. c #AD5B5B",
"G. c #A25A5A",
"H. c #8A6047",
"J. c #8F664D",
"K. c #9F6449",
"L. c #97694C",
"P. c #8D6255",
"I. c #8F645C",
"U. c #936554",
"Y. c #986150",
"T. c #946955",
"R. c #96635C",
"E. c #9D675B",
"W. c #9A725E",
"Q. c #A06248",
"!. c #A2694F",
"~. c #A06957",
"^. c #A46E5C",
"/. c #AA6F5A",
"(. c #AA6E54",
"). c #B06E51",
"_. c #A67358",
"`. c #B87850",
"'. c #B77C5D",
"]. c #956161",
"[. c #9C7261",
"{. c #917869",
"}. c #9C756D",
"|. c #8C6F71",
" X c #907072",
".X c #AE6060",
"XX c #B26363",
"oX c #B66C6C",
"OX c #A57267",
"+X c #AB7765",
"@X c #B37A62",
"#X c #B87F60",
"$X c #AF7D71",
"%X c #A27F73",
"&X c #B97373",
"*X c #BD7B7B",
"=X c #C07F5A",
"-X c #C07E63",
";X c #BD815C",
":X c #B78164",
">X c #BA8365",
",X c #B7846C",
"<X c #BD856D",
"1X c #BE886D",
"2X c #B18A6E",
"3X c #B08071",
"4X c #BC8975",
"5X c #BE8A78",
"6X c #B18A7A",
"7X c #BF907B",
"8X c #C1835A",
"9X c #C9875E",
"0X c #C28464",
"qX c #C48965",
"wX c #C88D61",
"eX c #C48A6C",
"rX c #C18D75",
"tX c #CE9872",
"yX c #CA9279",
"uX c #C59074",
"iX c #D19B78",
"pX c #D59E75",
"aX c #9D8987",
"sX c #9A8B89",
"dX c #8A8B91",
"fX c #949292",
"gX c #A09298",
"hX c #B29A99",
"jX c #9E97A0",
"kX c #B2A4AC",
"lX c #B0ADAF",
"zX c #BEB9BE",
"xX c #BCB2BA",
"cX c #C18282",
"vX c #CC9C86",
"bX c #C0998D",
"nX c #C29682",
"mX c #C19F95",
"MX c #D1A087",
"NX c #DFA987",
"BX c #D3A38B",
"VX c #DAA787",
"CX c #D5AE98",
"ZX c #D7B69D",
"AX c #DBB098",
"SX c #DDB195",
"DX c #E9B493",
"FX c #C3ACAC",
"GX c #DEBBAF",
"HX c #C7B9B8",
"JX c #E7B9A7",
"KX c #EDC6B9",
"LX c #E3C8BA",
"PX c #D3C6CD",
"IX c #E6DCE0",
"UX c #EAE6ED",
/* pixels */
"  # 4 k x j 6 6 4 3 4 2 , + # @ 6 7 2 #                         ",
"    X @ , 2 @ = @ @ O O o       X & & & & > > - $ $ . .         ",
"  @ m $.N m b t e e w w w t s d E |  .1.3.2.1. .T G i * .       ",
"  h w.lXHXhX3X[.T.J.n.c.c.L._.'.;X1X5X5X4X+X[.U.v.:.X.L w       ",
"  N dXt.aXmXvXyXeXqX>X;X8X9X9XwX>X<X^.k.` o.1.1.<.] `  .K *     ",
"  %.UXkX7.3.U.,XrX<X;X;X'.=X0X_.N.+.` P @.T.3X$XOXR.<.o.>.g     ",
"  8 xXkXe.9.8.[.nX5X<X#X0X'.(.h.f.f.k.B.P.P.Z.v.B.B.<.{ { W $   ",
"    -.#.#.N ^ 8.6XBXyXqX-X'.).Q.N.M.l.{ G y > > p L L I / K %   ",
"    z %.jXq.< v >.bXJXuX0X;X`.K.g.{ I K =.r , o   @ u J [ U %   ",
"    ;.zXPXgX< . r 9.KXMXqXwX8X!.O.U F  XFXN o 9 c u J ] v.~ $   ",
"    0.IXhX|.W ( / 4.GXAXtXpXtX>XU.] [ P.}.3.| ,.4.<.@.b.N.J .   ",
"    M fXaX9.Z.].].R.GXZXVXNXVXiX<X^.Y.m.N.~._.+XE.Z.4.<.T - .   ",
"    @ a 5 u J ~ ,.{.LXZXVXDXCXMXvX4X+X/./.E.v. .T s r - X . o o ",
"    : h ;     . X B r.6XvX2X5...| ^ Y D t - $ .     + X o @ +   ",
"    @ k a @     # 7 1 b Y t                   @ 1 4 8 2 O O o   ",
"    O j k 2     6 z 1           @ @     # ; 6 8 8 6 @ +         ",
"    # 7 8 @     9 l 6       o . + o # o = = 2 2 2 O             ",
"C y.d.A.A.A.A.S.S.S.D.D.D.D.F.F..XXXXXXXoXoXoX&X&X&X&X*XrXcXcXcX",
"C i.d.d.A.A.A.S.S.S.D.D.D.D.F.F.F.XXXXXXXXoXoX&X&X&X&X*X*X*XcXcX",
"C y.d.d.d.A.A.A.A.S.S.D.D.D.D.F.F.F.XXXXXXoXXXoXoX&X&X*X*X*X*XcX",
"C y.s.d.d.d.d.A.A.S.S.S.S.D.D.D.F.F..X.XXXXXXXoXoX&X&X&X&X*X*X*X",
"C _ s.d.d.d.d.A.A.A.A.S.S.S.D.D.D.D.F..X.XXXXXXXoXoXoXoX&X&X*X*X",
"V _ s.s.d.d.d.A.d.A.A.A.S.S.S.D.D.D.F.F.F.XXXXXXXXoXoX&XoX&X&X*X",
"V _ s.s.s.d.d.d.d.A.A.A.A.S.S.S.D.D.D.F.F.F..XXXXXXXoXoXoX&X&X&X",
"V ) s.s.s.s.d.d.d.d.d.A.A.S.S.S.S.D.D.D.F.F.F./.XXXXXXoXoXoX&X&X",
"V ) u.u.s.s.s.d.d.d.A.d.A.A.A.S.S.S.D.D.D.F.F.F..XXXXXoXoXoXoXoX",
"V ) u.u.s.s.s.s.d.d.d.d.d.A.A.S.S.S.S.D.D.D.F.F.F..XXXXXXXoXoX&X",
"V ) u.u.u.u.s.s.s.d.d.d.d.A.A.A.A.S.S.S.D.D.D.F.F..X.XXXXXXXoXoX",
"V S u.u.u.u.s.s.s.s.d.d.d.A.d.A.A.S.S.S.S.D.D.D.F.F..X.XXXXXoXoX",
"q S u.u.u.u.u.u.s.s.s.d.d.d.d.A.A.A.A.S.S.S.D.D.D.F.F.F..XXXXXXX",
"q A S S S ) _ ) y.) y.y.y.y.y.i.i.s.p.p.a.a.j.j.j.j.z.z.z.x..XXX",
"0 q V V V V C V V V V C C C C C F Z Z Z F F H H H H H I H I { G."
};
