/* XPM */
static char *NinjaMesh_MirrorZ[] = {
/* columns rows colors chars-per-pixel */
"75 24 185 2",
"   c black",
".  c gray1",
"X  c gray2",
"o  c #070707",
"O  c gray3",
"+  c #090909",
"@  c gray4",
"#  c #0B0B0B",
"$  c #0C0C0C",
"%  c gray5",
"&  c #0E0E0E",
"*  c gray6",
"=  c #101010",
"-  c #111111",
";  c gray7",
":  c #131313",
">  c gray8",
",  c #151515",
"<  c #161616",
"1  c gray9",
"2  c #181818",
"3  c #191919",
"4  c gray10",
"5  c #2C2C2C",
"6  c #2D2D2D",
"7  c gray18",
"8  c #2F2F2F",
"9  c gray19",
"0  c #313131",
"q  c #323232",
"w  c gray20",
"e  c #343434",
"r  c #353535",
"t  c gray21",
"y  c #373737",
"u  c gray22",
"i  c #393939",
"p  c #3A3A3A",
"a  c gray23",
"s  c #3C3C3C",
"d  c gray24",
"f  c #3E3E3E",
"g  c #3F3F3F",
"h  c gray25",
"j  c #414141",
"k  c gray26",
"l  c #434343",
"z  c #444444",
"x  c gray27",
"c  c #464646",
"v  c gray28",
"b  c #484848",
"n  c #494949",
"m  c gray29",
"M  c #4B4B4B",
"N  c #4C4C4C",
"B  c gray30",
"V  c #4E4E4E",
"C  c gray31",
"Z  c #505050",
"A  c #515151",
"S  c gray32",
"D  c #535353",
"F  c gray33",
"G  c #555555",
"H  c #565656",
"J  c gray34",
"K  c #525759",
"L  c #585858",
"P  c gray35",
"I  c #5A5A5A",
"U  c #5B5B5B",
"Y  c gray36",
"T  c #5D5D5D",
"R  c gray37",
"E  c #5F5F5F",
"W  c #5A5F60",
"Q  c #606060",
"!  c gray38",
"~  c #626262",
"^  c gray39",
"/  c #646464",
"(  c #656565",
")  c gray40",
"_  c #676767",
"`  c #686868",
"'  c DimGray",
"]  c #6A6A6A",
"[  c gray42",
"{  c #6C6C6C",
"}  c #6D6D6D",
"|  c gray43",
" . c #6F6F6F",
".. c gray44",
"X. c #717171",
"o. c #727272",
"O. c gray45",
"+. c #777777",
"@. c gray47",
"#. c red",
"$. c #3232FF",
"%. c #03B0DA",
"&. c #05B1DA",
"*. c #03B2DD",
"=. c #03B3DE",
"-. c #04B3DE",
";. c #06B4DE",
":. c #0BB5DF",
">. c #0EB6DF",
",. c #10B7E0",
"<. c #12B7E0",
"1. c #13B8E0",
"2. c #16B9E0",
"3. c #1DBBE1",
"4. c #21BCE1",
"5. c #21BCE2",
"6. c #26BDE3",
"7. c #29BEE3",
"8. c #2BBFE3",
"9. c #2EC0E4",
"0. c #2FC0E4",
"q. c #30C1E4",
"w. c #31C1E4",
"e. c #32C1E4",
"r. c #36C2E5",
"t. c #3AC4E5",
"y. c #3BC4E5",
"u. c #3FC5E6",
"i. c #42C6E6",
"p. c #47C8E7",
"a. c #49C8E7",
"s. c #4AC8E7",
"d. c #4BC9E7",
"f. c #4DC9E8",
"g. c #4ECAE8",
"h. c #4FCAE8",
"j. c #51C6E2",
"k. c #51CBE8",
"l. c #53CBE8",
"z. c #54CBE9",
"x. c #55CCE9",
"c. c #57CCE9",
"v. c #5ACDE9",
"b. c #5BCEEA",
"n. c #5DCEEA",
"m. c #63D0EB",
"M. c #6CD3EC",
"N. c #6DD3EC",
"B. c #6FD3EC",
"V. c #74D5ED",
"C. c #78D6ED",
"Z. c #7DD8EE",
"A. c #838383",
"S. c #8B8B8B",
"D. c #909090",
"F. c #939393",
"G. c #959595",
"H. c gray59",
"J. c #979797",
"K. c #989898",
"L. c gray60",
"P. c #9A9A9A",
"I. c #9B9B9B",
"U. c gray61",
"Y. c #9D9D9D",
"T. c gray62",
"R. c #9F9F9F",
"E. c #A0A0A0",
"W. c gray63",
"Q. c #A2A2A2",
"!. c gray64",
"~. c #A4A4A4",
"^. c #A5A5A5",
"/. c gray65",
"(. c #A7A7A7",
"). c gray66",
"_. c #A9A9A9",
"`. c #AAAAAA",
"'. c gray67",
"]. c #ACACAC",
"[. c gray68",
"{. c #AEAEAE",
"}. c gray69",
"|. c #B4B4B4",
" X c #80D9EE",
/* pixels */
": A.J.F.J.J.J.J.L.L.L.Y.Y.Y.Y.E.E.E.E.E.E.~.~.~.~.~.(.(.(.(._._._._._.'.].].].].].].].}.].}.].}.].}.].}.].}.].}.].}.].}.].}.].}.].}.].}.].].].].].}.|.",
"& @._ ~ _ _ _ ` ` | | ` ` | ` | | | | | | | | | ..| | | ................X...X.X.X.X.X.X.X.X.X.X.X.X.X.X.X.X.X.X.X.X.X.X.X.X.X.X.X.X.X.X.....| { | +._.",
": X.U F U F U T T T T T T T ~ T T T T Q T T T T W T T Q T T T T T T T T T T T T T T T T T T T T T T T ~ T T T T T T T T T T T T T T T T Y U L U L T ~.",
"& X.U D F F U T T ~ ~ ~ ~ #.T ~ Q Q Q W Q Q ~ Q ~ T ;.Q ~ W ~ ! ;.Q ~ =.~ Q Q ~ ~ ~ ~ T ~ ~ ~ T ~ ~ T ~ Q ~ ~ W ~ Q ~ Q ~ Q ~ ~ Q Q ~ Q T Y U F L _ ~.",
": | F D F U U T T Q ~ p.~ #.~ 8.~ ~ ! ! ! ! ! ! ~ . =.=.W ~ T =.;.W . ! ~ ~ Q ~ ~ T ~ ~ ~ ~ ~ T ~ ~ ~ ~ ~ ~ ! ! Q ~ Q ~ ~ Q ~ Q ~ Q ~ T T U U F F ~ ~.",
"& | F D F F T T ~ ~ i.l.~ #.3 4.p.^ ~ ~ ! ^ ! ^ Q . =.=.~ ~ . %.=.~ ! =.~ ~ =.~ =.~ =.~ =.~ ~ =.=.=.~ ~ ~ =.~ =.~ ~ ~ ~ ~ ~ ~ ~ ~ ~ ~ Q T Y U U F ~ ~.",
": ` F C F F T ~ ~ 8.s.b.~ #.3 &.r.m.! ^ ^ ! ^ ! ~ . %.! ;.~ =.. =.~ . %.Q . =.=.~ . =.=.~ ~ =.. . ~ =.~ . =.=.! ~ ~ ~ ~ ~ ~ ~ ~ ~ ~ ~ ~ Q Y U F F ~ ~.",
"& ` D D F U U T <.8.g.b.~ #.3 &.2.z.V.! ! ! ! ! Q . =.. =.. =.. =.~ . =.Q . =.Q T . =.~ T . =.~ T . =.T . %.! ! Q ~ Q ~ Q ~ Q ~ Q ~ Q ~ T Y U F F T ~.",
"& _ C C D F L =.<.q.g.z.Q #.3 &.=.r.M. XQ Q ! ! T . %.. =.. %.. =.Q . =.T . =.T ~ . =.T T . =.! T . ;.W . =.Q Q Q Q ~ Q Q Q Q $.$.$.$.$.$.$.$.F D Y ~.",
"& / C M C D =.=.>.q.g.z.T #.3 %.=.<.l.V.Z.T Y Y T . =.. =.. =.. =.Y . =.U . =.U T . =.T U . =.U T . =.T . =.T T T T T T T T , $.$.$.$.$.$.$.$.D C U ~.",
"$ ^ N n N =.=.=.;.8.g.z.U #.3 %.=.=.w.n.M.V.Y U U . =.. J =.U . =.U . %.U . =.U U . =.U U . %.U U . =.U . %.U U $.$.U U U Y 1 1 , , 3 , $.$.D C C F ~.",
"$ ~ b c =.=.=.=.;.6.p.l.F #.1 %.=.=.<.t.f.z.j.F D . =.F . =.F . =.F . =.F . =.F D . =.F F . F =.=.=.F F . =.F , $.$.F F F F J F U F F $.$.D C n n F E.",
"$ T c : : =.=.=.=.1.u.l.D #., %.=.=.=.3.8.8.K D D . D D . D D . D D . D D . D D D . D D D D . . . D D D . D D : $.$.D D F D D D D D $.$.$.C C n n D Y.",
"$ Y x g = : =.=.=.=.9.p.D #., %.=.=.=.:.<.C D C C C C C C C C C C C D C C C D C C C C C D C C D C C C C C $.$.$.$.$.$.$.$.D C C C , $.$.C n n c l D Y.",
"$ T j f j : : =.=.=.1.t.N #.> %.=.=.=.;.n C n C C n n C N N N N M N N N n N N N n n C C n C n n N N N N : $.$.$.$.$.$.$.$.N C n n $.$.C n c c j j C Y.",
"$ T g s f g = : =.=.=.4.b #.: %.=.=.=.b b c n n c n n c b b b b b b b b n b b b n n c n n c n n b b b b : = : : $.$.: : b b b n $.$.$.c c l j g f n Y.",
"$ T s y p f f = : =.=.=.j #.: %.=.=.j x j x j x j l l l l l j x j c j j j c j j c j z j j c j j j z j c j z j : $.$.j j c j z : $.$.j c j f p f p n L.",
"$ Y p e t u a s = = =.=.f #.: =.=.s f f f f f f f f f f f f f f f f f f f f f f f f f f f f f f f f f f f f f : $.$.f f f f f $.$.f f f f p p p t j J.",
"$ Y u 9 q e t y u & & =.p #.* =.u p p p p p p u p p p p p p p p p p p p p p p p p p p p p p p p p p p p p p p & & p p p p t $.$.$.$.$.$.$.$.$.q q j F.",
"# U t 7 7 7 q q w q & e q #.& q q w q q q w w q w q q e q w q q q q q t q q q q q q q e q q e q q q q q q e q q q q q q q & $.$.$.$.$.$.$.$.$.7 q j S.",
"$ L t 5 5 5 7 7 8 8 8 9 9 9 8 8 9 9 8 7 7 9 9 8 9 8 8 9 8 8 8 9 7 7 q 7 q 7 7 q 7 9 7 9 7 7 7 7 7 7 7 9 7 9 7 9 7 9 7 7 7 # & + + & # # & + 7 5 5 t S.",
"& _ x f j j j g j j j j j j j j j j j j j j j j j j j j j l l j c j c j j c c j c j j c c c c c c c c c c c b c b c b b n n n n n n n n n n c n n F J.",
"o b J D D D D D D D D D D D D D D D D D D D D D D D D D D D D D D D D D F F F F F U L F F U U U U Y U T T T T T T ~ Q Q ~ ~ ~ ~ ~ _ _ _ _ _ _ _ ` | | ",
". X o o o o o o + o o o o o o o o o + o o o + o o o o + o o o + + + o + + + + + + + + + + + + + + + + + + $ + & $ + & + & + & & & + & + & & & & & + & "
};
