/* XPM */
static char *NinjaUV_MoveArrowDown[] = {
/* columns rows colors chars-per-pixel */
"75 24 132 2",
"   c black",
".  c #010101",
"X  c #020202",
"o  c #040404",
"O  c gray2",
"+  c #070707",
"@  c gray3",
"#  c #090909",
"$  c gray4",
"%  c #0B0B0B",
"&  c #0C0C0C",
"*  c gray5",
"=  c #0E0E0E",
"-  c gray6",
";  c #101010",
":  c #111111",
">  c gray7",
",  c gray9",
"<  c #181818",
"1  c #191919",
"2  c #2C2C2C",
"3  c #2D2D2D",
"4  c gray18",
"5  c #2F2F2F",
"6  c gray19",
"7  c #313131",
"8  c #323232",
"9  c gray20",
"0  c #343434",
"q  c #353535",
"w  c gray21",
"e  c #373737",
"r  c gray22",
"t  c #393939",
"y  c #3A3A3A",
"u  c gray23",
"i  c #3C3C3C",
"p  c gray24",
"a  c #3E3E3E",
"s  c #3F3F3F",
"d  c gray25",
"f  c #414141",
"g  c gray26",
"h  c #434343",
"j  c #444444",
"k  c gray27",
"l  c #464646",
"z  c gray28",
"x  c #484848",
"c  c #494949",
"v  c gray29",
"b  c #4B4B4B",
"n  c #4C4C4C",
"m  c gray30",
"M  c #4E4E4E",
"N  c gray31",
"B  c #505050",
"V  c #515151",
"C  c gray32",
"Z  c #535353",
"A  c gray33",
"S  c #555555",
"D  c #565656",
"F  c gray34",
"G  c #585858",
"H  c gray35",
"J  c #5A5A5A",
"K  c #5B5B5B",
"L  c gray36",
"P  c #5D5D5D",
"I  c gray37",
"U  c #5F5F5F",
"Y  c #606060",
"T  c gray38",
"R  c #626262",
"E  c gray39",
"W  c #646464",
"Q  c #656565",
"!  c gray40",
"~  c #676767",
"^  c #686868",
"/  c DimGray",
"(  c #6A6A6A",
")  c gray42",
"_  c #6C6C6C",
"`  c #6D6D6D",
"'  c gray43",
"]  c #6F6F6F",
"[  c gray44",
"{  c #717171",
"}  c #727272",
"|  c gray45",
" . c #767676",
".. c gray47",
"X. c #00C000",
"o. c #00CB00",
"O. c #00D500",
"+. c #00F400",
"@. c green",
"#. c #838383",
"$. c gray52",
"%. c #898989",
"&. c gray55",
"*. c gray56",
"=. c #929292",
"-. c gray58",
";. c #959595",
":. c gray59",
">. c #979797",
",. c #989898",
"<. c gray60",
"1. c #9A9A9A",
"2. c #9B9B9B",
"3. c gray61",
"4. c #9D9D9D",
"5. c gray62",
"6. c #9F9F9F",
"7. c #A0A0A0",
"8. c gray63",
"9. c #A2A2A2",
"0. c gray64",
"q. c #A4A4A4",
"w. c #A5A5A5",
"e. c gray65",
"r. c #A7A7A7",
"t. c gray66",
"y. c #A9A9A9",
"u. c #AAAAAA",
"i. c gray67",
"p. c #ACACAC",
"a. c gray69",
"s. c gray100",
/* pixels */
"> #.:.=.:.:.:.:.:.<.:.<.3.<.3.3.3.3.7.3.7.7.7.q.7.7.q.t.q.q.t.t.t.t.t.t.p.t.p.t.i.i.p.p.p.p.p.p.p.p.p.p.p.p.p.p.p.p.p.p.p.p.p.p.p.p.p.p.p.p.t.p.p.p.a.",
"= ..~ R ~ ~ ~ ( ( ( ] ( ] ( ] ] ] ] ] ] ] ] ] ] { ] ] ] ] { { ] ] { { { { { { { { { { { { { { { { { { { { { { { { { { { { { { { { { { { ] ] ] ] ]  .t.",
"> { K A K A K P P P P P P P P P P P P P P P R P P P P P P P P P P P P P X.O.X.P P P P P P P P P P P P Y P P P P Y P P P P P P Y P P P P P K K A K P 7.",
"> { K Z A A K P R P R R R R P R R P R R R P P R R P R R R P R R R P R o.+.@.+.o.Y Y R Y R Y R Y R Y Y Y Y Y Y Y Y Y R Y R Y Y Y R P R R P K A K A R 7.",
"= ] A Z A K K P R P R R R R P R R R R P P R R R R R R R R P P R R R X.+.@.@.@.+.X.Y R Y R Y R Y R R Y R Y R Y R R Y R Y R R Y R R R R P P K K K A R 7.",
"= ] Z Z A A P P R R R R R R R R R R R R R R R R R R R R R R R R R 1 O.@.@.@.@.@.O.R R R R R R R R R R R R R R R R R R R R R R R R R R P P K K A A R 7.",
"= ( A Z A A P R P R R R R R R R R R R R R R R R R R R R R R R R R < X.+.@.@.@.+.X.R R R R R R R R R R R R R R R R R R R R R R R R R R R P P K A A P 7.",
"= ( Z N A K K P R R R R P R R R R P R R R R R R R R P R R R R R R < 1 o.+.@.+.o.R Y R Y R Y R R Y R Y R Y R Y R R Y R Y R Y R Y R P R R P P K K A P 7.",
"= ~ Z N Z A K P P P R P R R P R P R P R R P R P R P R P P R R P P R < < X.O.X.R P R P R P R Y Y Y Y Y Y Y Y Y Y Y Y R Y Y Y Y Y R P R P P K A A Z K 3.",
"= R N v Z A A P P P P P P P P P P K P P P P P P P P P P P P P P P P P , , 1 P P P P P P P K P P P P P P P P P P P L P P P P P P P P P P K A A Z N K 7.",
"$ R v v v Z Z A K K K P K P K K K K K K K P K P K K K K K K K K K K K K K A K K K P K K K K K K K K K K K K L K K L K L K L K K K K K K A A Z N N A 3.",
"$ R z z v v N Z A A A A A A A A K A A A A A A A A A A K A A A A A A A s.s.s.s.s.A A A A K A A A A A G A A A A A A A A A A A A A A A A A A Z N v v A <.",
"= P z g z v N N Z Z Z Z A Z Z Z Z Z Z Z Z Z Z Z A Z Z Z Z Z Z Z A A . s.. . . s.A Z Z Z Z Z Z Z A A Z Z Z Z Z Z Z Z Z Z A Z Z Z Z Z Z Z N N v z z N <.",
"$ P z g g v v N N N N N Z N N N Z N N N N N Z N Z N Z N N N N Z B B . s.. . . s.N Z B B B B B B B B B B B B B B B B B B Z B B B N N N N N v v z z N <.",
"= P g p g g z z v N v N N v N v N v N v v N N v N v v v v N N v n n . s.. . . s.v N v n n n n n n n n n n n n n n n n n n n n n v N v v v z z g g v :.",
"$ P p y p g g z z z v z z z v z z z z v z z z z z v z v v z z v x s.s.s.. . . s.s.s.x x x x x x x x x x x x x x x x x x x x x x v z v z z g g g p v :.",
"$ P y e y p p g g z g g z g g g z g g g z g g z g z g g z g g g . s.$ . . . . $ . s.g j g z g j g z g g j j g z g g j j g z g g z g g g g p p p y z =.",
"$ P y e e e y p p p p p p p p p p p p p p p p p p p p p p p p p . . s.. . . . . s.p p p p p p p p p p p p p p p p p p p p p p p p p p p p p y y e g *.",
"$ K e 6 6 e e e y y e y y y e y y y e y y y y y y y y e y y e y y . . s.. . . s.y y y y y y y y y y y y y y y y y y y r y y y y y y y y e e e 6 6 g *.",
"= K e 3 3 6 6 6 6 e 6 e 6 e 6 e 6 e 6 e 6 e 6 6 6 e 6 e 6 e 6 e 6 6 . . s.. s.e 9 6 9 9 9 6 9 9 6 9 9 9 9 9 6 9 9 9 6 e 6 9 9 9 6 e 6 6 6 6 3 6 3 p $.",
"= A e 3 3 2 3 3 3 3 6 3 6 3 6 3 6 3 6 3 3 6 6 3 3 6 3 6 3 3 6 3 6 3 6 . . s.3 3 6 3 6 3 3 3 6 3 6 6 3 3 6 3 3 6 6 3 6 3 6 3 6 3 3 3 6 3 3 3 2 2 3 e #.",
"$ ~ z p g g g g g g g g g g g g g g g g g g g g g g g g g g z g z g g g . j z g z g j z z j z j j z z z z z x x x z x x v x x v v v v v v z v v v A =.",
"$ z A Z Z Z Z Z Z Z Z Z Z Z Z Z Z Z Z Z Z Z Z Z Z Z Z Z Z Z Z Z Z A A A A A A A A A A K A K K K K K K K L P P P P Y Y Y Y R R E R R ~ ~ ~ ~ ~ ~ ( ( ] ",
". O $ O O $ O O $ O O $ $ O O $ $ O O $ O $ O $ O $ O $ O $ O $ $ O $ $ @ $ $ $ $ $ @ $ @ $ $ $ $ $ $ $ $ % % % % % % = % = % = = = $ = $ = = = = $ = "
};
