/* XPM */
static char *NinjaUV_SnapBotR[] = {
/* columns rows colors chars-per-pixel */
"84 24 109 2",
"   c gray8",
".  c #161615",
"X  c #161616",
"o  c gray9",
"O  c #191917",
"+  c #191918",
"@  c gray10",
"#  c #1B1B1B",
"$  c #1C1C1A",
"%  c #1C1C1B",
"&  c #1D1D1D",
"*  c #1E1E1E",
"=  c #20201F",
"-  c #212120",
";  c #272724",
":  c #262625",
">  c gray16",
",  c gray18",
"<  c #2F2F2E",
"1  c #2F2F2F",
"2  c #31312C",
"3  c #30302F",
"4  c #33332E",
"5  c #34342E",
"6  c #34342F",
"7  c #323231",
"8  c #323232",
"9  c #353535",
"0  c gray21",
"q  c #373736",
"w  c #373737",
"e  c #383833",
"r  c #3A3A34",
"t  c #383836",
"y  c #3B3B37",
"u  c #3C3C36",
"i  c #3F3F37",
"p  c gray22",
"a  c #393938",
"s  c #393939",
"d  c gray23",
"f  c #3F3F38",
"g  c #3F3F3A",
"h  c #3C3C3C",
"j  c gray24",
"k  c #404039",
"l  c #40403E",
"z  c #43433E",
"x  c #46463E",
"c  c #47473E",
"v  c gray25",
"b  c #414140",
"n  c gray26",
"m  c #434343",
"M  c #474741",
"N  c #464642",
"B  c #444444",
"V  c gray27",
"C  c #464645",
"Z  c #484843",
"A  c #4A4A43",
"S  c #484847",
"D  c #4E4E44",
"F  c #494948",
"G  c #4D4D4B",
"H  c #4E4E4A",
"J  c #505047",
"K  c #535347",
"L  c #525248",
"P  c #525249",
"I  c #53534A",
"U  c #53534C",
"Y  c #55554C",
"T  c #54544F",
"R  c #58584F",
"E  c #545450",
"W  c #565651",
"Q  c #585853",
"!  c #5F5F52",
"~  c #5B5B55",
"^  c #5D5D57",
"/  c #5E5E56",
"(  c #606055",
")  c #626255",
"_  c #63635A",
"`  c #63635B",
"'  c #656559",
"]  c #67675A",
"[  c #64645C",
"{  c #66665D",
"}  c #68685F",
"|  c gray39",
" . c gray40",
".. c #676767",
"X. c #6A6A60",
"o. c #6C6C61",
"O. c #696968",
"+. c #6A6A69",
"@. c #717161",
"#. c #737363",
"$. c #717165",
"%. c #727266",
"&. c #7D7D6F",
"*. c #44FF00",
"=. c #818181",
"-. c gray51",
";. c #929292",
":. c #A4A4A4",
">. c gray100",
/* pixels */
"  | =.=.=.=.=.=.=.=.=.=.=.=.=.=.=.=.=.=.=.=.=.=.=.=.=.=.=.=.=.=.=.=.=.=.=.=.=.=.=.=.=.=.=.=.=.=.=.=.=.=.=.=.=.=.=.=.=.=.=.=.=.=.=.=.=.=.=.=.=.=.=.=.=.=.=.=.=.=.=.=.;.:.",
"# ,  . . . . . . . . . . . . . . . . . . . . . . . . . . . . . . . . . . . . . . . . . . . . . . . . . . . . . . . . . . . . . ..... . . . . . . . . . ....... . . .=.;.",
"* w B B B B B B B B B B B B B B B B B B B B B B B B B B B B B B B B B B B B B B B B B B B B B B B B B B B B B B B B B B B B B B B B B B B B B B B B B B B B B B m B ..=.",
"* w B B B B B B B B B B B B B B B B B B B B B B B B B B B B B B B B B B B B B B B B B B B B B B B B B B B B B B B B B B B B B B B B B B B B B B B B B B B B B B B B  .=.",
"* w B B B B B B B B B B B B B B B B B B B B B B B B B B B B B B B B B B B B B B B B B B B B B B B B B B B B B B B B B B B B B B B B B B B B B B B B B B B B B B B B  .=.",
"* w B B B B B B B B B B B B B B B B B B B B B B B B B B B B B B B B B B B B B B B B B B B B B B B B B B B B B B B B B B B B B B B B B B B B B B B B B B B B B B B m  .=.",
"* w B B B B B B B B B B B B B B B B B B B B B B B B B B B B B B B B B B B B B B B B B B B B B B B B B B B B B B B B B B B B B B B B B F F F B B B B B B B B F F F B ..=.",
"* w B B B B B B B B B B B B B B B B B B B B B B B B B B B B B B B B B B B B B B B B B B B B B B B B B B B B B B B B B B B B B B B B G E / ^ E E E E E E E Q Q / E G ..=.",
"* w B B B B B B B B B B B B B B B B B B B B B B B B B B B B B B B B B B B B B B B B B B B B B B B B B B B B B B B B B B B B B B m B E [ *.$.o.] [ [ [ ` ` X.$.*.X.E O.-.",
"* w B B B B B B B B B B B B B B B B B B B B B B B B B B B B B B B B B B B B B B B B B B B B B B B B B B B B B B B B B B B B B m j m Y *.*.*.>.>.>.>.>.>.>.>.*.*.*./ O.=.",
"* w B B B B B B B B B B B B B B B B B B B B B B B B B B B B B B B B B B B B B B B B B B B B B B B B B B B B B B B B B B B B B m j w Z ( *.#.] R R R R Y L ! #.*.%.Q O.-.",
"* w B B B B B B B B B B B B B B B B B B B B B B B B B B B B B B B B B B B B B B B B B B B B B B B B B B B B B B B B B B B m m m r 2 e I >.! J h k h j r e x ! >.X.Q ..=.",
"* w B B B B B B B B B B B B B B B B B B B B B B B B B B B B B B B B B B B B B B B B B B B B B B B B B B B B B B B B B B B B B m p 2 r D >.Y N w w w e , > e L >.[ E  .=.",
"* w B B B B B B B B B B B B B B B B B B B B B B B B B B B B B B B B B B B B B B B B B B B B B B B B B B B B B B B B B B B B m m p 7 p I >.^ H j h j d w < y Y >.` E  .=.",
"* w B B B B B B B B B B B B B B B B B B B B B B B B B B B B B B B B B B B B B B B B B B B B B B B B B B B B B B B B B B B B B B j w h R >.[ E B B B m j 8 g R >.[ E ..=.",
"* w B B B B B B B B B B B B B B B B B B B B B B B B B B B B B B B B B B B B B B B B B B B B B B B B B B B B B B B B B B B B B B h w k R >.[ E B B B B j w i R >.[ E  .=.",
"* w B B B B B B B B B B B B B B B B B B B B B B B B B B B B B B B B B B B B B B B B B B B B B B B B B B B B B B B B B B B B B B j w h R >.] E B B B B j w h R >.[ E  .=.",
"* w B B B B B B B B B B B B B B B B B B B B B B B B B B B B B B B B B B B B B B B B B B B B B B B B B B B B B B B B B B B B B B d w h R >.` E B B B B j e h R >.[ E  .=.",
"* w B B B B B B B B B B B B B B B B B B B B B B B B B B B B B B B B B B B B B B B B B B B B B B B B B B B B B B B B B B B B B B j r l ^ >.$.` E E E E H N J ] >.o.Q  .=.",
"* w B B B B B B B B B B B B B B B B B B B B B B B B B B B B B B B B B B B B B B B B B B B B B B B B B B B B B B B B B B B B B B j r Z ] *.&.$.[ ` ` ] ^ R ! #.*.$.^ O.=.",
"* w B B B B B B B B B B B B B B B B B B B B B B B B B B B B B B B B B B B B B B B B B B B B B B B B B B B B B B B B m m B B B m d r N *.*.*.>.>.>.>.>.>.>.>.*.*.*./ +.=.",
"* w B B B B B B B B B B B B B B B B B B B B B B B B B B B B B B B B B B B B B B B B B B B B B B B B B B B B B B B B B m B B m m p 7 r L *.] ( Y R R Q L D K ) *.[ E O.=.",
"# , w w w w w w w w w w w w w w w w w w w w w w w w w w w w w w w w w w w w w w w w w w w w w w w w w w w w w w w w w w w w w w , ; ; 2 i k r e e e e e 2 5 k Z Z l 7  .",
"  # * * * * * * * * * * * * * * * * * * * * * * * * * * * * * * * * * * * * * * * * * * * * * * * * * * * * * * * * * * * * * * # O   # $ $ # O   #         $ = = * #   "
};
