/* XPM */
static char *NinjaUV_MoveArrowLeft[] = {
/* columns rows colors chars-per-pixel */
"75 24 133 2",
"   c black",
".  c #010101",
"X  c #020202",
"o  c #040404",
"O  c gray2",
"+  c #070707",
"@  c gray3",
"#  c #090909",
"$  c gray4",
"%  c #0B0B0B",
"&  c #0C0C0C",
"*  c gray5",
"=  c #0E0E0E",
"-  c gray6",
";  c #101010",
":  c #111111",
">  c gray7",
",  c #131313",
"<  c gray8",
"1  c #151515",
"2  c #161616",
"3  c #2C2C2C",
"4  c #2D2D2D",
"5  c gray18",
"6  c #2F2F2F",
"7  c gray19",
"8  c #313131",
"9  c #323232",
"0  c gray20",
"q  c #343434",
"w  c #353535",
"e  c gray21",
"r  c #373737",
"t  c gray22",
"y  c #393939",
"u  c #3A3A3A",
"i  c gray23",
"p  c #3C3C3C",
"a  c gray24",
"s  c #3E3E3E",
"d  c #3F3F3F",
"f  c gray25",
"g  c #414141",
"h  c gray26",
"j  c #434343",
"k  c #444444",
"l  c gray27",
"z  c #464646",
"x  c gray28",
"c  c #484848",
"v  c #494949",
"b  c gray29",
"n  c #4B4B4B",
"m  c #4C4C4C",
"M  c gray30",
"N  c #4E4E4E",
"B  c gray31",
"V  c #505050",
"C  c #515151",
"Z  c gray32",
"A  c #535353",
"S  c gray33",
"D  c #555555",
"F  c #565656",
"G  c gray34",
"H  c #585858",
"J  c gray35",
"K  c #5A5A5A",
"L  c #5B5B5B",
"P  c gray36",
"I  c #5D5D5D",
"U  c gray37",
"Y  c #5F5F5F",
"T  c #606060",
"R  c gray38",
"E  c #626262",
"W  c gray39",
"Q  c #646464",
"!  c #656565",
"~  c gray40",
"^  c #676767",
"/  c #686868",
"(  c DimGray",
")  c #6A6A6A",
"_  c gray42",
"`  c #6C6C6C",
"'  c #6D6D6D",
"]  c gray43",
"[  c #6F6F6F",
"{  c gray44",
"}  c #717171",
"|  c #727272",
" . c gray45",
".. c #767676",
"X. c gray47",
"o. c #00C000",
"O. c #00CB00",
"+. c #00D500",
"@. c #00F400",
"#. c green",
"$. c #838383",
"%. c gray52",
"&. c #898989",
"*. c gray55",
"=. c gray56",
"-. c #929292",
";. c gray58",
":. c #959595",
">. c gray59",
",. c #979797",
"<. c #989898",
"1. c gray60",
"2. c #9A9A9A",
"3. c #9B9B9B",
"4. c gray61",
"5. c #9D9D9D",
"6. c gray62",
"7. c #9F9F9F",
"8. c #A0A0A0",
"9. c gray63",
"0. c #A2A2A2",
"q. c gray64",
"w. c #A4A4A4",
"e. c #A5A5A5",
"r. c gray65",
"t. c #A7A7A7",
"y. c gray66",
"u. c #A9A9A9",
"i. c #AAAAAA",
"p. c gray67",
"a. c #ACACAC",
"s. c gray69",
"d. c gray100",
/* pixels */
"> $.>.-.>.>.>.>.>.1.>.1.4.1.4.4.4.4.4.4.0.0.0.0.0.0.w.w.w.w.i.i.w.i.i.i.i.i.i.i.p.p.a.a.a.a.a.a.a.a.a.a.a.a.a.a.a.a.a.a.a.a.a.a.a.a.a.p.a.a.p.i.p.s.s.",
"= X.^ E ^ ^ ^ ) ) ) [ ) [ ) [ [ [ [ [ [ [ [ [ [ [ [ [ [ [ } } [ [ [ } } [ } } } } } } } } } } } } } } } } } } } } } } } } } } } } } } } [ [ [ ` [ ..w.",
"> } L S L S L I I I I I I I I I I I I I I I I I I I I I I I I I I I I I I I I I I I I I I I I I I I I T I I T I T I I I I I I T I I I I P L H L H P 0.",
"> } L A S S L I E I E E E E I E E E E I I E E E E I E E I E E I E E E I E E I E T T E T E T E T E T T T T T T I T T E T E T T T T T E T I P L S S E 0.",
"= [ S A S L L I E I E E E E I E E I E E E E I E E E I E E E E E I E E E E E E I E T E T T E T E E E T E T E T E E T E T E E T E E T E I I L L S H T 7.",
"= [ A A S S I I E E E E E E E E E E E E E E E E E E E E E E E E E E E E E E E E E E E E E E E E E E E E E E E E E E E E E E E E E E E T T P L H S T 0.",
"= ) S A S S I E I E E E E E E E E E E E E E E E E E E E E E E E E E E E E E E E E E E E E E E E E E E E E E E E E E E E E E E E E E E E I I L H S T 7.",
"= ) A B S L L I E E E E I E E E E E E I E E E E E E d.d.E I E E E E E I E E E E T E T E T E T E T E T E T E T E E T E T E T E T T E T E I P L S S I 7.",
"= ^ A B A S L I I I E I E E I E E I E E I E I E E d.. d.I E E I I E E I o.+.o.T T T T T T T T T T T T T T T T T I E E T T T T T T T T I I L S S A L 4.",
"= E B b A S S I I I I I I I I I I I I I I I I I d.. $ d.d.d.d.d.I I I O.@.#.@.O.I I I I I I I I I I I I I I I I I I I I I I I I I P I P P S S A B L 7.",
"$ E b b b A A S L L L I L I L L L L L L L L L d.. . . . . . . d.L L o.@.#.#.#.@.o.P L L L L L L L L P L L L P L L P L P L P L L L L L H H A A B m S 4.",
"$ E x x b b B A S S S S S S S S S S S S S S d.. . . . . . . . d.S 2 +.#.#.#.#.#.+.S S S H S S S S S S H S S S S S S S S S S S S H S S S A A B b b S 4.",
"= I x h x b B B A A A A S A A A A A A A A . . d.. . . . . . . d.A 2 o.@.#.#.#.@.o.S S A A A A A S S A A A A A A A A A A S A A A A A A A V B m c c A 1.",
"$ I x h h b b B B B B B A B B B B B B A B B . . d.. . d.d.d.d.d.B 2 2 O.@.#.@.O.V V V V V V V V V V V V V V V V V V V V A B V V V V V B m b b x k V 1.",
"= I h a h h x x b B b B B b B b b B B b B b b . . d.$ d.. . . b b B > > o.+.o.m m m m m m m m m m m m m m m m m m m m m m m m m m m m b b x x h f m >.",
"$ I a u a h h x x x b x x x b x b x x x b x b x . . d.d.x x b b b x x > > > c c c c c c c c c c c c c c c c c c c c c c c c c c c c c x x k h f a b ;.",
"$ I u r u a a h h x h h x h h h x h h h x h h x h . . x h h h h k k h k k k h k k k h k k k h k h k k k k h k k k h k k k k k h k k h k h a a p u x -.",
"$ I u r r r u a a a a a a a a a a a a a a a a a a a a a a a h a a a a a a a a a a a a a a a a a a a a a a a a a a a a a a a a a a a a a p p u u r h =.",
"$ L r 7 7 r r r u u r u u u r u u u r u u u u u u u u r u u u u u u u t u u u u u u u t u u u t u u u u u u t u u u t u u u u u u t u t t t q 7 7 f *.",
"= L r 4 4 7 7 7 7 r 7 r 7 r 7 r 7 r 7 r 7 r 7 7 7 r 7 r 7 r 7 7 q 7 q q q 7 q 7 q 7 q q q 7 q q 7 q q 7 q q 7 q q q 7 q 7 q 7 q q q 7 q 7 7 7 7 7 a &.",
"= S r 4 4 3 4 4 4 4 7 4 7 4 7 4 7 4 7 4 4 7 7 4 4 7 4 7 4 4 7 4 7 7 4 7 7 4 7 7 7 7 4 7 4 4 7 4 7 7 4 4 7 4 4 7 7 4 4 7 7 4 7 7 4 7 7 4 4 4 4 3 3 r $.",
"$ ^ x a h h h h h h h h h h h h h h h h h h h h h h h h h h x h k h h k h k k k k k k k x k x k k x x x x x c c c c c c b c c c b b b c b c b c c S -.",
"$ x S A A A A A A A A A A A A A A A A A A A A A A A A A A A A A S S S S S S S S H S H S S L L L L L L L P I I I I T T T E E E W E W W ^ ^ ^ ^ ^ / ` [ ",
". O $ O O $ O O $ O O $ $ O O $ $ O O $ O $ O $ O $ O $ O $ O $ @ @ @ @ @ @ $ $ $ $ $ $ @ $ $ $ $ $ $ $ $ % % % % % % = % % % = = % = = % = = = = $ = "
};
