/* XPM */
static char *Ninja_City_Icon[] = {
/* columns rows colors chars-per-pixel */
"32 32 164 2",
"   c gray3",
".  c gray4",
"X  c #0B0B0B",
"o  c #0C0C0C",
"O  c gray5",
"+  c #0E0E0E",
"@  c gray6",
"#  c #101010",
"$  c #111111",
"%  c gray7",
"&  c #131313",
"*  c gray8",
"=  c #161616",
"-  c gray9",
";  c #181818",
":  c #191919",
">  c gray10",
",  c #1B1B1B",
"<  c gray11",
"1  c #1D1D1D",
"2  c #1E1E1E",
"3  c gray12",
"4  c #202020",
"5  c gray13",
"6  c #222222",
"7  c #232323",
"8  c gray14",
"9  c #252525",
"0  c gray15",
"q  c #272727",
"w  c #282828",
"e  c gray16",
"r  c #2A2A2A",
"t  c gray17",
"y  c #2C2C2C",
"u  c #2D2D2D",
"i  c gray18",
"p  c #2F2F2F",
"a  c gray19",
"s  c #313131",
"d  c #323232",
"f  c gray20",
"g  c #343434",
"h  c #353535",
"j  c gray21",
"k  c #373737",
"l  c gray22",
"z  c #393939",
"x  c #3A3A3A",
"c  c gray23",
"v  c #3C3C3C",
"b  c gray24",
"n  c #3E3E3E",
"m  c #3F3F3F",
"M  c gray25",
"N  c #414141",
"B  c gray26",
"V  c #434343",
"C  c #444444",
"Z  c gray27",
"A  c #464646",
"S  c gray28",
"D  c #484848",
"F  c #494949",
"G  c gray29",
"H  c #4B4B4B",
"J  c #4C4C4C",
"K  c gray30",
"L  c #4E4E4E",
"P  c gray31",
"I  c #505050",
"U  c #515151",
"Y  c gray32",
"T  c #535353",
"R  c gray33",
"E  c #555555",
"W  c #565656",
"Q  c gray34",
"!  c #585858",
"~  c gray35",
"^  c #5A5A5A",
"/  c #5B5B5B",
"(  c gray36",
")  c #5D5D5D",
"_  c gray37",
"`  c #5F5F5F",
"'  c #606060",
"]  c gray38",
"[  c #626262",
"{  c gray39",
"}  c #646464",
"|  c #656565",
" . c #676767",
".. c DimGray",
"X. c gray42",
"o. c #6C6C6C",
"O. c gray43",
"+. c #6F6F6F",
"@. c gray44",
"#. c #717171",
"$. c gray45",
"%. c gray46",
"&. c #767676",
"*. c gray47",
"=. c gray48",
"-. c gray49",
";. c #7E7E7E",
":. c #7F7F7F",
">. c #818181",
",. c #838383",
"<. c #848484",
"1. c #868686",
"2. c #888888",
"3. c #898989",
"4. c gray54",
"5. c gray55",
"6. c #8D8D8D",
"7. c #8E8E8E",
"8. c gray56",
"9. c #909090",
"0. c gray57",
"q. c #929292",
"w. c #939393",
"e. c gray58",
"r. c #959595",
"t. c #979797",
"y. c #989898",
"u. c gray60",
"i. c #9A9A9A",
"p. c #9B9B9B",
"a. c gray61",
"s. c #9D9D9D",
"d. c gray62",
"f. c #A0A0A0",
"g. c gray63",
"h. c gray64",
"j. c #A5A5A5",
"k. c gray65",
"l. c gray66",
"z. c #A9A9A9",
"x. c gray67",
"c. c #ACACAC",
"v. c gray68",
"b. c #AEAEAE",
"n. c #AFAFAF",
"m. c #B1B1B1",
"M. c gray70",
"N. c #B4B4B4",
"B. c gray71",
"V. c #B6B6B6",
"C. c #B7B7B7",
"Z. c gray72",
"A. c #B9B9B9",
"S. c gray75",
"D. c gray77",
"F. c #C8C8C8",
"G. c gray82",
"H. c gray85",
"J. c #E1E1E1",
"K. c #E9E9E9",
"L. c #EFEFEF",
"P. c gray96",
"I. c #FBFBFB",
"U. c gray100",
/* pixels */
"` 6.9.0.w.r.t.y.p.a.s.f.g.h.j.k.l.z.x.c.b.n.m.m.M.N.B.V.C.Z.A.D.",
"N [ }  ...o.O.#.$.&.*.=.-.:.>.<.1.2.4.5.7.9.q.e.r.t.u.i.a.s.d.A.",
"m ' ( Q U...o.O.#.$.&.@.{ U.U.U.U.U.U.4.5.7.9.q.e.r.t.u.i.a.s.Z.",
"b ) L b I. ...o.O.#.o.U I.I.I.I.I.I.I.I.4.5.7.9.q.e.r.t.u.i.a.C.",
"c E x P.P.P. ...| ~ P.P.P.P.P.P.P.P.P.P.P.P.5.7.9.q.e.r.t.u.i.V.",
"x S w L.r L.}  .E j L.< + L.2 3 ; # L.d V L.4.5.7.9.q.e.r.t.u.B.",
"g j K.K.7 K.K.} K i K.n t K.! ^ C p K.D x K.2.4.5.7.9.q.e.r.t.N.",
"u 3 J.J.J.J.J.[ H u J.J.J.J.J.J.J.J.J.J.J.J.1.2.4.5.7.9.q.e.r.M.",
"w : H.4 = 1 H.' F 0 H.w , H.l z y 2 H.p a H.<.1.2.4.5.7.9.q.e.m.",
"0 6 G.n a q G.) D t G.x w G.Y E M y G.C k G.>.<.;.O.G.G.7.9.q.m.",
"3 F.F.F.F.F.F.F.A r F.F.F.F.F.F.F.F.F.F.F.F.:.>.X.c F.F.5.7.9.n.",
"% S.S.S.S.S.S.S.C 7 S.9 : S.g j e < S.y u S.%. .S.S.S.S.S.S.7.b.",
"@ V.+ . V.@ > V.B w V.j 9 V.K P b e V.M g V.{ k V.V.V.V.V.V.5.c.",
"* v.w < v.y 8 v.M q v.v.v.v.v.v.v.v.v.v.v.v.^ 0 v.4 4 : r v.4.x.",
"& j.j.j.j.j.j.j.n 4 j.6 - j.s d q > j.e t j.! h j._ ` D x j.2.z.",
"O s.s.s.s.s.s.s.b 8 s.s 6 s.D F l q s.b a s.W g s.s.s.s.s.s.1.l.",
"O r.o   r.O - r.x 8 r.r.r.r.r.r.r.r.r.r.r.r.E 8 r.r.r.r.r.r.<.k.",
"$ 8.7 ; 8.q 3 8.z 1 8.3 = 8.u i 8 : 8.q w 8.Y 7 8.2 2 - q 8.>.j.",
"$ 3.3.3.3.3.3.3.k 5 3.u 3 3.B C g 8 3.l u 3.U a 3.W ! V j 3.:.h.",
"X ,.,.,.,.,.,.,.h 5 ,.,.,.,.,.,.,.,.,.,.,.,.P p ,.,.,.,.,.,.-.g.",
"@ + + @ @ # < j l 7 5 5 1 8 e t q 6 e r s U R g p k l f c ] =.f.",
"< q w r t u d v n l h k z x b n M B C A L ( _ R P U Y E ) +.*.s.",
"4 d g j g p U.U.U.B Z S Z B U.U T U K U.) ' [ }  ...o.O.#.$.&.a.",
"3 a d s w U.1 6 i U.B Z n k B L U V j U./ ) ' [ }  ...o.O.#.$.p.",
"2 i u 9 U.9 r w e j M B v h U.J F f U.U.U./ ) ^ W U. .[ _ U.#.y.",
"1 y 9 , U.s j g f l n M j t U.G B q * U.H ! / H v U.} R N U.O.t.",
"< t 5 - U.d g j l x v n a 5 U.S Z p 1 U.L W ! G g B U.Z U.E o.r.",
", e 4 = U.a d g j l x v i 4 U.Z S k 0 U.U T W Y n g U.k U.] ..w.",
"> w 5 ; 2 U.a p u U.l x u 3 U.B Z h 9 U.L U T W S f i U.I }  .0.",
": 0 9 3 , 2 U.U.U.u j l t 2 U.M B g 3 U.U.L U T U v u U.^ [ } 9.",
"; 9 0 9 3 ; = > 8 p g j u 8 s n M j 6 w N J L U T M y U.) ' [ 6.",
"* ; : > : - = ; 1 4 6 7 6 5 9 w r w 9 0 u d f h g 0 U.a b m N ` "
};
