/* XPM */
static char *Ninja_Rename_IconB[] = {
/* columns rows colors chars-per-pixel */
"32 32 129 2",
"   c #2A1515",
".  c #2D1A1A",
"X  c #3A1414",
"o  c #341B1B",
"O  c #3E1B1B",
"+  c #2D2323",
"@  c #372222",
"#  c #3D2424",
"$  c #3F2929",
"%  c #3E3030",
"&  c #421414",
"*  c #4A1515",
"=  c #471D1D",
"-  c #4D1D1D",
";  c #561C1C",
":  c #5C1818",
">  c #671E1E",
",  c #6F1E1E",
"<  c #771E1E",
"1  c #432424",
"2  c #4A2323",
"3  c #412D2D",
"4  c #4D2A2A",
"5  c #522424",
"6  c #5A2424",
"7  c #542C2C",
"8  c #5E2C2C",
"9  c #443232",
"0  c #513333",
"q  c #5B3232",
"w  c #5B3939",
"e  c #622424",
"r  c #692121",
"t  c #652B2B",
"y  c #6A2C2C",
"u  c #712323",
"i  c #7A2424",
"p  c #752A2A",
"a  c #7C2C2C",
"s  c #613030",
"d  c #6A3535",
"f  c #653B3B",
"g  c #713333",
"h  c #793434",
"j  c #743D3D",
"k  c #7D3C3C",
"l  c #774040",
"z  c #7D4545",
"x  c #7F4A4A",
"c  c #755959",
"v  c #822323",
"b  c #8A2323",
"n  c #872D2D",
"m  c #8C2B2B",
"M  c #922525",
"N  c #952A2A",
"B  c #823535",
"V  c #8A3434",
"C  c #863C3C",
"Z  c #8B3C3C",
"A  c #9A3434",
"S  c #953B3B",
"D  c #9D3B3B",
"F  c #824444",
"G  c #8A4444",
"H  c #834D4D",
"J  c #8E4C4C",
"K  c #904444",
"L  c #9A4444",
"P  c #944C4C",
"I  c #9E4A4A",
"U  c #855454",
"Y  c #8F5050",
"T  c #875959",
"R  c #895C5C",
"E  c #925252",
"W  c #9A5555",
"Q  c #925C5C",
"!  c #A24444",
"~  c #A64C4C",
"^  c #A35555",
"/  c #A95353",
"(  c #A55A5A",
")  c #AD5B5B",
"_  c #8D6363",
"`  c #8F6969",
"'  c #916C6C",
"]  c #937070",
"[  c #B26363",
"{  c #B66C6C",
"}  c #B47474",
"|  c #B97373",
" . c #BD7B7B",
".. c #006D89",
"X. c #00718D",
"o. c #007693",
"O. c #007997",
"+. c #007D9C",
"@. c #0085A6",
"#. c #0091B5",
"$. c #0096BB",
"%. c #009EC5",
"&. c #00A1C9",
"*. c #00A7D0",
"=. c #00AAD4",
"-. c #00AED9",
";. c #00B1DD",
":. c #00B5E2",
">. c #01B8E6",
",. c #0BBBE7",
"<. c #01BAE8",
"1. c #08BCE9",
"2. c #16BDE7",
"3. c #00A8FF",
"4. c #1CC0E9",
"5. c #23C2EA",
"6. c #2BC5EB",
"7. c #31C6EB",
"8. c #37CAEF",
"9. c #44CBED",
"0. c #4BCDED",
"q. c #56D0EE",
"w. c #45CEF0",
"e. c #4FCFF0",
"r. c #56D2F1",
"t. c #C28484",
"y. c #C58B8B",
"u. c #C99393",
"i. c #CD9A9A",
/* pixels */
"4 1 # @ # # # # # 1 $ $ $ 3 3 3 3 3 3 9 9 9 9 9 9 9 9 9 9 9 9 + ",
"J Y z x H H H U U U U T T T R R _ _ _ _ _ _ ` ` ' ' ' ' ] ] c % ",
") [ [ [ [ { { { | | |  . . . . .t.t.t.y.y.u.u.u.u.u.u.i.i.i.] 9 ",
") ) [ [ [ [ { { { | | |  . . .t.t.t.t.y.y.y.y.u.u.u.u.i.i.i.] 9 ",
") ) ) [ [ [ [ { { | :.6.9.9.9.9.9.9.r.t.y.y.y.y.y.u.u.u.i.i.] 9 ",
"/ ) ) ) [ [ [ [ { { #.:.2.,.>.>.>.1.6.e.t.y.y.y.u.u.u.u.i.i.' 9 ",
"/ ) ) ) ) ) ) Q E E +.&.;.#.+.+.+.@.&.6.r.t.y.y.y.y.u.u.u.u.' 9 ",
"/ / / ) ) ) W f 4 7 +.;.6.0 9 l Q } @.1.w.t.t.y.y.y.y.u.u.i.` 9 ",
"~ / / / ) ) P 4 . . +.>.9.. . @ w Q +.<.w.t.t.t.y.y.y.u.y.u.` 9 ",
"~ ~ / / / ) G 4 . o +.>.0.0 4 @ @ f $.<.8. .t.t.t.t.y.y.u.y.` 9 ",
"! / ~ / / / J 2 . 1 +.:.9.0.9.9.9.5.=.:.4. . .t.t.t.y.y.y.u._ 9 ",
"! ! ~ ~ / / G 4   4 +.*.4.,.>.1.4.4.*.%. . . .t.t.t.t.y.y.y._ 9 ",
"! ~ ~ ~ / / G 2   1 +.&.>.$.O.+.;.5.Q | |  . . . .t.t.t.t.y._ 3 ",
"! ! ! ~ ! ~ G 2   o +.:.6.4 2 ..$.5.9.| | | |  . . .t.t.t.y._ 3 ",
"! ! ! ! ~ ~ Z 2     +.<.9.. o 1 o.%.6.q.| | |  . . .t.t.t.t._ 3 ",
"D ! ! ! ! ~ Z 2   o +.<.9.  # f E @.>.9.{ | | |  . . . .t.t._ 3 ",
"D D ! ! ! ~ C =   1 @.<.9.o o 0 H X.$.6.q.{ | | |  . . . .t.R 3 ",
"D D D D ! ! C 2   = +.;.6.7 o o s W @.:.7.{ { | | |  . . .t.R 3 ",
"D D D ! ! ! B 2   = O.#.;.k 1   1 F o.#.-.2.{ { | | | |  . .R 3 ",
"A A D D D D B =   = C ~ / P 8 o o q P [ [ [ { { { | |  .|  .T 1 ",
"A A D D D ! B =   = Z ~ ~ ~ j 1   1 z ( [ [ [ { { { | | |  .U $ ",
"A A A A D D V 6 = 6 Z ~ ~ ~ K s 2 7 j ^ ) [ [ [ { { { | |  .U $ ",
"A m n 3.A D V a 3.Z L ~ ~ ~ ~ K G G P ( ) [ [ [ [ { { { { | U 3 ",
"N i 6 3.3.S n e 3.D ! ! ! ~ ~ ~ / / / ) ) ) [ [ [ [ { { { | U # ",
"N u X 3.u 3.p - 3.S B 3.3.3.L K 3.G 3.3.3.3.) ( E 3.3.3.{ { U # ",
"N u & 3.; 3.p - 3.p 3.5 6 h 3.8 3.3.O 3.s F 3.F 3.q f H 3.{ H # ",
"N u * 3.; r 3.* 3.e - 3.3.3.3.O 3.5 = 3.d s 3.7 3.3.3.3.3.{ H # ",
"N u * 3.> ; 3.; 3.e 3.; X X 3.= 3.g 5 3.k 7 3.1 3.7 4 q Y [ H # ",
"M , * 3.i ; & 3.3.; 3.y = 3.3.5 3.h 5 3.k 7 3.2 3.F l l 3.[ x # ",
"M , * 3.m , & X 3.; e 3.3.X 3.5 3.h 5 3.h 7 3.8 d 3.3.3.W [ F @ ",
"M < : < N m > ; u p ; 6 ; 6 e e B B t C C y k k s 7 q F ^ [ Y 1 ",
"M b v b M N b v m m i a n n V V S S Z L L K L I G C G ^ ) ) Y 4 "
};
