/* XPM */
static char *Ninja_RRbutton[] = {
/* columns rows colors chars-per-pixel */
"260 24 93 2",
"   c #060606",
".  c #0E0E0E",
"X  c #0F0F10",
"o  c #100F10",
"O  c #0F1010",
"+  c #151515",
"@  c #171719",
"#  c #171919",
"$  c #1B1B1B",
"%  c #1E1E20",
"&  c #1F2020",
"*  c #232323",
"=  c #282826",
"-  c #262628",
";  c #2C2C2C",
":  c #2F2F30",
">  c #333333",
",  c #373837",
"<  c #373738",
"1  c #383738",
"2  c #373839",
"3  c #3B3B3C",
"4  c #3F3F40",
"5  c #403F40",
"6  c #3F4041",
"7  c #444444",
"8  c #464749",
"9  c #494749",
"0  c #47494A",
"q  c #4C4C4C",
"w  c #51514F",
"e  c #4F4F51",
"r  c #504F50",
"t  c #4F5153",
"y  c #545454",
"u  c #585656",
"i  c #585856",
"p  c #565658",
"a  c #565859",
"s  c #5B5B5C",
"d  c #615F5F",
"f  c #60605F",
"g  c #5F5F60",
"h  c #5F6061",
"j  c #636363",
"k  c #686767",
"l  c #676867",
"z  c #686867",
"x  c #666769",
"c  c #686768",
"v  c #676869",
"b  c #6B6B6B",
"n  c #70706F",
"m  c #6E6F70",
"M  c #706F70",
"N  c #6F7070",
"B  c #737373",
"V  c #767779",
"C  c #777A7A",
"Z  c #7C7C7C",
"A  c #817F7F",
"S  c #7F817F",
"D  c #7F7F81",
"F  c #7F8182",
"G  c #848484",
"H  c #888886",
"J  c #868688",
"K  c #868888",
"L  c #8C8C8C",
"P  c #91918F",
"I  c #8F8F91",
"U  c #918F91",
"Y  c #949494",
"T  c #989797",
"R  c #979798",
"E  c #9A9A9A",
"W  c #9F9FA0",
"Q  c #A2A2A2",
"!  c #ABABAB",
"~  c #AEAEB0",
"^  c #B4B4B4",
"/  c #B8B8B7",
"(  c #B7B7B8",
")  c #BBBBBB",
"_  c #C0C0BF",
"`  c #C2C2C2",
"'  c #CCCCCC",
"]  c #D4D4D4",
"[  c #DBDBDB",
"{  c #E3E3E3",
"}  c #EBEBEB",
"|  c #F3F3F3",
" . c #FCFCFC",
/* pixels */
"^ ! Q Y R R Y R T Y R Q E R R R E E E W W Q Q Q Q Q W Q Q E E E W E T R E E W Q Q Q W Q Q Q Q E Q E R R Y Y R W E E R R E E Q Q Q Q Q Q Y R Y R Y R T T Y R Q W E E R E Q Q Q E Q E E E E E E W Q Q Q E Q R R R E W Q Q Q Q Q Q Q Q Q Q Q Q Q Q Q Q ! Q Q Q Q E R Y R R R R R R T T T T T T R R E T T T R E E R R R Y R R R R E E E E T T T R T T T T R T T T E T E R T R R E E R W Q R T E R E E E R R Y R E E Q Q Q Q Q Q Q Q R R R R R R T T T T T R R E R E E R R R T T R R E T T E T E R R E R E T T T T T T T E E E W E E R E S 5 ",
"H G j g s s j s s s j B n b z b b j f f f f j b b n b b B b B b b B b j j j g d j l b n n N b b N n b s s j s j z n m b v j s g j b m j s s s s s s s s s j b B B B v j j h j b b M b B b x x d d j b b b m b b z j j n n B n B n n B B n B n n B n n n b j s s s j g g f s s f f f f f f s s s s f f f d d s s s s g d j s d j f f d s s s s s f f f f f s s s f s s s f f f j s b b j s f s j j j j j d s s j j j b B V n B b d s s d s s s s s j s f j j j s s s f f f f j j f f f j f j f d f s s f f f f d f f f f f f f f f j , $ ",
"B j , * * ; ; = = ; 3 7 7 7 5 3 7 5 3 , > , > : : : > , 3 7 7 4 4 7 7 7 3 3 7 < ; ; : ; > 2 3 6 7 7 > ; = - * * * - = : 2 7 7 3 > : : - * = - * * * - - - = , 3 7 7 7 3 7 3 > ; > > , 3 7 3 7 3 > > ; : > < 3 3 7 5 7 7 7 7 7 9 7 9 8 8 9 7 9 7 7 7 7 9 3 = = ; ; = ; = = = ; ; : = = = = = ; ; ; ; ; = = = = ; ; ; ; ; ; ; = = = = = = ; ; ; = = ; = ; : = = = = = = = : = = ; ; , 3 ; = = : ; ; > : ; > > ; = = : > < 5 8 7 ; = = ; ; ; = = ; ; ; ; = = = = ; : : : ; ; ; ; > > : : : ; = ; = ; = ; ; : : : ; : : : : : : ; = = = & + ",
"B s > * ; (  . . . . . . . .] L 9 7 7 9 4 7 7 3 > : > > : > 2 3 7 7 7 0 7 5 0 7 7 3 4 7 > : : > 2 a  . . .* * = > > : ; = = ; 1 4 7 < > > : : ; ; = ; = * = 3 ,  . . . . . . . .| ( : > : 1 5 8 7 7 7 3 3 > ; , 3 7 9 q q 9 q q q q 9 0 q 9 q q q q 9  . . .y ; = ; ; ; > : > ; : = = ; ; : > ; ; ; = ; ; ; : ; : Y |  . .| Q ; = = : : ; ; > ; ; ; ; : : = : = ; ; ; y (  . . . .) e : ; ; a  . .{ : > > : G ! > = = > > 3 0 7 > ; > ; > > > ; ; ; = = ; > > ( |  . . . ./ y > = : = = ; : > : : : : > : : : : > : : ; ; = : : : > = $ ",
"V j : ; : ^  . . . . . . . . . .V 7 0 q 7 9 0 0 q 7 6 q 7 > > > > < 3 4 7 0 q q q 7 9 q 8 7 3 > = y  . .) ; ; ; > < > > > > : - - > 3 4 7 4 3 , > > : : ; , q q  . . . . . . . . . .[ 0 3 , 1 < 2 3 8 7 0 7 3 4 3 , 4 q w w w q q y q w q q w r w q w |  .[ 7 ; ; > : > > : ; ; : : > > > : > ; ; : : : > : : > (  . .{ }  . .! : > > ; : : > > ; ; ; : : ; ; ; ; ; Q  . . . . . . . .b = ; y } Q b > > , ^  .Q , > > ; > > 3 5 > > > > : : ; ; : : ; : , s }  . . . . . . . .Z > > : > > > , > > > > > , > > : : : : : : > , > > > ; $ ",
"Z k , > ; !  .] B y y y b ) |  .( 3 3 7 9 q r q y q 7 w q q 7 7 e 7 > > > 1 3 7 q q w y w q 1 ; > s  .| G + > > 8 q 6 4 3 < < > : : : : : 3 7 0 8 7 3 3 , 2 7 0  .| T w y y y Y [  .} Z r 7 q 5 3 3 , 1 7 q 8 q q q q y y y y y y y y y y y y y y y i |  .~ * ; > > > > ; : > > > > > > : : : > > , , > , > > > }  .) * . )  .' > > > > > : > > : > > ; > : : : ; L  . .` j y V ` | | ] 7 ; > ; . o $ > H  . .H = > 3 5 > : > , 3 1 > ; > > > > > , > > 0 |  .| L y y n ` |  .[ w > > , 1 , , , , , , > > : : > , > > , , , 3 , 1 1 : $ ",
"G i , : > !  .~ * . + + + 7 { } ^ 3 , 3 3 3 3 7 0 q w y y y y 0 y r q q 6 q 7 1 3 3 5 9 8 > > 1 > i  .| Z + , 3 t a p y y 0 4 2 3 4 2 < < > ; , 2 4 8 q 0 7 3 3  .} q + + + + X Q | ] b 7 8 y y 0 y 7 3 5 3 3 7 q y a a i i s i s i i s s s s i i i i | | ~ = > > > > > > 1 , , , > : > > , > , 2 , , > > > > > | | ` X . H  .R > , , > : > > > > > > > : : : : > |  .Y , + . . 7 E I B s < , ; . o $ , G  .| P * , , , 3 5 , > 1 3 3 3 , , > , 2 , , 1 '  .] 0 ; o O . 9 Q Y b s 3 3 3 3 3 , > > > > > , 3 3 , , 3 , 3 3 3 3 3 3 3 > $ ",
"G z > > 3 ! | ` > + + + + + ] } L > q 7 q W }  . .{ W 7 q y Y  . .' Y {  . .] b 7 7 7 > Z {  .| ` V | } V + 3 3 j '  .|  .` x 3 4 4 {  . .G | | ^ > > > 5 0 q r | } V . + + + + j | ) y > 3 3 V [  . .| ( 9 7 7 6 3 L {  . . .} ! j s f s Z ]  . .{ R } | ! ; `  .| z 3 3 , 1 } | } 7 3 3 3 3 3 3 , , , , > 1 1 ) | | Q y } [ y o > , , > : > > > > > > > : : : H | ] , o . o o . 3 3 ; @ 1 s  .| ] > !  .| | } | !  . .' 5 7 3 , I  .| E 3 3 3 , , > 7 | | d + o o O O o 3 3 ; + , 3 3 9 )  . . .( s 3 3 5 ^  . .Q Q }  . .^ 3 3 1 = $ ",
"J s > 7 3 Q } } y > q y s Y | ] s # s i ) | } ! ` } } ) 4 4 D | | [ [ ] [ } | ] f q 3 L | | ` ! [ } } [ n + 5 f } | ' ! [ } } j y e ] | } ] ^ G p 4 4 3 4 < < 3 | } ) * e 7 7 7 ] } Y 3 , q Y  .| ) ( } | [ d s s D | } ! ! { } } Q j j S | | ] Q ' } } } Y = B | } L 3 , , b | { z 3 5 3 3 3 3 3 , , 3 3 5 3 3 s { | } | } b $ O > 3 , , > > > > > > , , > > > ( | E = . $ 3 7 5 : + + + * j | } Y 5 W } } _ S b V ' | ] q 5 7 0 ] | ! 8 7 5 5 3 3 3 L | ` > + + = 7 5 4 ; O . O * 3 f } | ' ! [ } } z 5 7 ! | } [ [ ] { | } Q 5 5 > & ",
"H s 5 3 , Q } } } | | | | | { b ; $ y Y | { b * $ Q { ] B q D } [ V , 3 > ^ [ ^ j 3 3 { } G ; . $ ( { ) n + 7 [ } ^ 0 # 8 [ { Q y s ] { E 4 3 $ % : 7 8 7 8 6 4 } { } } | | | | } ( 7 $ ; j } } L > o b { [ J y s _ W 0 > $ y { ] Y z z ' | ! 5 $ $ R [ ] S & 3 ] [ T > 3 3 Q } J & + 3 4 3 3 3 3 5 3 5 7 5 3 3 7 ` { { ] J * o + , , , , > , , , , 3 3 3 3 3 3 ` } J $ & 7 7 7 7 9 7 = > 3 s } ' s $ 5 s [ T = . . n [ ` i 7 7 y } ' 7 . = 3 8 7 5 5 Q } Q ; + 4 7 7 5 4 4 ; $ = 7 7 ] } ~ 3 + 3 [ { Q 7 7 Q } _ f > ; 3 ] [ ! 7 7 , * ",
"Y f 7 , 4 E { ] ` ] [ { [ / s > + + q ) } ] > $ $ * { ` V j K { ( 7 $ + + J ] R 7 5 n } ` 3 + o O y ] ( z $ j } { I $ @ $ E [ Q r 3 ` [ V * $ $ $ 4 8 q 0 e q q { [ ` ' [ [ { ] L 3 * + > R } [ f $ $ + ' ] L 8 8 0 q $ $ $ $ { ` b 9 b { [ s $ $ $ = ] ` B $ , H ] ! 5 7 7 ] ] q o * 3 3 5 7 7 7 7 3 7 7 7 4 s [ { _ ( ) P $ o : 3 , 3 , 3 3 5 3 5 5 5 5 3 3 5 ` [ G . > 7 7 9 9 q s i 7 3 a { ` y & 5 d [ Q > + . 1 ' ' n 5 7 L { H = + 5 8 5 7 7 7 R [ Q = = 5 3 T | | } | } ) 9 j } { J o + + T [ Q 8 5 T [ Q : + o o ) ' A , 0 3 * ",
"G s 3 7 0 Y ] R q 9 b E ! V = $ + ; 0 ' [ ` ' [ { { ' L a s J ] Q 7 $ 1 j R ] L , > J [ E ; . ; 7 7 ] ^ f $ J [ ] _ ] { { ] ^ b 7 q _ ' b @ * b x e 8 h g p y e [ ) j 7 y K ! Q 7 . + + q ! [ ' ` ] { { ] W f 8 j s ; & T ^ { { ^ f > G [ ) 7 $ 3 V B / ` b $ 3 i ' / f 7 b { Y = o > 9 7 7 7 7 q 7 7 7 9 7 4 [ { L 3 y ! ` E 5 } ^ b 3 5 7 7 7 7 7 7 7 5 3 5 7 ! ] H $ 5 5 7 9 q q f i 8 7 a [ ^ q & 7 B ] E > : 8 7 P ' W 1 3 ) ] y + & y j 7 7 7 7 Y ] Q 3 > 7 q L [ ] ' ] ) S 0 G { ] _ ] { { ] ^ b 3 9 T ] P ; + , q / ' n $ q 3 = ",
"L s 7 q 7 H ` b $ $ - b W Q d $ : j b ` ` Z w q 9 7 > ; ; , G ' Y 3 = v q L ' A > ; L ' L : * 0 0 0 ' ! i $ H ' Q f q 9 q 3 : : : y ( ) s + 7 B N h e s g x b v ' E > @ + 7 H Q L ; + > 7 W ` Y s q q 7 , > : = k P [ { ' ^ ^ / T y ; Y ] Q 9 = n V Z ) ) j $ 5 0 E ( T , ! ' s $ $ r y q 8 7 q q 9 7 7 7 7 S [ W : o $ Z ^ ' ` ] P y 7 7 7 q q 7 7 7 7 7 7 7 7 L ` R , 7 7 7 9 q q l s 7 5 a ' Q 7 & 7 n ' L > > q 0 j / ! j q [ R ; + > w s 7 7 9 9 B _ ~ i 5 w w b b y B E H 0 * J ' W f q q q 3 > ; = 8 Y ' A ; ; w w ^ ) k $ 7 , * ",
"J f r 0 7 H ) j & + $ ; H Q E V B B M ! Q s $ $ $ $ $ $ + $ B _ G 1 ; q 8 H ) B ; > V ) L 1 ; 7 q s ] E 9 $ B ( G : % % & & $ $ $ s ! ! y + d V C b s a 8 8 q y ` Y 3 $ + @ a Y Q H y y e I ^ B $ + + $ + $ $ + i [ ' V i q y Q H 0 ; J / E q , A Z A ` ( i $ 7 7 b ! Q i ' T > + ; 9 y y q 9 9 q 7 7 7 9 7 H ` B & o & > E ! ^ P q = , 7 q q 7 7 9 7 7 7 7 7 7 j ! Q n , 7 0 q w P ' Y s w s _ P 3 * w n ) S > > q r q T ! H J ` s $ $ 7 w f q 0 q q y E ! E w y y y 3 + + ! Z 5 & B ( J = + + + + + + + 3 L ) B = > r q ! ^ i $ 7 7 * ",
"G b q 7 r J ! s * 0 t 4 7 S L S B B B L Y b : $ $ $ $ $ $ * V ^ M : - q r A ! j * , s E L i ; 7 t J ' G 3 $ d T H w & & & % $ % $ i ! E 7 + B Z Z m j g a y e 7 ( Z , : q b 7 b H K v s h C R V 3 + + o + + + $ A ` I 3 + $ = ) G 3 ; G Y Y z 5 G J H ] E q $ 5 9 y L W L ! y $ o 7 q y q 9 q q q q q q 7 7 B Q Z = * 0 9 j Q L S , + , q 7 q q q 7 7 9 9 9 7 7 7 S L T G f q y W { _ B f i l ^ Z > = y f ~ V > > 9 0 y l E ! Y G , + > w q s w q w w w s J R Q H y w > f H ^ f = = j R J w + + + + + $ + 3 J ! f * , 9 w E E w $ q 7 = ",
"L j 0 y y Z E 0 * d b j q y n B s s s j b n b A V ^ ' J B Z V Q d = ; q 8 V E y * , y j B B j r V ' ( j > & i k n n n S P ] ~ n B B E J 3 $ D Z G V V C B b x y ! b > , a g r 4 b V b b D b b B b d s G ] E j 0 j L V s = 3 ! ( B 3 = G B b B b J P ` _ B 3 $ 9 y y f L H j ; $ = w 0 q q q q q q q 7 7 9 9 w n n l q w Z ^ G j z f , 7 9 q q 9 q 9 7 9 9 9 7 8 9 9 s b E _ ] [ ' E q * 2 y s ! k > * 0 w T G 9 > y w y i G H B 7 $ + 3 q q s w q w 9 q q w j V ! ` ] [ ] ~ s * $ = i d b B j s b ] ~ z y q Z E y * 3 w u Y P 5 $ y q ; ",
"V j y s r j s > % j D G B 0 0 9 7 r s j 3 7 y H ! H 7 1 G Z j j 3 % - q e x s > $ 3 0 7 7 0 s G G f w , & & s j 3 8 j W Q d > j J G V y * $ G H G V C H G J A s B 7 * 3 j x p e 3 9 0 3 J s 4 4 q V Q E y ; a a a e 9 y m J j q 7 ; * g j 6 0 s D I m s 6 * $ 0 y r r n s > $ + 1 y q q q q q q q q q q r q y 3 7 y H ^ Q y ; * ; > > 7 9 9 0 9 9 7 q q q r q 0 q q * > 3 q s y 7 * + $ @ 3 g b 5 & = j a y y y y q w y y s j 9 = + $ y y q y q q w y y r , ; > 7 y s y 7 - $ + $ = s 0 3 9 j E Q s > 5 i i b s > $ 4 s i n y - $ y q ; ",
"G b s y q q * + % b J G V Z : $ + $ n S b % $ $ $ + ; @ $ 3 q ; + + = y y 8 * + + 3 e p * $ @ + > 5 + + + * d G 3 & $ @ + : * & = G q & + $ H J L Z A A J K J j > + + 3 V V m v 0 * + + 0 b s * $ $ $ + ; % % = j q % @ + & 4 * + + * B B 2 $ + + : j $ + + $ 7 y y i n 7 & + + q t e y q 0 q q w q q w y y y 7 $ @ $ $ + * $ + + + + ; q q q q w w w y y q q y y s 7 $ $ + + + + $ $ * % s y ; + + = i s 7 $ + + 3 0 q y j j > + # > s a y i s y s i s y y * $ + + + + + + + $ + > i y = $ $ $ $ = $ + $ i w - + # 7 f s 7 $ + # y 7 = ",
"G B y q g s 3 @ $ s V Z Z J Z * * * y G J q * % $ * & @ * q i 3 + + : a y s < @ + 7 a s y $ @ @ # # $ $ + * j J V = = * * * & & x H L 4 $ $ I L L A G S Z G G j V * * 3 C L H H V > $ * > B b 7 + + $ $ % * & s B b * @ $ $ $ + + + + e h s = $ $ $ $ $ $ @ + q a s i L : + + ; y s s s s y y y y y y i s a y y 1 + + + + + + + $ + + + > w y y y y y s s y y y s s i 3 + $ + $ + $ & = d s y y + + ; d a y $ $ $ # > y s A b $ + + 7 i j y s j s s s i y s s * $ $ $ + + $ # + 3 i s s q $ $ $ + $ + $ 7 f f 5 $ $ 7 f s s = # + w q ; ",
"L n y j j s > @ $ e g d j z n r & * = J L H j , & * $ 3 y y y 6 + + : s s a > + # 7 g j j q * $ $ < q $ $ * b I P A y = * * > V U U I 4 $ & P I P A H I Y L L b Z = * 5 Z U P P L i * * = y V B y > + $ * e d b D G V 4 $ $ > 0 0 $ @ 3 s s y ; $ $ > h = $ $ s j s Y H + . + 8 j s f j j i s s s i i i a y y y y 5 * + + + * 1 r 3 & , y s s s s s i s i y y s i y s y q , + $ $ $ 0 Z V s s y $ $ ; j s s q * # # 7 j b ! = . + & i s f i j B s i i y i s j j 7 ; + + + * 3 s j j j j f i 3 $ $ $ ; w j l f 5 + + 3 i s s = $ # s w > ",
"J b j x s y d B L C V M B C m j h x m m V F H L Z j s s y e a s y s h s g h g g x x g j x j j x j x h g d x B Y U Y Y Y P Z j V G H Y Y n Z Y Y Y G L Y Y I Y V D Y Y H J L J J H j G Y Y G H L H S f b L Y V b a g j m Z H V j b s s j v b v h h s s g b N V Z Y Q d o   + & d s s f b j f s y i y y s s y y y y y y r y i y y y s s s s s d j s s s s i y y s a i a i s f i j j j B J m s s s f f f f s s b j j j b ! L +   . + 3 i i s s b B s i d f s s s s s f f j j f f j j j j j j z k j j j f s s s s s d f f f j j b z l z y > ",
"J V x s y j j Z Y L Y L G Y I V B m B V b j v v s s d a y g s a s h a a j j h j x j h x x x v v x g s y d v V R Y Y Y Y Y V k f j j m B n V I Y Y Z Y Y Y Y Y B J Y R H H Y Y L H B G Y Y J L Y T Y b V Y Y G V m v g p B I Z j f f S Z B Z Z v N b b g h s s j >     + + $ 3 j s s s j j s i i a s s s y y y y y y y i s s s s s s j s s d j d s s s y s s s i a i i y y i i f j k B J B s y s j s s f j j b j f b s       + $ $ y s u s j z B f f f f f s j z j z z z l j z z j b z k j j f f s s s f j f z z b k j z j j b b z z i > ",
"B s 6 4 8 q e d j b b j s v j b v g g b j y 7 7 7 7 3 7 7 7 7 7 7 8 7 7 0 0 0 0 q 0 q 0 q 0 q q 7 3 7 7 q q s b b b b b b b j j d y r 8 8 8 s b k q j b b b n r j b b j j b b b b y h b b j g s y s q y k b j j j j y 7 s b y 3 7 7 0 y s l t q a t t e w q 8 7 8 $ + + + + y i w q 0 8 9 5 5 3 7 7 3 3 3 3 3 3 7 5 7 7 7 7 5 3 7 7 7 7 5 7 7 7 7 5 3 3 3 7 3 7 3 5 3 3 3 3 7 9 9 q r s s y r 9 7 3 4 0 y 7 w 9 5 7 7 , + o O o ; q 0 7 7 5 8 w 5 7 7 7 7 7 9 9 9 q q 9 9 9 9 8 7 7 7 7 7 7 7 9 q q 9 q q 9 q q q 0 q q q 0 q q 9 9 3 = ",
"q & $ $ $ $ $ % * * * - * * * = - * * - & $ @ $ @ @ $ @ @ @ @ @ # $ $ $ $ $ $ $ % $ % $ $ $ # $ $ $ $ $ $ $ * * * = = * = * $ * * * * = * & - = * $ $ $ & & * $ * * = * * * - * * % * * * % $ $ $ & % & & * & * * * * @ = * $ $ % $ $ # & - % % * * & & & & % $ $ .     . + $ & & & & & $ $ $ $ + + $ + $ $ $ $ $ $ $ + $ $ $ $ $ + $ $ # + @ $ + $ $ $ $ + $ + + @ @ @ $ $ $ $ $ $ $ * * $ $ & $ $ $ $ $ $ $ $ $ $ $ #       + $ $ $ $ $ $ $ $ $ + # $ $ $ $ $ $ $ $ $ $ $ $ $ $ $ $ $ $ $ $ $ $ $ $ $ $ $ $ $ $ $ $ $ $ $ $ $ $ $ $ $ "
};
