/* XPM */
static char *NinjaMesh_AlignCornerXY[] = {
/* columns rows colors chars-per-pixel */
"84 24 256 2",
"   c gray6",
".  c #120F0F",
"X  c #141414",
"o  c #1C1C1C",
"O  c #201111",
"+  c #1B2020",
"@  c #1C2C2D",
"#  c #252525",
"$  c #222F2F",
"%  c #2C2C2C",
"&  c #352323",
"*  c #362D2C",
"=  c #222F30",
"-  c #322E31",
";  c #273536",
":  c #2D3434",
">  c #2F3738",
",  c #2D393B",
"<  c #343434",
"1  c #393331",
"2  c #323738",
"3  c #333A3B",
"4  c #3C3C3C",
"5  c #403E3D",
"6  c #343F43",
"7  c #2D4244",
"8  c #264548",
"9  c #2E4A4B",
"0  c #364343",
"q  c #3D4344",
"w  c #364749",
"e  c #3C4649",
"r  c #374B4F",
"t  c #294F52",
"y  c #344B51",
"u  c #255257",
"i  c #2D5152",
"p  c #225458",
"a  c #2A575B",
"s  c #2E595B",
"d  c #3C5254",
"f  c #32585C",
"g  c #3D5A5C",
"h  c #2E5D60",
"j  c #335E64",
"k  c #256166",
"l  c #296268",
"z  c #296A6F",
"x  c #396166",
"c  c #3B6669",
"v  c #38696C",
"b  c #2B6E72",
"n  c #3F6C70",
"m  c #25757D",
"M  c #2E767C",
"N  c #3A777D",
"B  c #37787D",
"V  c #444444",
"C  c #424748",
"Z  c #414C4D",
"A  c #4B4C4C",
"S  c #445354",
"D  c #4A5353",
"F  c #455558",
"G  c #465D5F",
"H  c #4C5D5E",
"J  c gray33",
"K  c #525A5C",
"L  c #5C5C5C",
"P  c #436365",
"I  c #4E6365",
"U  c #45696C",
"Y  c #4A6B6D",
"T  c #556E6F",
"R  c #5C6D6D",
"E  c #476D70",
"W  c #447377",
"Q  c #4C7275",
"!  c #44737B",
"~  c #44787D",
"^  c #497A7E",
"/  c #5A7778",
"(  c #57797C",
")  c #5C797B",
"_  c #656565",
"`  c #686868",
"'  c #607273",
"]  c #687E7F",
"[  c #657879",
"{  c #737373",
"}  c #797979",
"|  c red",
" . c #00FF18",
".. c #9E947C",
"X. c #AD9A7A",
"o. c #AC9372",
"O. c #B39C7B",
"+. c #267880",
"@. c #347A82",
"#. c #3A7D83",
"$. c #467B81",
"%. c #4E7B86",
"&. c #567F82",
"*. c #2E838B",
"=. c #25818A",
"-. c #35838A",
";. c #3E868D",
":. c #3B8C93",
">. c #29949D",
",. c #33929B",
"<. c #3E949B",
"1. c #2A96A1",
"2. c #2598A1",
"3. c #289BA5",
"4. c #3298A1",
"5. c #3A9CA5",
"6. c #3F9FA8",
"7. c #37A3AD",
"8. c #3EA4AE",
"9. c #3AACB7",
"0. c #3BACB8",
"q. c #438186",
"w. c #40888E",
"e. c #45848A",
"r. c #548487",
"t. c #5B8284",
"y. c #4D8791",
"u. c #528D91",
"i. c #5E8F94",
"p. c #44939B",
"a. c #569096",
"s. c #648587",
"d. c #6F8789",
"f. c #60898C",
"g. c #6A898C",
"h. c #738081",
"j. c #7B8485",
"k. c #748789",
"l. c #708C8F",
"z. c #7A8D8E",
"x. c #618E92",
"c. c #708F90",
"v. c #6C9599",
"b. c #679A9F",
"n. c #6D989B",
"m. c #649398",
"M. c #74969A",
"N. c #7A989A",
"B. c #7A9396",
"V. c #429CA4",
"C. c #559EA8",
"Z. c #5E9DA2",
"A. c #709DA1",
"S. c #789FA2",
"D. c #4CA6AF",
"F. c #57A1A7",
"G. c #5CA5AB",
"H. c #5EAFB5",
"J. c #5CB6BC",
"K. c #64A0A5",
"L. c #6BA4A8",
"P. c #63A8AE",
"I. c #6CAAAF",
"U. c #72A3A7",
"Y. c #79ABAE",
"T. c #7CA3A6",
"R. c #66A6B0",
"E. c #63ADB4",
"W. c #66ADB9",
"Q. c #73AFB4",
"!. c #65B0B6",
"~. c #6DB1B6",
"^. c #66B8BF",
"/. c #6BB5BB",
"(. c #72B0B6",
"). c #7BB8B6",
"_. c #74B9BF",
"`. c #77B2B7",
"'. c #32B5C3",
"]. c #55B6C1",
"[. c #5DBCC5",
"{. c #77B7C0",
"}. c #7ABDC3",
"|. c #71BDC8",
" X c #5DC0C9",
".X c #5DC9D2",
"XX c #69C1C7",
"oX c #6FC2C9",
"OX c #7BC1C7",
"+X c #7BC4CB",
"@X c #7FC8CF",
"#X c #7DCED4",
"$X c #7FD0D7",
"%X c #6EDEE4",
"&X c #848484",
"*X c #8C8D8D",
"=X c #838A8A",
"-X c #928886",
";X c #908D89",
":X c #8F9481",
">X c #858F90",
",X c #839F94",
"<X c #869595",
"1X c #939393",
"2X c #9B9694",
"3X c #A0948F",
"4X c #A69E99",
"5X c #ABA38A",
"6X c #B2A083",
"7X c #A4AB9B",
"8X c #87A3A5",
"9X c #81A9AD",
"0X c #8AA8AB",
"qX c #9EA3A3",
"wX c #97ABAE",
"eX c #94A6AA",
"rX c #81AEB3",
"tX c #9AAEB0",
"yX c #8AB6BA",
"uX c #80BABF",
"iX c #95B8B9",
"pX c #A4A4A4",
"aX c #A4AAAB",
"sX c #A8AEAE",
"dX c #A5B4B6",
"fX c #A8B1B1",
"gX c #A8B6B8",
"hX c #A0BABD",
"jX c #A9BCBE",
"kX c #9CBDC0",
"lX c #83C0C5",
"zX c #89C1C6",
"xX c #80C5CB",
"cX c #8CC6CB",
"vX c #90C0C5",
"bX c #92C7CC",
"nX c #9BC4CA",
"mX c #96CACF",
"MX c #86CCD2",
"NX c #82D1D7",
"BX c #82D5DC",
"VX c #81D8DF",
"CX c #A7C1C3",
"ZX c #A8C4C6",
"AX c #A3C5C8",
"SX c #A9C6C8",
"DX c #A3CBCD",
"FX c #A9CBCE",
"GX c #ADCCD0",
"HX c #A5D1D5",
"JX c #ABD1D6",
"KX c #A0D9DF",
"LX c #84D9E0",
"PX c #98DBE2",
"IX c #84ECF2",
"UX c #ACEBEF",
/* pixels */
"o ` &X&X&X&X&X&X&X&X&X&X&X&X=X&X&X&X&X&X&X&X&X&X&X&X&X&X&X&X&X&X&X&X&X&X&X&X&X&X&X&X&X&X&X&X&X&X&X&X&X&X&X&X&X&X&X-X&X&X&X&X&X&X&X&X&X&X&X-X&X&X&X&X&X&X&X&X&X&X&X&X1XpX",
"o < ` ` ` ` ` ` ` ` ` ` ` ` ` ` ` ` ` ` ` ` ` ` ` ` ` ` ` ` ` ` ` ` ` ` ` ` ` ` ` ` ` ` ` ` ` ` ` ` ` ` ` ` ` ` ` ` ` ` ` ` ` ` ` ` ` ` ` ` ` ` ` ` ` ` ` ` ` ` ` ` &X1X",
"o 4 V V V V V V A V D Q V V V A V V V V A V V V D K V V V A C V V A V V V V A V V V V A A V V A V A V V V V V A V C V A V A V V V V A V V V V A V V V A V V A V A V ` &X",
"O 2 V V V V V V V I [..XF.D V V V V V V V V V R mXPXyXL V V V V V V V V V V V V V V V V V V V V V V V V V V V V V V V V V V V V V V V V V V V V V V V V V V V V V V _ &X",
"+ 4 V V V V V F G.^.!.E.H.E.t.V V V V V V A v.HXHXHXJXnXl.V C V V V V V V V V V V V V V V V V V V V V V V V V V V V V V V V V V V V V V V V V V V V V V A V V V V V _ &X",
"+ 2 V 5 4 4 t./.Q.L.n.v.m.F.E.F.I V 4 4 s.zXAXAXCXCXZXFXDXiXR V V V V V V V V V V C V V V V V V V V V V V V V V V V V V V V V V V V V V V V V V V V V V V V V V V V _ } ",
"O 2 V 5 S ~.}.`.T.B.z.k.d.g.x.K.Q.t.T Y.iXkXhXdXdXdXgXjXSXGXJXN.J V V V V V A V V V V V V V V V V V V A ` } ` J L { { L V V J { { L A J ` } _ V V V V V V V V V V V _ &X",
"+ < 2 < p.%XMX0X<X>X>Xj.j.} ] x.P.D.XXoXbXtXqXaXaXaXsXfXfXFXUXIX] V V V V V V V V V V V V V V V V V V f.VXuX&XL `.VXT.L V V Q.VX8X} A &.%XkX_ V V V V V V V V V V V _ &X",
"o % < * E 1. XcXwX;X*X*X&X&XM.a.t 9 F.9 F.zXhX2XpXpXpX4XJXPX].8.) V V V V V V V A V V V V V V q 5 q V 5 _.VXN.d.VXOX_ A 5 V I BXMX&XJ {.NX{ J V V V V V V V A V V V ` &X",
"o % - # Y <.n $.+XhX2X-XeXrXy.% > , u., < e R.nXqX3XsXHX|.U ~ V.) V V V V V V V V V V V V V 5 5 5 4 5 5 H VX+X@XVX' A 5 5 5 5 m.LXS.v.LXA.D A V V V V V V V V V V V _ &X",
"X # # + Y <.~ F 5 W. . ._.F * 4 2 2 ~ : 2 < 1 $. . .bX%.5 G ~ V.) V V V V V V V V V V V V V 5 4 5 4 2 4 4 x.BXBXU.L A 4 4 5 2 5 |.NX+X@XL A V V V V V V V V V V V V _ &X",
"o + + o U <.~ P Z -  . .- 5 e e w w u.; , , 2 1  . .Z 5 Z P q.8.) V V V V V V V V V V V V q 5 4 2 < < < < I BXBXz.{ 2 4 < 2 < < &.LXLXl.J V V V V V V V V V V V V V _ } ",
". o + o P 8.e.U F w O.o.| | S g g x F.i 8 7 0 | | X.4 e d U :.9./ V V V V V V V V V V V V 5 4 4 < - - : < _.BXVXxX&XL 2 < < : < < #XNX{ L V V V V V V V V V V V V V ` &X",
"X o o X P 0.p.W P r O.O.r G | W N N J.z k u | 7 0 ..w d x -.5.'.I V V V V V V V V V V A V V 4 4 < - % % ( VXL.b.LX9X} 5 1 - % - < #X$X} V V V V A V V V V V V V V V _ } ",
"X o o X o h 4.;.W x 5X3Xj W q.| -. . . .+.| k a i :Xf v @.,.7.Q V V V V V V V V V V V V V 5 5 4 < % % 6 NX#Xq C +X$Xj.L - % % < < #XNX{ V V V V V V V V V V V V V V ` &X",
"X o o X X   = -.;.@.7X7X#.:.:.B |  . . .| m =.m b ,XM *.>.:.q V V V V V A V V V V V V V V 5 5 2 < % # I.VX&.4 5 &.LX`.A : - % - < #X#XJ V V V V V V V V V V V V V V ` &X",
"X + + o X X . X h ,. . .,.:.r X X X | .   X p >.>.).3.>.c 4 5 q V V V V V V V V V V V V V V 5 2 < % % # % < 4 4 5 V 4 4 : - - < < 5 5 V V V V V V V V V A V V V V V _ &X",
"X # + o X X . . X $  . .a o X o o X | X X     @  . .*.: - 4 5 5 V V V V V V V V V V V V V V 5 2 < % % % % < 2 5 q 5 4 4 < < < 2 4 5 V V V V V V V V V V V V V V V V _ &.",
"o # # # o X X X X X O + | | o o o + | X X X X |  . .% < < 4 V V V V V V V V V V V V V V 5 V 4 4 < < < < < < 4 4 5 V 5 4 4 < < 4 6 5 V V V V V V V V A V V V V V V V ` ..",
"o % * # + o o o o o # # # # | # # O | o o o | + # % - < 4 4 V V V V V A V V V V V V V V V 5 4 4 < < < < < 2 4 5 V 5 5 5 4 4 2 4 5 5 V V V V V V V V V V V V V V V V ` &X",
"o % < % % # + + + # # # % % % | % & | & + | # # % < < 4 4 q V V V V V V V V V V V V V V V 5 5 4 5 4 4 4 4 4 5 q 5 V V 5 4 5 4 5 5 V V V V V V V V V V V V V V V V V _ &X",
"o < 4 < - % # # % % % % % - % % |  . . .| # % % < < 4 4 5 V V V V V V V V V V V V V V V V V V 5 4 4 4 5 4 4 4 5 V V 5 5 5 5 q 5 V V V V V V V V V V V V V V 5 V V V _ } ",
"o % < - % % # # # # # % # % # % #  . . .# # # % % - < < < < < < < < < 4 < < < < 4 2 < 2 < < 4 2 < < < < < < < < < < 4 < 2 2 < < < 2 < 4 < 2 < < < 4 < < < < < 4 < < * L ",
"o + # # # # O # o + o o o o o o o o o o o o o # # # # # % # % # # # # # # % # # # # # # # # # # # # # # # # # % # # # # # # # # # # # # # # % # # # # # # % # # # & # o "
};
