/* XPM */
static char *NinjaMesh_AlignSelMax[] = {
/* columns rows colors chars-per-pixel */
"84 24 256 2",
"   c #0F0F0F",
".  c #141414",
"X  c #191817",
"o  c #1B1B1B",
"O  c #1A1818",
"+  c #251F1D",
"@  c #1D2324",
"#  c #1E2728",
"$  c #1E2929",
"%  c #1F2E30",
"&  c #1C3234",
"*  c #1E3739",
"=  c #1C393C",
"-  c #252525",
";  c #2A2624",
":  c #202728",
">  c #252A2B",
",  c #2B2B2B",
"<  c #2E302F",
"1  c #243334",
"2  c #2D3233",
"3  c #2E3739",
"4  c #243A3E",
"5  c #2D3A3C",
"6  c #23373C",
"7  c #343434",
"8  c #333A3B",
"9  c #3B3B3B",
"0  c #383332",
"q  c #45413F",
"w  c #1D3D40",
"e  c #223E41",
"r  c #2B3E41",
"t  c #353F40",
"y  c #1F484C",
"u  c #1D4E52",
"i  c #1C5156",
"p  c #1B555A",
"a  c #1E5A5E",
"s  c #234245",
"d  c #2D4345",
"f  c #2C454A",
"g  c #2D494B",
"h  c #24454A",
"j  c #344346",
"k  c #3C4445",
"l  c #364B4E",
"z  c #3C4A4C",
"x  c #31474D",
"c  c #244D52",
"v  c #2D4D53",
"b  c #324D51",
"n  c #2C5255",
"m  c #23565B",
"M  c #2B565A",
"N  c #20585F",
"B  c #2C5A5E",
"V  c #245155",
"C  c #335356",
"Z  c #3A5254",
"A  c #365359",
"S  c #3A5759",
"D  c #335A5F",
"F  c #1E5C62",
"G  c #255C61",
"H  c #2D5D61",
"J  c #355C65",
"K  c #395F67",
"L  c #1F6067",
"P  c #1B666C",
"I  c #1E737B",
"U  c #2D6165",
"Y  c #23656B",
"T  c #2E666A",
"R  c #346065",
"E  c #3E6164",
"W  c #34666B",
"Q  c #3C646F",
"!  c #3C696D",
"~  c #236C73",
"^  c #2C6D72",
"/  c #316C71",
"(  c #3D6975",
")  c #3D6D7C",
"_  c #237279",
"`  c #2B757C",
"'  c #29797F",
"]  c #3C7075",
"[  c #32727A",
"{  c #3B747B",
"}  c #3F787E",
"|  c #33757B",
" . c #444444",
".. c #484544",
"X. c #4F4846",
"o. c #44494A",
"O. c #4B4B4B",
"+. c #455254",
"@. c #4C5253",
"#. c #445A5C",
"$. c #4B5A5C",
"%. c #475759",
"&. c #535555",
"*. c #525B5C",
"=. c #5C5C5C",
"-. c #445E63",
";. c #4B5F63",
":. c #446265",
">. c #4C6365",
",. c #4D6668",
"<. c #526263",
"1. c #54666A",
"2. c #556B6D",
"3. c #426A73",
"4. c #4A6A71",
"5. c #447074",
"6. c #497276",
"7. c #4C747A",
"8. c #447A7E",
"9. c #46787C",
"0. c #557274",
"q. c #597A7D",
"w. c #53767A",
"e. c #656565",
"r. c #686868",
"t. c #636B6C",
"y. c #697677",
"u. c #737373",
"i. c #7C7C7C",
"p. c red",
"a. c #1A7A83",
"s. c #237A82",
"d. c #2C7B83",
"f. c #337C83",
"g. c #3D7D84",
"h. c #327F89",
"j. c #457D82",
"k. c #4A7E83",
"l. c #467481",
"z. c #567D81",
"x. c #567A81",
"c. c #6B7E80",
"v. c #1F818A",
"b. c #1F8A95",
"n. c #1D8690",
"m. c #288289",
"M. c #338087",
"N. c #35838A",
"B. c #3D838D",
"V. c #3B888F",
"C. c #288691",
"Z. c #218C96",
"A. c #2C8C96",
"S. c #2B8F99",
"D. c #3B8A92",
"F. c #358C96",
"G. c #24929C",
"H. c #2C929B",
"J. c #3A959D",
"K. c #1F9CA7",
"L. c #2097A1",
"P. c #2398A3",
"I. c #2D99A4",
"U. c #239DA9",
"Y. c #2B9DA8",
"T. c #359FA9",
"R. c #389FA8",
"E. c #3B9AA7",
"W. c #28A1AC",
"Q. c #3AA1AB",
"!. c #34A6AF",
"~. c #2FA8B3",
"^. c #24ACB9",
"/. c #36A5B1",
"(. c #38A5B1",
"). c #33ACB7",
"_. c #39AAB6",
"`. c #3FADB8",
"'. c #29B0BC",
"]. c #35B2BD",
"[. c #43858A",
"{. c #488387",
"}. c #5C8386",
"|. c #56868A",
" X c #5C878B",
".X c #5F888B",
"XX c #428D94",
"oX c #438390",
"OX c #568993",
"+X c #45949B",
"@X c #48949A",
"#X c #53999F",
"$X c #60878B",
"%X c #62898C",
"&X c #688386",
"*X c #678D90",
"=X c #659397",
"-X c #449BA4",
";X c #4D9DA5",
":X c #539CA2",
">X c #6F9DA1",
",X c #749CA0",
"<X c #44A5AE",
"1X c #48ABB3",
"2X c #40B4BE",
"3X c #57B3BC",
"4X c #69AAAF",
"5X c #6DA3A8",
"6X c #74A9AE",
"7X c #78A9AE",
"8X c #73A3A8",
"9X c #6CAAB0",
"0X c #75ADB2",
"qX c #7DACB1",
"wX c #76B1B7",
"eX c #7AB1B6",
"rX c #77B6BC",
"tX c #77B8BE",
"yX c #7AB5B9",
"uX c #2DB7C4",
"iX c #34B9C6",
"pX c #36BFCC",
"aX c #47B7C0",
"sX c #48B8C0",
"dX c #42B9C3",
"fX c #33C3D0",
"gX c #55C3CD",
"hX c #78C1C7",
"jX c #77C2C8",
"kX c #7DC5CB",
"lX c #75C1C7",
"zX c #7DCBD2",
"xX c #47D6E1",
"cX c #848484",
"vX c #80989A",
"bX c #839293",
"nX c #939393",
"mX c #89A7AA",
"MX c #86B6BB",
"NX c #86BABE",
"BX c #A7A7A7",
"VX c #84BEC3",
"CX c #8AC2C7",
"ZX c #84C5CB",
"AX c #8BC9CE",
"SX c #82CDD4",
"DX c #8CCCD1",
"FX c #81D1D7",
"GX c #82D2DA",
"HX c #8BD5DC",
"JX c #80D8DF",
"KX c #8BD1D6",
"LX c #91D5DB",
"PX c #84D9E0",
"IX c #8CDBE2",
"UX c #94DDE4",
/* pixels */
"o r.cXcXcXcXcXcXcXcXcXcXcXcXcXcXcXcXcXcXcXcXcXcXcXcXcXcXcXcXcXcXcXcXcXcXcXcXcXcXcXcXcXcXcXcXcXcXcXcXcXcXcXcXcXcXcXcXcXcXcXcXcXcXcXcXcXcXcXcXcXcXcXcXcXcXcXcXcXcXcXcXnXBX",
"o 7 r.r.r.r.r.r.r.r.r.r.r.r.r.r.r.r.r.r.r.r.r.r.r.r.r.r.r.r.r.r.r.r.r.r.r.r.r.r.r.t.r.r.r.r.r.r.r.r.r.r.r.r.r.r.r.r.r.r.r.r.r.r.r.r.r.r.r.r.r.r.r.r.r.r.r.r.r.r.r.r.cXnX",
"o p.p.p.p.p.p.p.p.p.p.p.p.p.p.p.p.p.p.p.p.p.p.p.p.p.p.p.p.p.p.p.p.p.p.p.p.p.p.p.p.p... .o... . .o...O. ...o. . ...O. . . . .O. .o. . . ...o. . .o...o. .o. . ...o. .r.cX",
"O , 7 7 7 7 7 7 8 A d.G.S.{ k 8 7 7 8 7 8 7 7 7 7 7 7 8 t S [.J.J.{.k 7 8 7 8 9 q  . . . . . . . . . . . . . . . . . . . . . . . . . . ..... . . . . . . . . . . . .r.cX",
". - , , , , , 5 m _ Y G Y ~ ^ C , , 2 , < , , , , , , 3 R f./ W W / { S , , 7 7 9 q .. . . . . . . . . . . . ... . . . . . . . ... . . . . . . . . . ..... . . . . .e.cX",
"X , 7 7 2 7 W d.` m V c g B / M.} k 7 7 7 7 7 7 2 7 3.D.g.3.E E E 3.{ [.k.k 0 9 t  . . . . . . . . . . . . . . . . . . . . .o. . . .o. . . . . . . . . . ...o. . . .r.cX",
"o , 8 7 S D.H.` U n g 5 d b R ] D.+X6.o.9 9 0 7 #.@X-X{.5.:.$.#.$.:.4.9.@X:Xw.+. . . . . . . . . .O.r.cXc.e.X.&.u.cXu. . . . . . ... . . . . . . . . . . . . . . . .r.i.",
"o 7 9 -.2XQ.j.! Z z t 3 3 j Z E 8.XXdX1X$.9 9 :.2X<X{.w.,.*.*.&.*.<.1.0.|.#XgX3X*. . . . . . . . .%XPXPXmXu. .kXPXPXcX ... . . . . . . . . . . . . . . . . . . . . .r.i.",
"o , 0 <XfX-X3.%.z k 9 8 7 2 8 z S l.Q.fXk.8 7 ;XiX-X4.;.@.@.@.&.@.&.*.<.2.OXsXxX*X . . . .q q  . .$XJXPXVXr.%.PXPXFXcX=.&.r.u.i.u.=.r.c.u.e.u.u.=. . ... . . .o. . .r.i.",
"O ; , :XG.M.oX;...q 9 9 9 7 < 8 J ` _ U.9.7 , +XC.s.g.-.o...O.O.O.&.@.=.OX;XB.).*X . . . .9 t 9 9 $XPXSXCXr.q.SXkXzXi.O.7XIXIXAXbXc.UXVXu.MXUXbX=. . . . . . . . . .r.cX",
"X - - :XS.M f ) 4.O. .q 9 0 j v * = p G.3., - D.a.p e J -.o...O.O.X.<.|.S g U _. X .t q 9 9 7 9 9 }.IXeXZXt.*XeX0XzXr.$XkXo.<.IXVXO.7XUXc.LXMX=.O. . . . . . . . . .e.i.",
". o o :XA.B r ; C l.%.q o.-.v : @ = p b.! : o N.a.c 6 o r Q +...@.w.( 8 2 g U /.$X . . .9 9 7 7 7 z.HX$XCXy.qX*X6XkXe.t 0.=XVXIXVXo.o.KXLXLXr.=. . . . . . . . . . .r.cX",
"  X O :XA.J r 2 ; 2 3.4.( r - + : = p Z.Q + O h.a.u & @ o : J 3.) x ; , 2 g U /..X . .9 9 7 < , < z.UX<.VX,XVX0.0XZX=.}.GX>X,.GXVX=.t 8XLXVXi.e. . . . . . . . . . .r.i.",
"  X . :XH.H f 7 < , + g.r + - : > s G G./ o . h.a.i & @ o o o J r + , , 2 g U /. X . .9 7 < , , ; x.UX>.8XAXDXo.wXSXo.jXzXO.k PXeX=.1.HXIXIXmXcX . . . ... . ... . .r.i.",
"  . . :XI.J x r 2 , ; K x - , > 1 h ~ Y.( o . D.n.F w # o o o v r - ; > 6 v ^ ).}. .t 9 9 < , > - q.UX>.x.UXZX< tXSX< 9XPX1.x.PXtX .tXPXx.VXVXc.e. . . . . . . . ...r.cX",
"  . X :X~.d.J t r 7 ; Q b , , 3 s G s.^.( X . J.U._ u * # @ X r 6 + > 1 d G s.uX|. .q 9 0 < ; - - q.UX>.#.IX=X, tXSX, Z zXzX9XjXkXx.PXx. .z.PX>X&. . . . . . . . . .e.i.",
"  . . A uXH.` D x 5 < ( A 2 r f B ` P.!.j O . n ^.Z.~ c e % @ e w @ e e V s.P.(.;. . .9 0 2 , ; - - - - > - ; , > ; , ; ; ; , > , , 0 0 9  . . ... . . . . . . . . .e.cX",
"  . . . A 1XH.` H v 5 { J r M T s.Y.<Xz @ O . . n /.G.~ G e % c e w y G s.P.<X-. . . .9 t 7 , , ; - - - , ; < , , , , , , , , ; , , 7 t t q  . . . . . . . . . . . .e.i.",
"  X . . . @ XXT.d.^ M B.[ H ^ S.1X{.7 > + o X . . # V.I.a.Y u Y N i P a.I.g. . .q  . .9 9 0 2 , , , , , , , < < < < < , , , , < 2 2 0 9 9  . . ... . . . . . . . . .e.cX",
". X O . . . . C <XG.d.E.F.m.).{.l 7 < , - @ X . .   . V E.b.I C.s.a.U.f.t t 9 9  . . .t q 0 0 0 7 , 7 7 2 7 0 0 < < < < 7 2 7 7 7 0 0 9 9 q  . . . . . . . . . . . .e.cX",
". o o O . .   . # D.~.uXiXT.-.2 < 7 7 < , - o X . . . . # N.U.^.uXG.J 2 0 t 9  . . .9  .q t 9 9 8 0 7 9 9 7 9 7 9 0 0 0 0 9 0 9 t 0 9 9 t  . . . . . . . . . . . . .e.cX",
". @ - o O X . . . O C aX[.j , < 7 7 9 0 < ; - @ o . . . . O n ).d.r > , 0 t q  . . .q  .t q 9 9 9 9 9 9 9 9 9 9 t 9 t t t 9 9 t 9 9 9  .q q  .o. . . . . . .q q  . .e.i.",
". + @ @ X X . . . . X o + - , , < 7 < , , : + o o . . . . . O o @ - ; , 2 7 7 0 0 t 7 7 7 7 7 0 0 7 7 7 7 7 7 7 0 0 7 7 7 7 0 0 t 7 7 7 7 7 7 0 t t 0 0 0 t 0 t 7 t < =.",
"o o X X X . .   . . . X o o o - - - - @ + @ o O O . .     . . O o o o - - - - - - - - - - - - - - > - - - ; > - - - - - - - - - - - - - ; - - ; + - - - - - - - - ; ; o "
};
