/* XPM */
static char *Ninja_Dojo[] = {
/* columns rows colors chars-per-pixel */
"32 32 253 2",
"   c #231E1D",
".  c #231F20",
"X  c #232021",
"o  c #2A2424",
"O  c #2F2827",
"+  c #2E2B2C",
"@  c #332D2D",
"#  c #38312F",
"$  c #343334",
"%  c #3D3635",
"&  c #353638",
"*  c #393739",
"=  c #35383C",
"-  c #39383A",
";  c #403735",
":  c #463935",
">  c #473E3C",
",  c #4A3E3A",
"<  c #4E423E",
"1  c #3C3E41",
"2  c #3C4247",
"3  c #3B444A",
"4  c #3F484F",
"5  c #434345",
"6  c #4C4341",
"7  c #444649",
"8  c #4B4B4C",
"9  c #554742",
"0  c #5A4B47",
"q  c #5D4E4A",
"w  c #5D514E",
"e  c #444D53",
"r  c #485056",
"t  c #4C575E",
"y  c #535355",
"u  c #575759",
"i  c #595758",
"p  c #595A5C",
"a  c #63524C",
"s  c #6F564E",
"d  c #72574E",
"f  c #685751",
"g  c #6A5851",
"h  c #635F5E",
"j  c #765B52",
"k  c #7C5D52",
"l  c #7D635A",
"z  c #4B5B64",
"x  c #545D64",
"c  c #5B6065",
"v  c #53626B",
"b  c #4D6572",
"n  c #526671",
"m  c #556974",
"M  c #5C6B73",
"N  c #546D7A",
"B  c #586E7A",
"V  c #56707D",
"C  c #5E737E",
"Z  c #646364",
"A  c #6A6564",
"S  c #6F6867",
"D  c #656769",
"F  c #62696E",
"G  c #6C696A",
"H  c #756A66",
"J  c #756F6D",
"K  c #786E6B",
"L  c #7A706D",
"P  c #626C72",
"I  c #6C6D70",
"U  c #65727C",
"Y  c #6B747B",
"T  c #727375",
"R  c #7D7573",
"E  c #757779",
"W  c #7A7B7D",
"Q  c #ED1D24",
"!  c #EE2326",
"~  c #EE2B27",
"^  c #EE2D28",
"/  c #EE352A",
"(  c #EF3B2D",
")  c #EF402F",
"_  c #EF4532",
"`  c #F04331",
"'  c #F04B35",
"]  c #F04F38",
"[  c #F1533A",
"{  c #F15A3F",
"}  c #806055",
"|  c #83655A",
" . c #8C675A",
".. c #83685E",
"X. c #956A5C",
"o. c #BB725C",
"O. c #876C63",
"+. c #886B61",
"@. c #936F61",
"#. c #81736E",
"$. c #907065",
"%. c #9E7567",
"&. c #94756A",
"*. c #97786D",
"=. c #837773",
"-. c #887670",
";. c #877B77",
":. c #8A7A74",
">. c #867F7D",
",. c #937C72",
"<. c #9C7D72",
"1. c #A47564",
"2. c #AD7866",
"3. c #AD7D6D",
"4. c #B37763",
"5. c #B67A67",
"6. c #B47F6E",
"7. c #A47E70",
"8. c #E75E42",
"9. c #EA5D42",
"0. c #DB6349",
"q. c #DF694D",
"w. c #C66D55",
"e. c #CD6C52",
"r. c #D46E53",
"t. c #D96D52",
"y. c #CC7057",
"u. c #C37159",
"i. c #D57359",
"p. c #DB755A",
"a. c #E1674C",
"s. c #EB6649",
"d. c #F2664A",
"f. c #E66E52",
"g. c #F26F51",
"h. c #E27054",
"j. c #EB7A5E",
"k. c #F47B5C",
"l. c #C27F6A",
"z. c #D27A60",
"x. c #F47E60",
"c. c #95837D",
"v. c #BC816E",
"b. c #A48074",
"n. c #A58579",
"m. c #AD8779",
"M. c #A7887D",
"N. c #AA897D",
"B. c #B58373",
"V. c #B98674",
"C. c #B38A7B",
"Z. c #B88B7B",
"A. c #C5816B",
"S. c #D18068",
"D. c #C58873",
"F. c #C3907E",
"G. c #CC907C",
"H. c #E3876C",
"J. c #F08567",
"K. c #E6967C",
"L. c #537382",
"P. c #5A7582",
"I. c #53798C",
"U. c #587C8E",
"Y. c #687780",
"T. c #6A7E89",
"R. c #717F87",
"E. c #7D7E81",
"W. c #3F9DBE",
"Q. c #578193",
"!. c #5A8293",
"~. c #57869B",
"^. c #5A879B",
"/. c #5A899E",
"(. c #6B818D",
"). c #70818B",
"_. c #7F898F",
"`. c #4E88A0",
"'. c #518CA5",
"]. c #5B8EA5",
"[. c #5592AB",
"{. c #5892AA",
"}. c #4997B6",
"|. c #459CBC",
" X c #4D9DBB",
".X c #5197B3",
"XX c #539AB6",
"oX c #608EA3",
"OX c #00ABD6",
"+X c #0FAAD3",
"@X c #00AFDB",
"#X c #0EAFD9",
"$X c #15ABD4",
"%X c #1DAED7",
"&X c #14AED8",
"*X c #01B2DD",
"=X c #14B0DA",
"-X c #29A6CD",
";X c #35A6CB",
":X c #37A8CD",
">X c #38A8CD",
",X c #20A9D1",
"<X c #2CABD3",
"1X c #32AAD0",
"2X c #44A4C6",
"3X c #838283",
"4X c #848688",
"5X c #86888A",
"6X c #8A8C8F",
"7X c #9A8A83",
"8X c #968D8A",
"9X c #848B90",
"0X c #8C8E91",
"qX c #8F9194",
"wX c #8A949A",
"eX c #929496",
"rX c #989696",
"tX c #949699",
"yX c #97999C",
"uX c #A38B82",
"iX c #AB8F84",
"pX c #A7948E",
"aX c #AB9389",
"sX c #B79385",
"dX c #BD9486",
"fX c #A19D9D",
"gX c #9D9FA2",
"hX c #9FA1A3",
"jX c #A5A7A9",
"kX c #A9ACAE",
"lX c #ACAEB1",
"zX c #AEB0B3",
"xX c #B1B3B6",
"cX c #B4B6B9",
"vX c #BABCBE",
"bX c #C89683",
"nX c #CD9885",
"mX c #C29A8C",
"MX c #CC9A89",
"NX c #C49F91",
"BX c #D7A18E",
"VX c #BEC0C2",
"CX c #C0C2C4",
"ZX c #C9CBCD",
"AX c #CFD0D2",
"SX c #D5D6D8",
"DX c #DADBDD",
"FX c #E3E4E5",
"GX c #E6E7E8",
"HX c #EBECED",
"JX c #EFEFF0",
"KX c #F3F3F4",
"LX c #FEFEFE",
/* pixels */
"8 * * * - - * * - * - - - - - - - * * * - - * * - - * * - * * 8 ",
"$ . X . . . . . X X . . . . X   . . . . . . . . X   X . X X   $ ",
"* . . . . . . .   X   % q f f a 9 $ . . X . .   X X . .   X X * ",
"*   X . . X . X $ | 7.N.7X8XrXfXpXm.1.j O . .   . X . . X . X * ",
"- . . . X     | C.>.P B '.-XOX@X-X].U ,.B.j     . . X . X . X * ",
"* X . . . % B.c.- 3 N ^. X@X*X*X&X>X[.b x M.1.@ . . . . . . X * ",
"- . X . > V.G . e P.^. X*X@X@X@X*X&X2X.XU.e =.5.@ X . . X   . * ",
"- X X @ B.h X X 3 z L.~.].].oX].{..X}.`.I.m = J 4.o X X X X X * ",
"- . X 1.G . $ u L <.5.u.w.e.e.e.w.o.2.<.K x 1 . :.X.. X . X . * ",
"* X , c.J B.p.[ ^ Q Q Q Q Q Q Q Q Q Q Q ( 8.z.n.D <.: .   X . - ",
"- X =.z._ Q Q Q Q Q Q Q Q Q Q Q Q Q Q Q Q Q Q Q { D.S   . X . - ",
"- ,.' ! Q Q Q Q Q Q Q Q Q Q Q Q Q Q Q Q Q Q Q Q Q Q s.H . .   - ",
"h ( Q Q Q ~ ( [ s.q.r.y.u.u.u.u.w.y.t.a.9.[ ( ! Q Q Q q.$ X . * ",
"K 9.p.6.7.#.A 8 * + * 5 8 u p y 8 1 & @ - y S -.7.l.t.h.5 X X - ",
"8 uX* . . . $ T hXCXDXHXKXLXLXLXKXGXSXvXyXD . . . . 8 uXo X X - ",
"6 m.  . = eXtXeXAXLXLXLXLXLXLXLXLXLXLXLXxXqXjX4X. . - V.X X X * ",
"6 sX  5 DXHXhX0XE W vXJXLXLXLXLXLXDXjXT E.eXxXLXcX+ * Z.o . . - ",
"> C.. 9XLXLXLXLXvX+ y G 6XFXLXVX3XW = T HXLXLXLXLXp * Z.    X * ",
"* C.* Z LXLXLXLXr X T kXKXLXLXLXKXvX  y 5XLXLXLXHX- p B.  . X - ",
"* 7.Z . 9XFXLXLXG X . ZXLXLXLXLXLXvX. . p LXLXSXF   R j.A.q 6 w ",
"* l 7X. e Y.wXcXcXhXkXFXKXGXDXHXKXDXgX6XlXlX_.v 1 X aXQ ` k.k.2.",
"* % mX+ X t b n C Y.Y P F M M M U Y R.T.P.m v r X - H.! ] f.X.5 ",
"* X %.c.X 2 v M v Q.|.-X<X*X*X*X$X+X;X^.m m x $ . 8X( ^ K.6   * ",
"*   * bX5 X o e N !.{.>X*X*X*X*X*X&X2X{.P.r X . y j.Q Q 9.X.; * ",
"* X . j NX$ X $ z V {.1X*X*X*X*X*X;X].x X . X - BXd.[ ` ( g.J.$.",
"* . X .  .dX1 X v Q.XX<X*X*X*X*X%X2X].M =   y MXk f +.$.X. .| w ",
"* . . .   l bXG X = P.<X*X*X*X*X*X*X;Xn . R G.d . . . . . X X - ",
"* . X X   . 9 6.iX* 3 {.*X*X*X*X*X;XN 7 sX2., . . . . . . X . - ",
"- . X . . . . . k dXu 4 |.@X*X@XW.z Z F.s   X . . .   X . . . * ",
"- . . . . . . .   q C.uXW (.(.R.>.iX3.< . X X . . . X . . . . - ",
"$ . X . . . X .   X   w O.*.*.&...0 . . . X . . . . . . X   . $ ",
"8 - * - * * * * * - * - * - * * * - * * - * * - - * - - - - * 8 "
};
