/* XPM */
static char *Ninja_Light_IconB[] = {
/* columns rows colors chars-per-pixel */
"32 32 256 2",
"   c #2D1717",
".  c #2C1915",
"X  c #301717",
"o  c #311B15",
"O  c #351919",
"+  c #3C1A1A",
"@  c #3A1515",
"#  c #312014",
"$  c #392219",
"%  c #2D1D21",
"&  c #2E282E",
"*  c #2C2426",
"=  c #372024",
"-  c #3D2525",
";  c #3F2929",
":  c #3E3032",
">  c #411414",
",  c #4A1616",
"<  c #441C1C",
"1  c #4B1B1B",
"2  c #551E1E",
"3  c #5E1E1E",
"4  c #6F1E1E",
"5  c #771F1F",
"6  c #483017",
"7  c #5A3F1B",
"8  c #563D1A",
"9  c #432222",
"0  c #4A2323",
"q  c #412D2D",
"w  c #4D2A2A",
"e  c #542424",
"r  c #5C2424",
"t  c #542A2A",
"y  c #5D2B2B",
"u  c #5B3E27",
"i  c #443232",
"p  c #5E3333",
"a  c #632222",
"s  c #6A2323",
"d  c #662C2C",
"f  c #6B2D2D",
"g  c #712323",
"h  c #752C2C",
"j  c #7C2B2B",
"k  c #7A2424",
"l  c #623131",
"z  c #6B3333",
"x  c #603A3E",
"c  c #6E3B3B",
"v  c #723333",
"b  c #7B3333",
"n  c #733838",
"m  c #7C3B3B",
"M  c #59441D",
"N  c #7F6A1E",
"B  c #5C512D",
"V  c #735F29",
"C  c #6B4138",
"Z  c #7D6721",
"A  c #7F6C2E",
"S  c #706033",
"D  c #7F6D31",
"F  c #554047",
"G  c #524449",
"H  c #414855",
"J  c #4A4D55",
"K  c #714040",
"L  c #7E4646",
"P  c #7F4A4A",
"I  c #755959",
"U  c #6C6243",
"Y  c #736347",
"T  c #7C7347",
"R  c #6C635B",
"E  c #545D6A",
"W  c #5D6269",
"Q  c #556073",
"!  c #5E6A76",
"~  c #64676C",
"^  c #852C2C",
"/  c #882F2F",
"(  c #892323",
")  c #922525",
"_  c #952C2C",
"`  c #833434",
"'  c #8B3434",
"]  c #833B3B",
"[  c #8B3B3B",
"{  c #923232",
"}  c #9A3333",
"|  c #953B3B",
" . c #9C3B3B",
".. c #846F26",
"X. c #81612F",
"o. c #887332",
"O. c #837138",
"+. c #947E36",
"@. c #834242",
"#. c #8B4343",
"$. c #824D4D",
"%. c #8E4D4D",
"&. c #914343",
"*. c #9C4343",
"=. c #944B4B",
"-. c #9C4B4B",
";. c #805145",
":. c #845353",
">. c #8E5252",
",. c #875959",
"<. c #895C5D",
"1. c #905151",
"2. c #9B5555",
"3. c #935B55",
"4. c #955959",
"5. c #9C5A5A",
"6. c #A24646",
"7. c #A44C4C",
"8. c #A55353",
"9. c #AA5555",
"0. c #A55C5C",
"q. c #AD5C5C",
"w. c #907F4D",
"e. c #8F6F5B",
"r. c #A5764B",
"t. c #A0665F",
"y. c #8D6464",
"u. c #8F6969",
"i. c #906664",
"p. c #916C6C",
"a. c #937070",
"s. c #9C7B75",
"d. c #A36463",
"f. c #AC6363",
"g. c #AD6D6D",
"h. c #B16464",
"j. c #B56C6C",
"k. c #AA7962",
"l. c #B47171",
"z. c #B97373",
"x. c #BD7B7B",
"c. c #9B8138",
"v. c #BB882B",
"b. c #A38C38",
"n. c #BF9932",
"m. c #968753",
"M. c #A28948",
"N. c #A59348",
"B. c #AA934F",
"V. c #A89344",
"C. c #B39544",
"Z. c #B0955D",
"A. c #BAA04A",
"S. c #B3A25E",
"D. c #9F936C",
"F. c #BA9C7B",
"G. c #BBAC6F",
"H. c #CA9C45",
"J. c #CAAE4F",
"K. c #C5A64B",
"L. c #CFA852",
"P. c #C2AD58",
"I. c #D1AF50",
"U. c #DEBD56",
"Y. c #D6BD5C",
"T. c #E4B953",
"R. c #C9A26F",
"E. c #D2BF69",
"W. c #D0AE7E",
"Q. c #C5BA7C",
"!. c #FDC041",
"~. c #E0C55D",
"^. c #F8D250",
"/. c #FFE055",
"(. c #D0CA7D",
"). c #DACB7B",
"_. c #EACC61",
"`. c #FFCF6D",
"'. c #E9D169",
"]. c #F5D067",
"[. c #FBD465",
"{. c #FFDC64",
"}. c #F3D76A",
"|. c #FAD66C",
" X c #FDDB6C",
".X c #FEDB75",
"XX c #F3DF7A",
"oX c #FFDF7A",
"OX c #FEE36C",
"+X c #FDE577",
"@X c #FEE779",
"#X c #5F6D82",
"$X c #6C7788",
"%X c #7E8082",
"&X c #7B8497",
"*X c #00A8FF",
"=X c #93989E",
"-X c #AB9780",
";X c #AEA385",
":X c #B1A38A",
">X c #A9A196",
",X c #B8A597",
"<X c #C28484",
"1X c #C68B8B",
"2X c #C7908E",
"3X c #C99393",
"4X c #C49892",
"5X c #CD9A9A",
"6X c #CBAD89",
"7X c #DFBD84",
"8X c #CCAA9D",
"9X c #DFBF91",
"0X c #D2B198",
"qX c #D6BCAB",
"wX c #DCD18E",
"eX c #DFD69F",
"rX c #F7DF8E",
"tX c #F9DA89",
"yX c #FEE583",
"uX c #FEEC86",
"iX c #F5E78E",
"pX c #FCE48F",
"aX c #FEEC8D",
"sX c #FFE795",
"dX c #FEEF97",
"fX c #F6EA9F",
"gX c #FFEF9E",
"hX c #FAE29A",
"jX c #FEF196",
"kX c #FFF299",
"lX c #DAC2AE",
"zX c #EBD7B1",
"xX c #E7DFB5",
"cX c #E2D6BE",
"vX c #FAE1A0",
"bX c #F8E6AB",
"nX c #FEF5AA",
"mX c #FFF8A9",
"MX c #FDF1A4",
"NX c #EFEFBB",
"BX c #FCEEB3",
"VX c #FFF3B3",
"CX c #FFFABE",
"ZX c #DBD4C0",
"AX c #FFF6C3",
"SX c #FEF9C3",
"DX c #FCF4CB",
"FX c #FFFCCD",
"GX c #FFFBD3",
"HX c #FEFCDA",
"JX c #E8E4C6",
"KX c #F8F6E5",
"LX c #FEFCE3",
"PX c #FFFCEA",
"IX c #FFFFF4",
"UX c #FFFFF8",
/* pixels */
"w 9 - - - - - - - ; ; ; ; ; ; q q i q i i q i i i i i i i i i % ",
"%.>.P P P $.$.$.$.:.:.:.e.-XcXJXZX,Xs.y.i.u.u.u.u.u.a.a.a.a.I : ",
"q.h.h.h.f.j.j.g.g.g.t.Z.DXIXIXUXUXUXKXqX3X2X2X3X3X3X5X5X5X5Xa.i ",
"q.q.q.h.f.f.f.f.d.3.B.NXLXLXLXLXPXPXIXPXqX1X2X2X3X3X3X5X5X5Xa.i ",
"q.q.f.q.q.0.5.5.3.A (.zXSXFXGXGXGXHXLXPXGX8X1X1X3X3X3X3X5X5Xu.i ",
"9.9.q.0.0.2.1.$.C b.Q.eXBXCXCXCXCXSXDXHXGXzX4X1X1X2X3X3X5X5Xa.i ",
"8.9.8.8.2.%.$.n u c.G.wXfXnXmXmXmXnXVXAXDXbX0X1X1X2X3X3X3X5Xp.i ",
"7.8.8.=.%.L c p M +.S.).iXjXkXjXjXjXMXMXBXhX9X1X1X1X1X2X3X3Xu.i ",
"7.8.-.=.L c p w 8 ..N.E.XXuXuXuXuXuXaXaXsXtX7X<X1X1X1X1X2X3Xu.q ",
"7.7.=.#.m l t - 6 N +.P.'.+X+X+X@X@X@X@XoX`.R.<X<X<X1X1X2X3Xu.i ",
"7.7.&.@.c y 0 - o N D V.Y.'.OXOXOXOXOX.X[.T.k.<X<X<X1X1X1X2Xy.i ",
"*.*.&.] z t 9 O   M A o.A.~.}. X+XOX{.[./.r.g.<X<X<X<X1X1X1Xy.i ",
"6.*.#.m z t 9 +   . S ..c.J._. X X{.[.{.H.i.z.x.x.<X<X<X<X1Xy.i ",
" .*.| ] f t 9 O     . S O.C.U.|. X|.yXI.4.l.z.x.x.x.<X<X<X1Xy.q ",
"*.*.| ] v y 0 + X     o T M.I.[. XpXrX;.d.l.z.x.x.x.<X<X<X<X<.q ",
" . .| ] b d e - +     o U m.K.[..XBX6X4.f.j.z.z.x.x.x.x.<X<Xy.q ",
" . . .[ ` f y 0 + X   $ U M.n.^.|.AX6X0.f.j.l.z.z.z.x.x.<X<X<.q ",
" . .| | [ b d e 9 + X o B o.v.T.`.hXF.0.f.j.l.z.z.z.x.x.x.x.<.q ",
" . . .| [ ` v y 0 + O o * R ;XD.:X>Xy.f.h.j.j.j.z.z.z.z.x.x.,.q ",
"} }  .| | ' j d e < @ O * E =X#X$X&Xy.f.h.j.j.j.z.z.z.z.x.z.,.q ",
"}  . .} | [ b d t < + O & ~ %XW ! $X<.f.h.h.h.j.j.j.z.z.z.x.,.q ",
"} } }  .} [ ` h r < + O % J ~ H E Q >.q.q.h.h.j.j.j.j.z.z.z.,.9 ",
"} } { / *X{ ` h e < *X+ + = i G F x *Xq.q.h.q.2.*Xj.j.j.z.z.:.q ",
"_ _ j a *X{ ' h 2 @ + < 1 t z ] n l *X9.q.q.%.c *Xh.j.j.j.j.:.- ",
"_ _ g 1 *X{ ' j r < *X< < *X*Xn *Xw *X#.*X*Xc *X*X*Xh.j.j.j.:.- ",
"_ _ g 1 *X{ ' ^ r > *X< *X+ < *X*X0 *X*Xl z *X  *X8.h.j.j.j.$.- ",
"_ _ 5 , *X} { / r @ *X@ *Xe + O *X+ *Xn z t *X9 *Xq.h.h.h.j.$.- ",
") _ 4 , *X{ _ / s > *X+ *Xb r < *X0 *X-.m t *Xt *Xq.q.h.h.j.P 9 ",
") ) 4 , *X_ _ { s , *X< *X' a *X*X0 *X7.m t *Xt *Xq.q.h.h.h.$.= ",
") ) 4 > *X*X*X*X*X1 *X2 r *X*X+ *X2 *X7.m t *X0 *X*Xq.q.f.h.$.+ ",
") ) 5 , > , , 3 a 3 h g 2 2 1 < *Xd ] 6.] d z t d =.9.q.q.h.=.- ",
") ) ( 5 4 4 g k ( ^ ^ h *X*X*X*Xj [  .6.*.&.&.@.#.-.9.q.q.q.%.w "
};
