/* XPM */
static char *_eb16548ae4244b6b588bee82d957dbb[] = {
/* columns rows colors chars-per-pixel */
"32 32 185 2 ",
"   c #222324",
".  c #222425",
"X  c #232425",
"o  c #222426",
"O  c #232526",
"+  c #242628",
"@  c #242728",
"#  c #24282A",
"$  c #25282A",
"%  c #25292A",
"&  c #262B2C",
"*  c #262B2D",
"=  c #262C2D",
"-  c #242C2E",
";  c #272C2E",
":  c #272E2F",
">  c #242E31",
",  c #252F31",
"<  c #252F32",
"1  c #253033",
"2  c #293133",
"3  c #2A3234",
"4  c #263538",
"5  c #263539",
"6  c #26373B",
"7  c #2C3638",
"8  c #27383B",
"9  c #273B3F",
"0  c #2D383A",
"q  c #2D393B",
"w  c #2D3A3C",
"e  c #2E3A3C",
"r  c #2E3B3D",
"t  c #2E3C3E",
"y  c #2F3D3F",
"u  c #273B40",
"i  c #283C40",
"p  c #283C41",
"a  c #283D42",
"s  c #283E43",
"d  c #294348",
"f  c #2A494F",
"g  c #314143",
"h  c #314144",
"j  c #314244",
"k  c #314447",
"l  c #334548",
"z  c #344749",
"x  c #35484B",
"c  c #35494C",
"v  c #364A4D",
"b  c #364B4E",
"n  c #374C4F",
"m  c #2B4C53",
"M  c #2C4E55",
"N  c #2C4F56",
"B  c #374D50",
"V  c #2C5159",
"C  c #2D525A",
"Z  c #2D535B",
"A  c #395154",
"S  c #3B5457",
"D  c #3C585C",
"F  c #3D595C",
"G  c #3D595D",
"H  c #2E5962",
"J  c #2E5A62",
"K  c #2E5A63",
"L  c #2E5B64",
"P  c #2F5B64",
"I  c #2F5C66",
"U  c #2F5D67",
"Y  c #3F5C60",
"T  c #306069",
"R  c #30606A",
"E  c #30626D",
"W  c #30646E",
"Q  c #31656F",
"!  c #316570",
"~  c #316772",
"^  c #316872",
"/  c #326974",
"(  c #326B77",
")  c #336E7A",
"_  c #336F7B",
"`  c #33707C",
"'  c #34727C",
"]  c #405F63",
"[  c #416164",
"{  c #426266",
"}  c #426468",
"|  c #45696E",
" . c #466A6E",
".. c #476C71",
"X. c #476D71",
"o. c #446F74",
"O. c #486E73",
"+. c #4C767B",
"@. c #4E797E",
"#. c #347682",
"$. c #357884",
"%. c #357984",
"&. c #357A86",
"*. c #387982",
"=. c #3D7881",
"-. c #377F8B",
";. c #4D7F85",
":. c #507E83",
">. c #38818D",
",. c #3A8591",
"<. c #3B8591",
"1. c #3A8792",
"2. c #3B8793",
"3. c #3C8793",
"4. c #3B8893",
"5. c #41818C",
"6. c #518085",
"7. c #528287",
"8. c #53848A",
"9. c #53858B",
"0. c #54868C",
"q. c #438C95",
"w. c #458D97",
"e. c #4F8C93",
"r. c #568A90",
"t. c #568B90",
"y. c #578C92",
"u. c #578D93",
"i. c #588E94",
"p. c #539097",
"a. c #599096",
"s. c #56969E",
"d. c #5A9298",
"f. c #5B949A",
"g. c #5C959C",
"h. c #4494A0",
"j. c #5099A1",
"k. c #5398A1",
"l. c #519AA3",
"z. c #559FA7",
"x. c #589AA2",
"c. c #599DA4",
"v. c #5A9FA7",
"b. c #589FA8",
"n. c #4EA1AC",
"m. c #59A0A8",
"M. c #56A7B1",
"N. c #55A8B2",
"B. c #57AAB4",
"V. c #58ABB5",
"C. c #59ACB5",
"Z. c #61A0A7",
"A. c #60A2AB",
"S. c #63A3AA",
"D. c #63A4AB",
"F. c #64A5AC",
"G. c #64A6AD",
"H. c #64A6AE",
"J. c #64A7AE",
"K. c #64A9B0",
"L. c #66A9B1",
"P. c #66AAB1",
"I. c #67AAB2",
"U. c #66ABB2",
"Y. c #67ABB3",
"T. c #65AFB7",
"R. c #68AEB6",
"E. c #69AFB7",
"W. c #69B0B7",
"Q. c #65B5BE",
"!. c #69B1B8",
"~. c #68B3BB",
"^. c #6AB2BA",
"/. c #6AB3BB",
"(. c #6BB3BB",
"). c #6CB5BD",
"_. c #6CB6BE",
"`. c #6DB7BF",
"'. c #6CB8C0",
"]. c #6DB8C0",
"[. c #6DB9C1",
"{. c #6EB9C1",
"}. c #6DBAC2",
"|. c #6EBAC2",
" X c None",
/* pixels */
" X X X X X X X X X X X X X X X X X X X X X X X X X X X X X X X X",
" X X X X X X X X X X X X X X X X X X X X X X X X X X X X X X X X",
" X X X X X X X X X        . .                  X X X X X X X X X",
" X X X X X X. D ;.p.s.x.c.c.m.b.z.l.w.*.W R K N i .  X X X X X X",
" X X X X X X X .|.|.|.|.|.|.|.|.|.|.|.|.C.#._ _ _ U ;  X X X X X",
" X X X X@ { %  X..|.|.|.|.|.|.|.|.|.|.|.|.B.` _ _ _ L    X X X X",
" X X X X7 |.a.%  X+.).[ D |.|.|.|.|.|.|.|.|.$._ _ _ _ >  X X X X",
" X X X Xg |.|.d.; . j  Xb ).|.|.|.|.|.|.|.|.>._ _ _ ` 6  X X X X",
" X X X Xl |.|.|.8. X X3 W.|.|.|.|.|.|.|.|.|.2._ _ _ _ 9  X X X X",
" X X X Xb |.|.).A  X X. @.|.:.Y ~.|.|.|.|.|.,._ _ _ _ 9  X X X X",
" X X X Xb |.|.R.; b 0.;  Xx  X. G.|.|.|.|.|.2._ _ _ _ s  X X X X",
" X X X Xb |.|.|.Y.|.|.g.%  X. 8.|.|.|.|.|.|.2._ _ _ _ s  X X X X",
" X X X XA |.|.|.|.|.|.@..  X X{ `.|.|.|.|.|.2._ _ _ ` s  X X X X",
" X X X XB |.|.|.|.|.|.y * O.3  X{ |.|.|.|.|.2._ _ _ _ i  X X X X",
" X X X .u.|.|.|.|.|.|.F.G.|.Z.j j ).|.|.|.'.2._ _ _ _ C d  X X X",
" X X  P.|.|.|.|.|.|.|.|.|.|.|.).).|.|.|.|.~.3._ _ _ _ _ !    X X",
" X X  S.|.|.|.|.|.|.|.|.|.|.|.|.|.|.|.|.|.R.5._ _ _ _ _ W    X X",
" X X Xt.|.|.|.|.Y.K.G.G.G.G.~.|.|.(.K.P.Y.m.=./ _ _ _ ` P    X X",
" X X Xn |.|.|.`.l @ % % % + r.|.|.t.+ % ; ; # 4 _ _ _ ` i  X X X",
" X X X X} W.|.|.:. X X X X7 R.|.|.W.r  X X X XM _ _ / f  X X X X",
" X X X X Xr Y.|.|.7.b y D G.|.|.|.|.G.D y 8 C _ _ ^ 1  X X X X X",
" X X X X X Xy.|.|.|.|.).|.|.|.|.|.|.|.|.M._ _ _ _ K    X X X X X",
" X X X X X X6.|.|.|.|.|.|.|.|.|.|.|.|.|.n._ _ _ _ C  X X X X X X",
" X X X X X XO.|.|.|.|.|.|.|.|.|.|.|.|.|.h._ _ _ ` f  X X X X X X",
" X X X X X Xz |.|.|.|.|.|.|.|.|.|.|.|.|.-._ _ ` _ 4  X X X X X X",
" X X X X X X. f.|.|.|.|.|.|.|.|.|.|.|.C._ _ _ ` I .  X X X X X X",
" X X X X X X Xr P.|.|.|.|.|.|.|.|.|.Q.%._ _ _ ! >  X X X X X X X",
" X X X X X X X Xq i.|.|.|.|.|.|.|.N.%._ _ _ H >  X X X X X X X X",
" X X X X X X X X X Xl o.e.l.l.q.` E R K N 4    X X X X X X X X X",
" X X X X X X X X X X X X        +        X X X X X X X X X X X X",
" X X X X X X X X X X X X X X X X X X X X X X X X X X X X X X X X",
" X X X X X X X X X X X X X X X X X X X X X X X X X X X X X X X X"
};
